( Generated by Carbide Copper )
( Material Size )
( X= 152.400, Y= 101.600, Z= 1.580 )
()
G17
G21
G54
G90
M05
(  )
T502 M06
( Contour )
M03 S10000
G0  X108.223 Y98.871
G0  Z3.000
G01 F400 Z0
G01 F400 Z-0.100
G01F400X108.110 Y98.847
X108.005 Y98.800
X107.912 Y98.732
X107.835 Y98.647
X107.778 Y98.547
X107.742 Y98.438
X107.730 Y98.323
X107.742 Y98.209
X107.778 Y98.100
X107.835 Y98.000
X107.912 Y97.915
X107.934 Y97.899
X107.925 Y97.845
X107.925 Y14.983
X107.930 Y14.937
X107.907 Y14.907
X107.835 Y14.827
X107.778 Y14.727
X107.742 Y14.618
X107.730 Y14.503
X107.742 Y14.389
X107.778 Y14.280
X107.835 Y14.180
X107.912 Y14.095
X108.005 Y14.027
X108.110 Y13.980
X108.223 Y13.956
X108.338 Y13.956
X108.450 Y13.980
X108.555 Y14.027
X108.617 Y14.071
X108.622 Y14.069
X108.715 Y14.049
X148.485 Y14.049
X148.579 Y14.069
X148.584 Y14.071
X148.645 Y14.027
X148.750 Y13.980
X148.863 Y13.956
X148.978 Y13.956
X149.090 Y13.980
X149.195 Y14.027
X149.288 Y14.095
X149.365 Y14.180
X149.423 Y14.280
X149.458 Y14.389
X149.471 Y14.503
X149.458 Y14.618
X149.423 Y14.727
X149.365 Y14.827
X149.351 Y14.843
X149.367 Y14.891
X149.377 Y14.984
X149.224 Y38.380
X149.377 Y97.843
X149.367 Y97.936
X149.351 Y97.984
X149.365 Y98.000
X149.423 Y98.100
X149.458 Y98.209
X149.471 Y98.323
X149.458 Y98.438
X149.423 Y98.547
X149.365 Y98.647
X149.288 Y98.732
X149.195 Y98.800
X149.090 Y98.847
X148.978 Y98.871
X148.863 Y98.871
X148.750 Y98.847
X148.645 Y98.800
X148.552 Y98.732
X148.498 Y98.672
X148.474 Y98.677
X108.726 Y98.677
X108.703 Y98.672
X108.648 Y98.732
X108.555 Y98.800
X108.450 Y98.847
X108.338 Y98.871
X108.223 Y98.871
G0 Z3.000
G0  X108.703 Y97.975
G0  Z3.000
G01 F400 Z0
G01 F400 Z-0.100
G01F400X108.726 Y97.970
X148.475 Y97.970
X148.486 Y97.973
X148.474 Y97.936
X148.464 Y97.844
X148.311 Y38.379
X148.464 Y14.983
X148.466 Y14.958
X108.715 Y14.958
X108.629 Y14.939
X108.635 Y14.982
X108.635 Y97.843
X108.630 Y97.890
X108.653 Y97.920
X108.703 Y97.975
G0 Z3.000
G0  X130.100 Y96.824
G0  Z3.000
G01 F400 Z0
G01 F400 Z-0.100
G01F400X130.100 Y94.743
X132.181 Y94.743
X132.181 Y95.329
X143.384 Y95.305
X143.384 Y71.278
X143.336 Y71.257
X143.166 Y71.133
X143.025 Y70.976
X142.945 Y70.839
X138.828 Y70.863
X138.743 Y70.863
X137.144 Y70.840
X137.057 Y70.991
X136.912 Y71.152
X136.737 Y71.279
X136.540 Y71.367
X136.328 Y71.412
X136.112 Y71.412
X135.901 Y71.367
X135.703 Y71.279
X135.528 Y71.152
X135.384 Y70.991
X135.276 Y70.804
X135.209 Y70.598
X135.186 Y70.383
X135.209 Y70.169
X135.276 Y69.963
X135.384 Y69.776
X135.528 Y69.615
X135.703 Y69.488
X135.901 Y69.400
X136.112 Y69.355
X136.328 Y69.355
X136.540 Y69.400
X136.737 Y69.488
X136.912 Y69.615
X137.057 Y69.776
X137.146 Y69.931
X138.804 Y69.954
X142.944 Y69.930
X143.025 Y69.791
X143.166 Y69.634
X143.336 Y69.510
X143.529 Y69.425
X143.735 Y69.381
X143.946 Y69.381
X144.152 Y69.425
X144.344 Y69.510
X144.515 Y69.634
X144.656 Y69.791
X144.761 Y69.973
X144.826 Y70.174
X144.849 Y70.383
X144.826 Y70.593
X144.761 Y70.794
X144.656 Y70.976
X144.515 Y71.133
X144.344 Y71.257
X144.297 Y71.278
X144.297 Y95.761
X144.287 Y95.853
X144.257 Y95.944
X144.210 Y96.026
X144.146 Y96.097
X144.069 Y96.154
X143.981 Y96.192
X143.888 Y96.212
X132.181 Y96.237
X132.181 Y96.824
X130.100 Y96.824
G0 Z3.000
G0  X131.031 Y94.279
G0  Z3.000
G01 F400 Z0
G01 F400 Z-0.100
G01F400X130.819 Y94.233
X130.620 Y94.145
X130.444 Y94.017
X130.298 Y93.855
X130.189 Y93.667
X130.122 Y93.460
X130.099 Y93.243
X130.122 Y93.027
X130.189 Y92.820
X130.298 Y92.632
X130.444 Y92.470
X130.620 Y92.342
X130.819 Y92.254
X131.031 Y92.208
X131.249 Y92.208
X131.462 Y92.254
X131.661 Y92.342
X131.837 Y92.470
X131.982 Y92.632
X132.091 Y92.820
X132.158 Y93.027
X132.181 Y93.243
X132.158 Y93.460
X132.091 Y93.667
X131.982 Y93.855
X131.837 Y94.017
X131.661 Y94.145
X131.462 Y94.233
X131.249 Y94.279
X131.031 Y94.279
G0 Z3.000
G0  X131.031 Y91.739
G0  Z3.000
G01 F400 Z0
G01 F400 Z-0.100
G01F400X130.819 Y91.693
X130.620 Y91.605
X130.444 Y91.477
X130.298 Y91.315
X130.189 Y91.127
X130.122 Y90.920
X130.099 Y90.703
X130.122 Y90.487
X130.189 Y90.280
X130.298 Y90.092
X130.444 Y89.930
X130.620 Y89.802
X130.819 Y89.714
X131.031 Y89.668
X131.249 Y89.668
X131.462 Y89.714
X131.661 Y89.802
X131.837 Y89.930
X131.982 Y90.092
X132.091 Y90.280
X132.158 Y90.487
X132.181 Y90.703
X132.158 Y90.920
X132.091 Y91.127
X131.982 Y91.315
X131.837 Y91.477
X131.661 Y91.605
X131.462 Y91.693
X131.249 Y91.739
X131.031 Y91.739
G0 Z3.000
G0  X131.031 Y89.199
G0  Z3.000
G01 F400 Z0
G01 F400 Z-0.100
G01F400X130.819 Y89.153
X130.620 Y89.065
X130.444 Y88.937
X130.298 Y88.775
X130.189 Y88.587
X130.122 Y88.380
X130.099 Y88.163
X130.122 Y87.947
X130.189 Y87.740
X130.298 Y87.552
X130.444 Y87.390
X130.620 Y87.262
X130.819 Y87.174
X131.031 Y87.128
X131.249 Y87.128
X131.462 Y87.174
X131.661 Y87.262
X131.837 Y87.390
X131.982 Y87.552
X132.091 Y87.740
X132.158 Y87.947
X132.181 Y88.163
X132.158 Y88.380
X132.091 Y88.587
X131.982 Y88.775
X131.837 Y88.937
X131.661 Y89.065
X131.462 Y89.153
X131.249 Y89.199
X131.031 Y89.199
G0 Z3.000
G0  X131.031 Y86.659
G0  Z3.000
G01 F400 Z0
G01 F400 Z-0.100
G01F400X130.819 Y86.613
X130.620 Y86.525
X130.444 Y86.397
X130.298 Y86.235
X130.189 Y86.047
X130.122 Y85.840
X130.099 Y85.623
X130.122 Y85.407
X130.189 Y85.200
X130.298 Y85.012
X130.444 Y84.850
X130.620 Y84.722
X130.819 Y84.633
X131.031 Y84.588
X131.249 Y84.588
X131.462 Y84.633
X131.661 Y84.722
X131.837 Y84.850
X131.982 Y85.012
X132.091 Y85.200
X132.158 Y85.407
X132.181 Y85.623
X132.158 Y85.840
X132.091 Y86.047
X131.982 Y86.235
X131.837 Y86.397
X131.661 Y86.525
X131.462 Y86.613
X131.249 Y86.659
X131.031 Y86.659
G0 Z3.000
G0  X131.031 Y84.119
G0  Z3.000
G01 F400 Z0
G01 F400 Z-0.100
G01F400X130.819 Y84.073
X130.620 Y83.985
X130.444 Y83.857
X130.298 Y83.695
X130.192 Y83.512
X130.183 Y83.512
X125.482 Y83.412
X121.023 Y83.538
X120.933 Y83.538
X120.839 Y83.518
X120.752 Y83.479
X120.675 Y83.423
X120.611 Y83.352
X120.563 Y83.269
X120.534 Y83.178
X120.524 Y83.086
X120.524 Y75.895
X116.883 Y75.918
X116.792 Y75.918
X116.777 Y75.914
X116.701 Y76.045
X116.563 Y76.199
X116.395 Y76.321
X116.206 Y76.405
X116.004 Y76.448
X115.797 Y76.448
X115.594 Y76.405
X115.405 Y76.321
X115.238 Y76.199
X115.099 Y76.045
X114.996 Y75.866
X114.932 Y75.669
X114.910 Y75.463
X114.932 Y75.258
X114.996 Y75.061
X115.099 Y74.881
X115.238 Y74.728
X115.405 Y74.606
X115.594 Y74.522
X115.797 Y74.479
X116.004 Y74.479
X116.206 Y74.522
X116.395 Y74.606
X116.563 Y74.728
X116.701 Y74.882
X116.777 Y75.013
X116.792 Y75.009
X120.938 Y74.984
X121.028 Y74.984
X121.121 Y75.004
X121.209 Y75.043
X121.286 Y75.099
X121.350 Y75.170
X121.397 Y75.252
X121.427 Y75.343
X121.437 Y75.435
X121.437 Y82.615
X125.433 Y82.502
X125.519 Y82.502
X130.222 Y82.603
X130.298 Y82.472
X130.444 Y82.310
X130.620 Y82.182
X130.819 Y82.094
X131.031 Y82.048
X131.249 Y82.048
X131.462 Y82.094
X131.661 Y82.182
X131.837 Y82.310
X131.982 Y82.472
X132.091 Y82.660
X132.158 Y82.867
X132.181 Y83.083
X132.158 Y83.300
X132.091 Y83.507
X131.982 Y83.695
X131.837 Y83.857
X131.661 Y83.985
X131.462 Y84.073
X131.249 Y84.119
X131.031 Y84.119
G0 Z3.000
G0  X131.031 Y81.579
G0  Z3.000
G01 F400 Z0
G01 F400 Z-0.100
G01F400X130.819 Y81.533
X130.620 Y81.445
X130.444 Y81.317
X130.298 Y81.155
X130.207 Y80.998
X123.498 Y80.998
X123.405 Y80.978
X123.317 Y80.939
X123.240 Y80.883
X123.176 Y80.812
X123.128 Y80.729
X123.099 Y80.638
X123.089 Y80.546
X123.089 Y73.331
X116.883 Y73.378
X116.792 Y73.378
X116.777 Y73.374
X116.701 Y73.505
X116.563 Y73.659
X116.395 Y73.781
X116.206 Y73.865
X116.004 Y73.908
X115.797 Y73.908
X115.594 Y73.865
X115.405 Y73.781
X115.238 Y73.659
X115.099 Y73.505
X114.996 Y73.326
X114.932 Y73.129
X114.910 Y72.923
X114.932 Y72.718
X114.996 Y72.521
X115.099 Y72.341
X115.238 Y72.188
X115.405 Y72.066
X115.594 Y71.982
X115.797 Y71.939
X116.004 Y71.939
X116.206 Y71.982
X116.395 Y72.066
X116.563 Y72.188
X116.701 Y72.341
X116.777 Y72.472
X116.792 Y72.469
X123.503 Y72.418
X123.593 Y72.418
X123.687 Y72.438
X123.774 Y72.477
X123.851 Y72.533
X123.915 Y72.604
X123.963 Y72.687
X123.992 Y72.778
X124.002 Y72.870
X124.002 Y80.089
X130.207 Y80.089
X130.298 Y79.932
X130.444 Y79.770
X130.620 Y79.642
X130.685 Y79.613
X130.735 Y67.892
X130.744 Y67.799
X130.774 Y67.709
X130.822 Y67.626
X130.885 Y67.555
X130.963 Y67.499
X131.050 Y67.460
X131.143 Y67.440
X132.745 Y67.416
X132.844 Y67.236
X132.988 Y67.075
X133.163 Y66.948
X133.361 Y66.860
X133.572 Y66.815
X133.788 Y66.815
X134.000 Y66.860
X134.197 Y66.948
X134.372 Y67.075
X134.517 Y67.236
X134.625 Y67.423
X134.691 Y67.629
X134.714 Y67.843
X134.691 Y68.058
X134.625 Y68.264
X134.517 Y68.451
X134.372 Y68.612
X134.197 Y68.739
X134.000 Y68.827
X133.788 Y68.872
X133.572 Y68.872
X133.361 Y68.827
X133.163 Y68.739
X132.988 Y68.612
X132.844 Y68.451
X132.772 Y68.326
X131.645 Y68.342
X131.597 Y79.614
X131.661 Y79.642
X131.837 Y79.770
X131.982 Y79.932
X132.091 Y80.120
X132.158 Y80.327
X132.181 Y80.543
X132.158 Y80.760
X132.091 Y80.967
X131.982 Y81.155
X131.837 Y81.317
X131.661 Y81.445
X131.462 Y81.533
X131.249 Y81.579
X131.031 Y81.579
G0 Z3.000
G0  X133.572 Y71.412
G0  Z3.000
G01 F400 Z0
G01 F400 Z-0.100
G01F400X133.361 Y71.367
X133.163 Y71.279
X132.988 Y71.152
X132.844 Y70.991
X132.736 Y70.804
X132.669 Y70.598
X132.646 Y70.383
X132.669 Y70.169
X132.736 Y69.963
X132.844 Y69.776
X132.988 Y69.615
X133.163 Y69.488
X133.361 Y69.400
X133.572 Y69.355
X133.788 Y69.355
X134.000 Y69.400
X134.197 Y69.488
X134.372 Y69.615
X134.517 Y69.776
X134.625 Y69.963
X134.691 Y70.169
X134.714 Y70.383
X134.691 Y70.598
X134.625 Y70.804
X134.517 Y70.991
X134.372 Y71.152
X134.197 Y71.279
X134.000 Y71.367
X133.788 Y71.412
X133.572 Y71.412
G0 Z3.000
G0  X115.797 Y71.368
G0  Z3.000
G01 F400 Z0
G01 F400 Z-0.100
G01F400X115.594 Y71.325
X115.405 Y71.241
X115.238 Y71.119
X115.099 Y70.965
X114.996 Y70.786
X114.932 Y70.589
X114.910 Y70.383
X114.932 Y70.178
X114.996 Y69.981
X115.099 Y69.801
X115.238 Y69.648
X115.405 Y69.526
X115.594 Y69.442
X115.797 Y69.399
X116.004 Y69.399
X116.206 Y69.442
X116.395 Y69.526
X116.563 Y69.648
X116.701 Y69.801
X116.805 Y69.981
X116.869 Y70.178
X116.890 Y70.383
X116.869 Y70.589
X116.805 Y70.786
X116.701 Y70.965
X116.563 Y71.119
X116.395 Y71.241
X116.206 Y71.325
X116.004 Y71.368
X115.797 Y71.368
G0 Z3.000
G0  X136.112 Y68.872
G0  Z3.000
G01 F400 Z0
G01 F400 Z-0.100
G01F400X135.901 Y68.827
X135.703 Y68.739
X135.528 Y68.612
X135.384 Y68.451
X135.276 Y68.264
X135.209 Y68.058
X135.186 Y67.843
X135.209 Y67.629
X135.276 Y67.423
X135.384 Y67.236
X135.528 Y67.075
X135.703 Y66.948
X135.901 Y66.860
X136.112 Y66.815
X136.328 Y66.815
X136.540 Y66.860
X136.737 Y66.948
X136.912 Y67.075
X137.057 Y67.236
X137.165 Y67.423
X137.231 Y67.629
X137.254 Y67.843
X137.231 Y68.058
X137.165 Y68.264
X137.057 Y68.451
X136.912 Y68.612
X136.737 Y68.739
X136.540 Y68.827
X136.328 Y68.872
X136.112 Y68.872
G0 Z3.000
G0  X115.797 Y68.828
G0  Z3.000
G01 F400 Z0
G01 F400 Z-0.100
G01F400X115.594 Y68.785
X115.405 Y68.701
X115.238 Y68.579
X115.099 Y68.425
X114.996 Y68.246
X114.932 Y68.049
X114.910 Y67.843
X114.932 Y67.638
X114.996 Y67.441
X115.099 Y67.261
X115.238 Y67.108
X115.405 Y66.986
X115.594 Y66.902
X115.797 Y66.859
X116.004 Y66.859
X116.206 Y66.902
X116.395 Y66.986
X116.563 Y67.108
X116.701 Y67.261
X116.805 Y67.441
X116.869 Y67.638
X116.890 Y67.843
X116.869 Y68.049
X116.805 Y68.246
X116.701 Y68.425
X116.563 Y68.579
X116.395 Y68.701
X116.206 Y68.785
X116.004 Y68.828
X115.797 Y68.828
G0 Z3.000
G0  X136.112 Y66.332
G0  Z3.000
G01 F400 Z0
G01 F400 Z-0.100
G01F400X135.901 Y66.287
X135.703 Y66.199
X135.528 Y66.072
X135.384 Y65.911
X135.276 Y65.724
X135.209 Y65.518
X135.186 Y65.303
X135.209 Y65.088
X135.276 Y64.883
X135.384 Y64.696
X135.528 Y64.535
X135.703 Y64.408
X135.901 Y64.320
X136.112 Y64.275
X136.328 Y64.275
X136.540 Y64.320
X136.737 Y64.408
X136.912 Y64.535
X137.057 Y64.696
X137.165 Y64.883
X137.231 Y65.088
X137.254 Y65.303
X137.231 Y65.518
X137.165 Y65.724
X137.057 Y65.911
X136.912 Y66.072
X136.737 Y66.199
X136.540 Y66.287
X136.328 Y66.332
X136.112 Y66.332
G0 Z3.000
G0  X133.572 Y66.332
G0  Z3.000
G01 F400 Z0
G01 F400 Z-0.100
G01F400X133.361 Y66.287
X133.163 Y66.199
X132.988 Y66.072
X132.844 Y65.911
X132.736 Y65.724
X132.669 Y65.518
X132.646 Y65.303
X132.669 Y65.088
X132.736 Y64.883
X132.844 Y64.696
X132.988 Y64.535
X133.163 Y64.408
X133.361 Y64.320
X133.572 Y64.275
X133.788 Y64.275
X134.000 Y64.320
X134.197 Y64.408
X134.372 Y64.535
X134.517 Y64.696
X134.625 Y64.883
X134.691 Y65.088
X134.714 Y65.303
X134.691 Y65.518
X134.625 Y65.724
X134.517 Y65.911
X134.372 Y66.072
X134.197 Y66.199
X134.000 Y66.287
X133.788 Y66.332
X133.572 Y66.332
G0 Z3.000
G0  X143.735 Y66.306
G0  Z3.000
G01 F400 Z0
G01 F400 Z-0.100
G01F400X143.529 Y66.262
X143.336 Y66.177
X143.166 Y66.053
X143.025 Y65.896
X142.919 Y65.713
X142.854 Y65.513
X142.832 Y65.303
X142.854 Y65.094
X142.919 Y64.893
X143.025 Y64.711
X143.166 Y64.554
X143.336 Y64.430
X143.529 Y64.344
X143.735 Y64.301
X143.946 Y64.301
X144.152 Y64.344
X144.344 Y64.430
X144.515 Y64.554
X144.656 Y64.711
X144.761 Y64.893
X144.826 Y65.094
X144.849 Y65.303
X144.826 Y65.513
X144.761 Y65.713
X144.656 Y65.896
X144.515 Y66.053
X144.344 Y66.177
X144.152 Y66.262
X143.946 Y66.306
X143.735 Y66.306
G0 Z3.000
G0  X115.797 Y66.288
G0  Z3.000
G01 F400 Z0
G01 F400 Z-0.100
G01F400X115.594 Y66.245
X115.405 Y66.161
X115.238 Y66.039
X115.099 Y65.885
X114.996 Y65.706
X114.932 Y65.509
X114.910 Y65.303
X114.932 Y65.098
X114.996 Y64.901
X115.099 Y64.721
X115.238 Y64.568
X115.405 Y64.446
X115.594 Y64.362
X115.797 Y64.319
X116.004 Y64.319
X116.206 Y64.362
X116.395 Y64.446
X116.563 Y64.568
X116.701 Y64.721
X116.805 Y64.901
X116.869 Y65.098
X116.890 Y65.303
X116.869 Y65.509
X116.805 Y65.706
X116.701 Y65.885
X116.563 Y66.039
X116.395 Y66.161
X116.206 Y66.245
X116.004 Y66.288
X115.797 Y66.288
G0 Z3.000
G0  X136.112 Y63.792
G0  Z3.000
G01 F400 Z0
G01 F400 Z-0.100
G01F400X135.901 Y63.747
X135.703 Y63.659
X135.528 Y63.532
X135.384 Y63.371
X135.276 Y63.184
X135.209 Y62.978
X135.186 Y62.763
X135.209 Y62.549
X135.276 Y62.343
X135.384 Y62.156
X135.528 Y61.995
X135.703 Y61.868
X135.901 Y61.780
X136.112 Y61.735
X136.328 Y61.735
X136.540 Y61.780
X136.737 Y61.868
X136.912 Y61.995
X137.057 Y62.156
X137.165 Y62.343
X137.231 Y62.549
X137.254 Y62.763
X137.231 Y62.978
X137.165 Y63.184
X137.057 Y63.371
X136.912 Y63.532
X136.737 Y63.659
X136.540 Y63.747
X136.328 Y63.792
X136.112 Y63.792
G0 Z3.000
G0  X133.572 Y63.792
G0  Z3.000
G01 F400 Z0
G01 F400 Z-0.100
G01F400X133.361 Y63.747
X133.163 Y63.659
X132.988 Y63.532
X132.844 Y63.371
X132.736 Y63.184
X132.669 Y62.978
X132.646 Y62.763
X132.669 Y62.549
X132.736 Y62.343
X132.844 Y62.156
X132.988 Y61.995
X133.163 Y61.868
X133.361 Y61.780
X133.572 Y61.735
X133.788 Y61.735
X134.000 Y61.780
X134.197 Y61.868
X134.372 Y61.995
X134.517 Y62.156
X134.625 Y62.343
X134.691 Y62.549
X134.714 Y62.763
X134.691 Y62.978
X134.625 Y63.184
X134.517 Y63.371
X134.372 Y63.532
X134.197 Y63.659
X134.000 Y63.747
X133.788 Y63.792
X133.572 Y63.792
G0 Z3.000
G0  X115.797 Y63.748
G0  Z3.000
G01 F400 Z0
G01 F400 Z-0.100
G01F400X115.594 Y63.705
X115.405 Y63.621
X115.238 Y63.499
X115.099 Y63.345
X114.996 Y63.166
X114.932 Y62.969
X114.910 Y62.763
X114.932 Y62.558
X114.996 Y62.361
X115.099 Y62.181
X115.238 Y62.028
X115.405 Y61.906
X115.594 Y61.822
X115.797 Y61.779
X116.004 Y61.779
X116.206 Y61.822
X116.395 Y61.906
X116.563 Y62.028
X116.701 Y62.181
X116.777 Y62.313
X116.792 Y62.309
X116.883 Y62.309
X128.195 Y62.334
X128.195 Y60.246
X128.204 Y60.154
X128.234 Y60.063
X128.281 Y59.980
X128.345 Y59.909
X128.423 Y59.853
X128.510 Y59.815
X128.603 Y59.795
X132.755 Y59.770
X132.844 Y59.616
X132.988 Y59.455
X133.163 Y59.328
X133.361 Y59.240
X133.572 Y59.195
X133.788 Y59.195
X134.000 Y59.240
X134.197 Y59.328
X134.372 Y59.455
X134.517 Y59.616
X134.625 Y59.803
X134.691 Y60.009
X134.714 Y60.223
X134.691 Y60.438
X134.625 Y60.644
X134.517 Y60.831
X134.372 Y60.992
X134.197 Y61.119
X134.000 Y61.207
X133.788 Y61.252
X133.572 Y61.252
X133.361 Y61.207
X133.163 Y61.119
X132.988 Y60.992
X132.844 Y60.831
X132.756 Y60.679
X129.107 Y60.701
X129.107 Y62.791
X129.098 Y62.884
X129.068 Y62.975
X129.020 Y63.057
X128.957 Y63.128
X128.879 Y63.184
X128.792 Y63.223
X128.699 Y63.243
X128.608 Y63.243
X116.792 Y63.218
X116.777 Y63.214
X116.701 Y63.345
X116.563 Y63.499
X116.395 Y63.621
X116.206 Y63.705
X116.004 Y63.748
X115.797 Y63.748
G0 Z3.000
G0  X136.112 Y61.252
G0  Z3.000
G01 F400 Z0
G01 F400 Z-0.100
G01F400X135.901 Y61.207
X135.703 Y61.119
X135.528 Y60.992
X135.384 Y60.831
X135.276 Y60.644
X135.209 Y60.438
X135.186 Y60.223
X135.209 Y60.009
X135.276 Y59.803
X135.384 Y59.616
X135.528 Y59.455
X135.703 Y59.328
X135.901 Y59.240
X136.112 Y59.195
X136.328 Y59.195
X136.540 Y59.240
X136.737 Y59.328
X136.912 Y59.455
X137.057 Y59.616
X137.165 Y59.803
X137.231 Y60.009
X137.254 Y60.223
X137.231 Y60.438
X137.165 Y60.644
X137.057 Y60.831
X136.912 Y60.992
X136.737 Y61.119
X136.540 Y61.207
X136.328 Y61.252
X136.112 Y61.252
G0 Z3.000
G0  X115.797 Y61.208
G0  Z3.000
G01 F400 Z0
G01 F400 Z-0.100
G01F400X115.594 Y61.165
X115.405 Y61.081
X115.238 Y60.959
X115.099 Y60.805
X114.996 Y60.626
X114.932 Y60.429
X114.910 Y60.223
X114.932 Y60.018
X114.996 Y59.821
X115.099 Y59.641
X115.238 Y59.488
X115.405 Y59.366
X115.594 Y59.282
X115.797 Y59.239
X116.004 Y59.239
X116.206 Y59.282
X116.395 Y59.366
X116.563 Y59.488
X116.701 Y59.641
X116.805 Y59.821
X116.869 Y60.018
X116.890 Y60.223
X116.869 Y60.429
X116.805 Y60.626
X116.701 Y60.805
X116.563 Y60.959
X116.395 Y61.081
X116.206 Y61.165
X116.004 Y61.208
X115.797 Y61.208
G0 Z3.000
G0  X136.112 Y58.712
G0  Z3.000
G01 F400 Z0
G01 F400 Z-0.100
G01F400X135.901 Y58.667
X135.703 Y58.579
X135.528 Y58.452
X135.384 Y58.291
X135.276 Y58.104
X135.209 Y57.898
X135.186 Y57.683
X135.209 Y57.469
X135.276 Y57.263
X135.384 Y57.076
X135.528 Y56.915
X135.703 Y56.788
X135.901 Y56.700
X136.112 Y56.655
X136.328 Y56.655
X136.540 Y56.700
X136.737 Y56.788
X136.912 Y56.915
X137.057 Y57.076
X137.165 Y57.263
X137.231 Y57.469
X137.254 Y57.683
X137.231 Y57.898
X137.165 Y58.104
X137.057 Y58.291
X136.912 Y58.452
X136.737 Y58.579
X136.540 Y58.667
X136.328 Y58.712
X136.112 Y58.712
G0 Z3.000
G0  X133.572 Y58.712
G0  Z3.000
G01 F400 Z0
G01 F400 Z-0.100
G01F400X133.361 Y58.667
X133.163 Y58.579
X132.988 Y58.452
X132.844 Y58.291
X132.755 Y58.138
X131.143 Y58.138
X131.050 Y58.118
X130.963 Y58.079
X130.885 Y58.023
X130.822 Y57.952
X130.774 Y57.869
X130.744 Y57.778
X130.735 Y57.686
X130.735 Y19.632
X130.744 Y19.539
X130.774 Y19.448
X130.822 Y19.366
X130.885 Y19.295
X130.963 Y19.239
X131.050 Y19.200
X131.143 Y19.180
X143.888 Y19.180
X143.981 Y19.200
X144.069 Y19.239
X144.146 Y19.295
X144.210 Y19.366
X144.257 Y19.448
X144.287 Y19.539
X144.297 Y19.632
X144.297 Y41.513
X144.361 Y41.542
X144.537 Y41.670
X144.682 Y41.832
X144.791 Y42.020
X144.858 Y42.227
X144.881 Y42.443
X144.858 Y42.660
X144.791 Y42.867
X144.682 Y43.055
X144.537 Y43.217
X144.361 Y43.345
X144.162 Y43.433
X143.949 Y43.479
X143.731 Y43.479
X143.519 Y43.433
X143.320 Y43.345
X143.144 Y43.217
X142.998 Y43.055
X142.889 Y42.867
X142.822 Y42.660
X142.799 Y42.443
X142.822 Y42.227
X142.889 Y42.020
X142.998 Y41.832
X143.144 Y41.670
X143.320 Y41.542
X143.384 Y41.513
X143.384 Y20.088
X131.647 Y20.088
X131.647 Y57.229
X132.755 Y57.229
X132.844 Y57.076
X132.988 Y56.915
X133.163 Y56.788
X133.361 Y56.700
X133.572 Y56.655
X133.788 Y56.655
X134.000 Y56.700
X134.197 Y56.788
X134.372 Y56.915
X134.517 Y57.076
X134.625 Y57.263
X134.691 Y57.469
X134.714 Y57.683
X134.691 Y57.898
X134.625 Y58.104
X134.517 Y58.291
X134.372 Y58.452
X134.197 Y58.579
X134.000 Y58.667
X133.788 Y58.712
X133.572 Y58.712
G0 Z3.000
G0  X115.797 Y58.668
G0  Z3.000
G01 F400 Z0
G01 F400 Z-0.100
G01F400X115.594 Y58.625
X115.405 Y58.541
X115.238 Y58.419
X115.099 Y58.265
X114.996 Y58.086
X114.932 Y57.889
X114.910 Y57.683
X114.932 Y57.478
X114.996 Y57.281
X115.099 Y57.101
X115.238 Y56.948
X115.405 Y56.826
X115.594 Y56.742
X115.797 Y56.699
X116.004 Y56.699
X116.206 Y56.742
X116.395 Y56.826
X116.563 Y56.948
X116.701 Y57.101
X116.805 Y57.281
X116.869 Y57.478
X116.890 Y57.683
X116.869 Y57.889
X116.805 Y58.086
X116.701 Y58.265
X116.563 Y58.419
X116.395 Y58.541
X116.206 Y58.625
X116.004 Y58.668
X115.797 Y58.668
G0 Z3.000
G0  X136.112 Y56.172
G0  Z3.000
G01 F400 Z0
G01 F400 Z-0.100
G01F400X135.901 Y56.127
X135.703 Y56.039
X135.528 Y55.912
X135.384 Y55.751
X135.276 Y55.564
X135.209 Y55.358
X135.186 Y55.143
X135.209 Y54.928
X135.276 Y54.723
X135.384 Y54.536
X135.528 Y54.375
X135.703 Y54.248
X135.901 Y54.160
X136.112 Y54.115
X136.328 Y54.115
X136.540 Y54.160
X136.737 Y54.248
X136.912 Y54.375
X137.057 Y54.536
X137.165 Y54.723
X137.231 Y54.928
X137.254 Y55.143
X137.231 Y55.358
X137.165 Y55.564
X137.057 Y55.751
X136.912 Y55.912
X136.737 Y56.039
X136.540 Y56.127
X136.328 Y56.172
X136.112 Y56.172
G0 Z3.000
G0  X133.572 Y56.172
G0  Z3.000
G01 F400 Z0
G01 F400 Z-0.100
G01F400X133.361 Y56.127
X133.163 Y56.039
X132.988 Y55.912
X132.844 Y55.751
X132.736 Y55.564
X132.669 Y55.358
X132.646 Y55.143
X132.669 Y54.928
X132.736 Y54.723
X132.844 Y54.536
X132.988 Y54.375
X133.163 Y54.248
X133.361 Y54.160
X133.572 Y54.115
X133.788 Y54.115
X134.000 Y54.160
X134.197 Y54.248
X134.372 Y54.375
X134.517 Y54.536
X134.625 Y54.723
X134.691 Y54.928
X134.714 Y55.143
X134.691 Y55.358
X134.625 Y55.564
X134.517 Y55.751
X134.372 Y55.912
X134.197 Y56.039
X134.000 Y56.127
X133.788 Y56.172
X133.572 Y56.172
G0 Z3.000
G0  X115.797 Y56.128
G0  Z3.000
G01 F400 Z0
G01 F400 Z-0.100
G01F400X115.594 Y56.085
X115.405 Y56.001
X115.238 Y55.879
X115.099 Y55.725
X114.996 Y55.546
X114.932 Y55.349
X114.910 Y55.143
X114.932 Y54.938
X114.996 Y54.741
X115.099 Y54.561
X115.238 Y54.408
X115.405 Y54.286
X115.594 Y54.202
X115.797 Y54.159
X116.004 Y54.159
X116.206 Y54.202
X116.395 Y54.286
X116.563 Y54.408
X116.701 Y54.561
X116.805 Y54.741
X116.869 Y54.938
X116.890 Y55.143
X116.869 Y55.349
X116.805 Y55.546
X116.701 Y55.725
X116.563 Y55.879
X116.395 Y56.001
X116.206 Y56.085
X116.004 Y56.128
X115.797 Y56.128
G0 Z3.000
G0  X136.112 Y53.632
G0  Z3.000
G01 F400 Z0
G01 F400 Z-0.100
G01F400X135.901 Y53.587
X135.703 Y53.499
X135.528 Y53.372
X135.384 Y53.211
X135.276 Y53.024
X135.209 Y52.818
X135.186 Y52.603
X135.209 Y52.389
X135.276 Y52.183
X135.384 Y51.996
X135.528 Y51.835
X135.703 Y51.708
X135.901 Y51.620
X136.112 Y51.575
X136.328 Y51.575
X136.540 Y51.620
X136.737 Y51.708
X136.912 Y51.835
X137.057 Y51.996
X137.165 Y52.183
X137.231 Y52.389
X137.254 Y52.603
X137.231 Y52.818
X137.165 Y53.024
X137.057 Y53.211
X136.912 Y53.372
X136.737 Y53.499
X136.540 Y53.587
X136.328 Y53.632
X136.112 Y53.632
G0 Z3.000
G0  X133.572 Y53.632
G0  Z3.000
G01 F400 Z0
G01 F400 Z-0.100
G01F400X133.361 Y53.587
X133.163 Y53.499
X132.988 Y53.372
X132.844 Y53.211
X132.736 Y53.024
X132.669 Y52.818
X132.646 Y52.603
X132.669 Y52.389
X132.736 Y52.183
X132.844 Y51.996
X132.988 Y51.835
X133.163 Y51.708
X133.361 Y51.620
X133.572 Y51.575
X133.788 Y51.575
X134.000 Y51.620
X134.197 Y51.708
X134.372 Y51.835
X134.517 Y51.996
X134.625 Y52.183
X134.691 Y52.389
X134.714 Y52.603
X134.691 Y52.818
X134.625 Y53.024
X134.517 Y53.211
X134.372 Y53.372
X134.197 Y53.499
X134.000 Y53.587
X133.788 Y53.632
X133.572 Y53.632
G0 Z3.000
G0  X141.195 Y53.606
G0  Z3.000
G01 F400 Z0
G01 F400 Z-0.100
G01F400X140.989 Y53.562
X140.796 Y53.477
X140.626 Y53.353
X140.484 Y53.196
X140.379 Y53.014
X140.314 Y52.813
X140.292 Y52.603
X140.314 Y52.394
X140.379 Y52.193
X140.484 Y52.011
X140.626 Y51.854
X140.796 Y51.730
X140.843 Y51.709
X140.818 Y47.244
X140.869 Y45.006
X140.879 Y44.914
X140.908 Y44.823
X140.956 Y44.740
X141.020 Y44.669
X141.097 Y44.613
X141.185 Y44.575
X141.278 Y44.555
X142.906 Y44.531
X142.998 Y44.372
X143.144 Y44.210
X143.320 Y44.082
X143.519 Y43.994
X143.731 Y43.948
X143.949 Y43.948
X144.162 Y43.994
X144.361 Y44.082
X144.537 Y44.210
X144.682 Y44.372
X144.791 Y44.560
X144.858 Y44.767
X144.881 Y44.983
X144.858 Y45.200
X144.791 Y45.407
X144.682 Y45.595
X144.537 Y45.757
X144.361 Y45.885
X144.162 Y45.973
X143.949 Y46.019
X143.731 Y46.019
X143.519 Y45.973
X143.320 Y45.885
X143.144 Y45.757
X142.998 Y45.595
X142.909 Y45.441
X141.772 Y45.457
X141.731 Y47.245
X141.756 Y51.709
X141.804 Y51.730
X141.975 Y51.854
X142.116 Y52.011
X142.221 Y52.193
X142.286 Y52.394
X142.309 Y52.603
X142.286 Y52.813
X142.221 Y53.014
X142.116 Y53.196
X141.975 Y53.353
X141.804 Y53.477
X141.612 Y53.562
X141.406 Y53.606
X141.195 Y53.606
G0 Z3.000
G0  X146.275 Y53.606
G0  Z3.000
G01 F400 Z0
G01 F400 Z-0.100
G01F400X146.069 Y53.562
X145.876 Y53.477
X145.706 Y53.353
X145.565 Y53.196
X145.459 Y53.014
X145.394 Y52.813
X145.372 Y52.603
X145.394 Y52.394
X145.459 Y52.193
X145.565 Y52.011
X145.706 Y51.854
X145.876 Y51.730
X145.925 Y51.709
X145.947 Y47.997
X144.881 Y47.982
X144.881 Y48.564
X142.800 Y48.564
X142.800 Y46.483
X144.881 Y46.483
X144.881 Y47.073
X146.454 Y47.095
X146.547 Y47.114
X146.634 Y47.153
X146.711 Y47.209
X146.775 Y47.280
X146.823 Y47.363
X146.852 Y47.454
X146.862 Y47.546
X146.838 Y51.709
X146.884 Y51.730
X147.055 Y51.854
X147.196 Y52.011
X147.301 Y52.193
X147.366 Y52.394
X147.388 Y52.603
X147.366 Y52.813
X147.301 Y53.014
X147.196 Y53.196
X147.055 Y53.353
X146.884 Y53.477
X146.692 Y53.562
X146.486 Y53.606
X146.275 Y53.606
G0 Z3.000
G0  X114.910 Y53.593
G0  Z3.000
G01 F400 Z0
G01 F400 Z-0.100
G01F400X114.910 Y51.614
X116.890 Y51.614
X116.890 Y53.593
X114.910 Y53.593
G0 Z3.000
G0  X133.547 Y51.092
G0  Z3.000
G01 F400 Z0
G01 F400 Z-0.100
G01F400X133.335 Y51.047
X133.138 Y50.959
X132.963 Y50.832
X132.818 Y50.671
X132.710 Y50.484
X132.644 Y50.278
X132.621 Y50.063
X132.644 Y49.849
X132.710 Y49.643
X132.818 Y49.456
X132.963 Y49.295
X133.138 Y49.168
X133.335 Y49.080
X133.547 Y49.035
X133.763 Y49.035
X133.974 Y49.080
X134.172 Y49.168
X134.347 Y49.295
X134.491 Y49.456
X134.599 Y49.643
X134.666 Y49.849
X134.689 Y50.063
X134.666 Y50.278
X134.599 Y50.484
X134.491 Y50.671
X134.347 Y50.832
X134.172 Y50.959
X133.974 Y51.047
X133.763 Y51.092
X133.547 Y51.092
G0 Z3.000
G0  X136.112 Y51.092
G0  Z3.000
G01 F400 Z0
G01 F400 Z-0.100
G01F400X135.901 Y51.047
X135.703 Y50.959
X135.528 Y50.832
X135.384 Y50.671
X135.276 Y50.484
X135.209 Y50.278
X135.186 Y50.063
X135.209 Y49.849
X135.276 Y49.643
X135.384 Y49.456
X135.528 Y49.295
X135.703 Y49.168
X135.901 Y49.080
X136.112 Y49.035
X136.328 Y49.035
X136.540 Y49.080
X136.737 Y49.168
X136.912 Y49.295
X137.057 Y49.456
X137.165 Y49.643
X137.231 Y49.849
X137.254 Y50.063
X137.231 Y50.278
X137.165 Y50.484
X137.057 Y50.671
X136.912 Y50.832
X136.737 Y50.959
X136.540 Y51.047
X136.328 Y51.092
X136.112 Y51.092
G0 Z3.000
G0  X133.572 Y48.552
G0  Z3.000
G01 F400 Z0
G01 F400 Z-0.100
G01F400X133.361 Y48.507
X133.163 Y48.419
X132.988 Y48.292
X132.844 Y48.131
X132.736 Y47.944
X132.669 Y47.738
X132.646 Y47.523
X132.669 Y47.309
X132.736 Y47.103
X132.844 Y46.916
X132.988 Y46.755
X133.163 Y46.628
X133.361 Y46.540
X133.572 Y46.495
X133.788 Y46.495
X134.000 Y46.540
X134.197 Y46.628
X134.372 Y46.755
X134.517 Y46.916
X134.625 Y47.103
X134.691 Y47.309
X134.714 Y47.523
X134.691 Y47.738
X134.625 Y47.944
X134.517 Y48.131
X134.372 Y48.292
X134.197 Y48.419
X134.000 Y48.507
X133.788 Y48.552
X133.572 Y48.552
G0 Z3.000
G0  X136.112 Y48.552
G0  Z3.000
G01 F400 Z0
G01 F400 Z-0.100
G01F400X135.901 Y48.507
X135.703 Y48.419
X135.528 Y48.292
X135.384 Y48.131
X135.276 Y47.944
X135.209 Y47.738
X135.186 Y47.523
X135.209 Y47.309
X135.276 Y47.103
X135.384 Y46.916
X135.528 Y46.755
X135.703 Y46.628
X135.901 Y46.540
X136.112 Y46.495
X136.328 Y46.495
X136.540 Y46.540
X136.737 Y46.628
X136.912 Y46.755
X137.057 Y46.916
X137.165 Y47.103
X137.231 Y47.309
X137.254 Y47.523
X137.231 Y47.738
X137.165 Y47.944
X137.057 Y48.131
X136.912 Y48.292
X136.737 Y48.419
X136.540 Y48.507
X136.328 Y48.552
X136.112 Y48.552
G0 Z3.000
G0  X133.572 Y46.012
G0  Z3.000
G01 F400 Z0
G01 F400 Z-0.100
G01F400X133.361 Y45.967
X133.163 Y45.879
X132.988 Y45.752
X132.844 Y45.591
X132.736 Y45.404
X132.669 Y45.198
X132.646 Y44.983
X132.669 Y44.769
X132.736 Y44.563
X132.844 Y44.376
X132.988 Y44.215
X133.163 Y44.088
X133.361 Y44.000
X133.572 Y43.955
X133.788 Y43.955
X134.000 Y44.000
X134.197 Y44.088
X134.372 Y44.215
X134.517 Y44.376
X134.625 Y44.563
X134.691 Y44.769
X134.714 Y44.983
X134.691 Y45.198
X134.625 Y45.404
X134.517 Y45.591
X134.372 Y45.752
X134.197 Y45.879
X134.000 Y45.967
X133.788 Y46.012
X133.572 Y46.012
G0 Z3.000
G0  X136.112 Y46.012
G0  Z3.000
G01 F400 Z0
G01 F400 Z-0.100
G01F400X135.901 Y45.967
X135.703 Y45.879
X135.528 Y45.752
X135.384 Y45.591
X135.276 Y45.404
X135.209 Y45.198
X135.186 Y44.983
X135.209 Y44.769
X135.276 Y44.563
X135.384 Y44.376
X135.528 Y44.215
X135.703 Y44.088
X135.901 Y44.000
X136.112 Y43.955
X136.328 Y43.955
X136.540 Y44.000
X136.737 Y44.088
X136.912 Y44.215
X137.057 Y44.376
X137.165 Y44.563
X137.231 Y44.769
X137.254 Y44.983
X137.231 Y45.198
X137.165 Y45.404
X137.057 Y45.591
X136.912 Y45.752
X136.737 Y45.879
X136.540 Y45.967
X136.328 Y46.012
X136.112 Y46.012
G0 Z3.000
G0  X133.572 Y43.472
G0  Z3.000
G01 F400 Z0
G01 F400 Z-0.100
G01F400X133.361 Y43.427
X133.163 Y43.339
X132.988 Y43.212
X132.844 Y43.051
X132.736 Y42.864
X132.669 Y42.658
X132.646 Y42.443
X132.669 Y42.229
X132.736 Y42.023
X132.844 Y41.836
X132.988 Y41.675
X133.163 Y41.548
X133.361 Y41.460
X133.572 Y41.415
X133.788 Y41.415
X134.000 Y41.460
X134.197 Y41.548
X134.372 Y41.675
X134.517 Y41.836
X134.625 Y42.023
X134.691 Y42.229
X134.714 Y42.443
X134.691 Y42.658
X134.625 Y42.864
X134.517 Y43.051
X134.372 Y43.212
X134.197 Y43.339
X134.000 Y43.427
X133.788 Y43.472
X133.572 Y43.472
G0 Z3.000
G0  X136.112 Y43.472
G0  Z3.000
G01 F400 Z0
G01 F400 Z-0.100
G01F400X135.901 Y43.427
X135.703 Y43.339
X135.528 Y43.212
X135.384 Y43.051
X135.276 Y42.864
X135.209 Y42.658
X135.186 Y42.443
X135.209 Y42.229
X135.276 Y42.023
X135.384 Y41.836
X135.528 Y41.675
X135.703 Y41.548
X135.901 Y41.460
X136.112 Y41.415
X136.328 Y41.415
X136.540 Y41.460
X136.737 Y41.548
X136.912 Y41.675
X137.057 Y41.836
X137.165 Y42.023
X137.231 Y42.229
X137.254 Y42.443
X137.231 Y42.658
X137.165 Y42.864
X137.057 Y43.051
X136.912 Y43.212
X136.737 Y43.339
X136.540 Y43.427
X136.328 Y43.472
X136.112 Y43.472
G0 Z3.000
G0  X133.572 Y40.932
G0  Z3.000
G01 F400 Z0
G01 F400 Z-0.100
G01F400X133.361 Y40.887
X133.163 Y40.799
X132.988 Y40.672
X132.844 Y40.511
X132.736 Y40.324
X132.669 Y40.118
X132.646 Y39.903
X132.669 Y39.689
X132.736 Y39.483
X132.844 Y39.296
X132.988 Y39.135
X133.163 Y39.008
X133.361 Y38.920
X133.572 Y38.875
X133.788 Y38.875
X134.000 Y38.920
X134.197 Y39.008
X134.372 Y39.135
X134.517 Y39.296
X134.625 Y39.483
X134.691 Y39.689
X134.714 Y39.903
X134.691 Y40.118
X134.625 Y40.324
X134.517 Y40.511
X134.372 Y40.672
X134.197 Y40.799
X134.000 Y40.887
X133.788 Y40.932
X133.572 Y40.932
G0 Z3.000
G0  X136.112 Y40.932
G0  Z3.000
G01 F400 Z0
G01 F400 Z-0.100
G01F400X135.901 Y40.887
X135.703 Y40.799
X135.528 Y40.672
X135.384 Y40.511
X135.276 Y40.324
X135.209 Y40.118
X135.186 Y39.903
X135.209 Y39.689
X135.276 Y39.483
X135.384 Y39.296
X135.528 Y39.135
X135.703 Y39.008
X135.901 Y38.920
X136.112 Y38.875
X136.328 Y38.875
X136.540 Y38.920
X136.737 Y39.008
X136.912 Y39.135
X137.057 Y39.296
X137.165 Y39.483
X137.231 Y39.689
X137.254 Y39.903
X137.231 Y40.118
X137.165 Y40.324
X137.057 Y40.511
X136.912 Y40.672
X136.737 Y40.799
X136.540 Y40.887
X136.328 Y40.932
X136.112 Y40.932
G0 Z3.000
G0  X133.572 Y38.392
G0  Z3.000
G01 F400 Z0
G01 F400 Z-0.100
G01F400X133.361 Y38.347
X133.163 Y38.259
X132.988 Y38.132
X132.844 Y37.971
X132.736 Y37.784
X132.669 Y37.578
X132.646 Y37.363
X132.669 Y37.148
X132.736 Y36.943
X132.844 Y36.756
X132.988 Y36.595
X133.163 Y36.468
X133.361 Y36.380
X133.572 Y36.335
X133.788 Y36.335
X134.000 Y36.380
X134.197 Y36.468
X134.372 Y36.595
X134.517 Y36.756
X134.625 Y36.943
X134.691 Y37.148
X134.714 Y37.363
X134.691 Y37.578
X134.625 Y37.784
X134.517 Y37.971
X134.372 Y38.132
X134.197 Y38.259
X134.000 Y38.347
X133.788 Y38.392
X133.572 Y38.392
G0 Z3.000
G0  X136.112 Y38.392
G0  Z3.000
G01 F400 Z0
G01 F400 Z-0.100
G01F400X135.901 Y38.347
X135.703 Y38.259
X135.528 Y38.132
X135.384 Y37.971
X135.276 Y37.784
X135.209 Y37.578
X135.186 Y37.363
X135.209 Y37.148
X135.276 Y36.943
X135.384 Y36.756
X135.528 Y36.595
X135.703 Y36.468
X135.901 Y36.380
X136.112 Y36.335
X136.328 Y36.335
X136.540 Y36.380
X136.737 Y36.468
X136.912 Y36.595
X137.057 Y36.756
X137.165 Y36.943
X137.231 Y37.148
X137.254 Y37.363
X137.231 Y37.578
X137.165 Y37.784
X137.057 Y37.971
X136.912 Y38.132
X136.737 Y38.259
X136.540 Y38.347
X136.328 Y38.392
X136.112 Y38.392
G0 Z3.000
G0  X133.572 Y35.852
G0  Z3.000
G01 F400 Z0
G01 F400 Z-0.100
G01F400X133.361 Y35.807
X133.163 Y35.719
X132.988 Y35.592
X132.844 Y35.431
X132.736 Y35.244
X132.669 Y35.038
X132.646 Y34.823
X132.669 Y34.608
X132.736 Y34.403
X132.844 Y34.216
X132.988 Y34.055
X133.163 Y33.928
X133.361 Y33.840
X133.572 Y33.795
X133.788 Y33.795
X134.000 Y33.840
X134.197 Y33.928
X134.372 Y34.055
X134.517 Y34.216
X134.625 Y34.403
X134.691 Y34.608
X134.714 Y34.823
X134.691 Y35.038
X134.625 Y35.244
X134.517 Y35.431
X134.372 Y35.592
X134.197 Y35.719
X134.000 Y35.807
X133.788 Y35.852
X133.572 Y35.852
G0 Z3.000
G0  X136.112 Y35.852
G0  Z3.000
G01 F400 Z0
G01 F400 Z-0.100
G01F400X135.901 Y35.807
X135.703 Y35.719
X135.528 Y35.592
X135.384 Y35.431
X135.276 Y35.244
X135.209 Y35.038
X135.186 Y34.823
X135.209 Y34.608
X135.276 Y34.403
X135.384 Y34.216
X135.528 Y34.055
X135.703 Y33.928
X135.901 Y33.840
X136.112 Y33.795
X136.328 Y33.795
X136.540 Y33.840
X136.737 Y33.928
X136.912 Y34.055
X137.057 Y34.216
X137.165 Y34.403
X137.231 Y34.608
X137.254 Y34.823
X137.231 Y35.038
X137.165 Y35.244
X137.057 Y35.431
X136.912 Y35.592
X136.737 Y35.719
X136.540 Y35.807
X136.328 Y35.852
X136.112 Y35.852
G0 Z3.000
G0  X133.572 Y33.312
G0  Z3.000
G01 F400 Z0
G01 F400 Z-0.100
G01F400X133.361 Y33.267
X133.163 Y33.179
X132.988 Y33.052
X132.844 Y32.891
X132.736 Y32.704
X132.669 Y32.498
X132.646 Y32.283
X132.669 Y32.069
X132.736 Y31.863
X132.844 Y31.676
X132.988 Y31.515
X133.163 Y31.388
X133.361 Y31.300
X133.572 Y31.255
X133.788 Y31.255
X134.000 Y31.300
X134.197 Y31.388
X134.372 Y31.515
X134.517 Y31.676
X134.625 Y31.863
X134.691 Y32.069
X134.714 Y32.283
X134.691 Y32.498
X134.625 Y32.704
X134.517 Y32.891
X134.372 Y33.052
X134.197 Y33.179
X134.000 Y33.267
X133.788 Y33.312
X133.572 Y33.312
G0 Z3.000
G0  X136.112 Y33.312
G0  Z3.000
G01 F400 Z0
G01 F400 Z-0.100
G01F400X135.901 Y33.267
X135.703 Y33.179
X135.528 Y33.052
X135.384 Y32.891
X135.276 Y32.704
X135.209 Y32.498
X135.186 Y32.283
X135.209 Y32.069
X135.276 Y31.863
X135.384 Y31.676
X135.528 Y31.515
X135.703 Y31.388
X135.901 Y31.300
X136.112 Y31.255
X136.328 Y31.255
X136.540 Y31.300
X136.737 Y31.388
X136.912 Y31.515
X137.057 Y31.676
X137.165 Y31.863
X137.231 Y32.069
X137.254 Y32.283
X137.231 Y32.498
X137.165 Y32.704
X137.057 Y32.891
X136.912 Y33.052
X136.737 Y33.179
X136.540 Y33.267
X136.328 Y33.312
X136.112 Y33.312
G0 Z3.000
G0  X133.572 Y30.797
G0  Z3.000
G01 F400 Z0
G01 F400 Z-0.100
G01F400X133.361 Y30.752
X133.163 Y30.664
X132.988 Y30.537
X132.844 Y30.377
X132.736 Y30.189
X132.669 Y29.984
X132.646 Y29.769
X132.669 Y29.554
X132.736 Y29.348
X132.844 Y29.161
X132.988 Y29.001
X133.163 Y28.873
X133.361 Y28.786
X133.572 Y28.741
X133.788 Y28.741
X134.000 Y28.786
X134.197 Y28.873
X134.372 Y29.001
X134.517 Y29.161
X134.625 Y29.348
X134.691 Y29.554
X134.714 Y29.769
X134.691 Y29.984
X134.625 Y30.189
X134.517 Y30.377
X134.372 Y30.537
X134.197 Y30.664
X134.000 Y30.752
X133.788 Y30.797
X133.572 Y30.797
G0 Z3.000
G0  X136.112 Y30.797
G0  Z3.000
G01 F400 Z0
G01 F400 Z-0.100
G01F400X135.901 Y30.752
X135.703 Y30.664
X135.528 Y30.537
X135.384 Y30.377
X135.276 Y30.189
X135.209 Y29.984
X135.186 Y29.769
X135.209 Y29.554
X135.276 Y29.348
X135.384 Y29.161
X135.528 Y29.001
X135.703 Y28.873
X135.901 Y28.786
X136.112 Y28.741
X136.328 Y28.741
X136.540 Y28.786
X136.737 Y28.873
X136.912 Y29.001
X137.057 Y29.161
X137.165 Y29.348
X137.231 Y29.554
X137.254 Y29.769
X137.231 Y29.984
X137.165 Y30.189
X137.057 Y30.377
X136.912 Y30.537
X136.737 Y30.664
X136.540 Y30.752
X136.328 Y30.797
X136.112 Y30.797
G0 Z3.000
G0  X133.572 Y28.232
G0  Z3.000
G01 F400 Z0
G01 F400 Z-0.100
G01F400X133.361 Y28.187
X133.163 Y28.099
X132.988 Y27.972
X132.844 Y27.811
X132.736 Y27.624
X132.669 Y27.418
X132.646 Y27.203
X132.669 Y26.989
X132.736 Y26.783
X132.844 Y26.596
X132.988 Y26.435
X133.163 Y26.308
X133.361 Y26.220
X133.572 Y26.175
X133.788 Y26.175
X134.000 Y26.220
X134.197 Y26.308
X134.372 Y26.435
X134.517 Y26.596
X134.625 Y26.783
X134.691 Y26.989
X134.714 Y27.203
X134.691 Y27.418
X134.625 Y27.624
X134.517 Y27.811
X134.372 Y27.972
X134.197 Y28.099
X134.000 Y28.187
X133.788 Y28.232
X133.572 Y28.232
G0 Z3.000
G0  X136.112 Y28.232
G0  Z3.000
G01 F400 Z0
G01 F400 Z-0.100
G01F400X135.901 Y28.187
X135.703 Y28.099
X135.528 Y27.972
X135.384 Y27.811
X135.276 Y27.624
X135.209 Y27.418
X135.186 Y27.203
X135.209 Y26.989
X135.276 Y26.783
X135.384 Y26.596
X135.528 Y26.435
X135.703 Y26.308
X135.901 Y26.220
X136.112 Y26.175
X136.328 Y26.175
X136.540 Y26.220
X136.737 Y26.308
X136.912 Y26.435
X137.057 Y26.596
X137.165 Y26.783
X137.231 Y26.989
X137.254 Y27.203
X137.231 Y27.418
X137.165 Y27.624
X137.057 Y27.811
X136.912 Y27.972
X136.737 Y28.099
X136.540 Y28.187
X136.328 Y28.232
X136.112 Y28.232
G0 Z3.000
G0  X133.572 Y25.692
G0  Z3.000
G01 F400 Z0
G01 F400 Z-0.100
G01F400X133.361 Y25.647
X133.163 Y25.559
X132.988 Y25.432
X132.844 Y25.271
X132.736 Y25.084
X132.669 Y24.878
X132.646 Y24.663
X132.669 Y24.449
X132.736 Y24.243
X132.844 Y24.056
X132.988 Y23.895
X133.163 Y23.768
X133.361 Y23.680
X133.572 Y23.635
X133.788 Y23.635
X134.000 Y23.680
X134.197 Y23.768
X134.372 Y23.895
X134.517 Y24.056
X134.625 Y24.243
X134.691 Y24.449
X134.714 Y24.663
X134.691 Y24.878
X134.625 Y25.084
X134.517 Y25.271
X134.372 Y25.432
X134.197 Y25.559
X134.000 Y25.647
X133.788 Y25.692
X133.572 Y25.692
G0 Z3.000
G0  X136.112 Y25.692
G0  Z3.000
G01 F400 Z0
G01 F400 Z-0.100
G01F400X135.901 Y25.647
X135.703 Y25.559
X135.528 Y25.432
X135.384 Y25.271
X135.276 Y25.084
X135.209 Y24.878
X135.186 Y24.663
X135.209 Y24.449
X135.276 Y24.243
X135.384 Y24.056
X135.528 Y23.895
X135.703 Y23.768
X135.901 Y23.680
X136.112 Y23.635
X136.328 Y23.635
X136.540 Y23.680
X136.737 Y23.768
X136.912 Y23.895
X137.057 Y24.056
X137.165 Y24.243
X137.231 Y24.449
X137.254 Y24.663
X137.231 Y24.878
X137.165 Y25.084
X137.057 Y25.271
X136.912 Y25.432
X136.737 Y25.559
X136.540 Y25.647
X136.328 Y25.692
X136.112 Y25.692
G0 Z3.000
G0  X133.572 Y23.152
G0  Z3.000
G01 F400 Z0
G01 F400 Z-0.100
G01F400X133.361 Y23.107
X133.163 Y23.019
X132.988 Y22.892
X132.844 Y22.731
X132.736 Y22.544
X132.669 Y22.338
X132.646 Y22.123
X132.669 Y21.909
X132.736 Y21.703
X132.844 Y21.516
X132.988 Y21.355
X133.163 Y21.228
X133.361 Y21.140
X133.572 Y21.095
X133.788 Y21.095
X134.000 Y21.140
X134.197 Y21.228
X134.372 Y21.355
X134.517 Y21.516
X134.625 Y21.703
X134.691 Y21.909
X134.714 Y22.123
X134.691 Y22.338
X134.625 Y22.544
X134.517 Y22.731
X134.372 Y22.892
X134.197 Y23.019
X134.000 Y23.107
X133.788 Y23.152
X133.572 Y23.152
G0 Z3.000
G0  X136.112 Y23.152
G0  Z3.000
G01 F400 Z0
G01 F400 Z-0.100
G01F400X135.901 Y23.107
X135.703 Y23.019
X135.528 Y22.892
X135.384 Y22.731
X135.276 Y22.544
X135.209 Y22.338
X135.186 Y22.123
X135.209 Y21.909
X135.276 Y21.703
X135.384 Y21.516
X135.528 Y21.355
X135.703 Y21.228
X135.901 Y21.140
X136.112 Y21.095
X136.328 Y21.095
X136.540 Y21.140
X136.737 Y21.228
X136.912 Y21.355
X137.057 Y21.516
X137.165 Y21.703
X137.231 Y21.909
X137.254 Y22.123
X137.231 Y22.338
X137.165 Y22.544
X137.057 Y22.731
X136.912 Y22.892
X136.737 Y23.019
X136.540 Y23.107
X136.328 Y23.152
X136.112 Y23.152
G0 Z3.000
G0  X108.213 Y98.961
G0  Z3.000
G01 F400 Z0
G01 F400 Z-0.100
G01F400X108.082 Y98.933
X107.960 Y98.878
X107.851 Y98.800
X107.762 Y98.700
X107.695 Y98.584
X107.654 Y98.457
X107.639 Y98.323
X107.654 Y98.190
X107.695 Y98.063
X107.762 Y97.947
X107.837 Y97.863
X107.835 Y97.851
X107.835 Y14.979
X107.837 Y14.963
X107.762 Y14.880
X107.695 Y14.764
X107.654 Y14.637
X107.639 Y14.503
X107.654 Y14.370
X107.695 Y14.243
X107.762 Y14.127
X107.851 Y14.027
X107.960 Y13.948
X108.082 Y13.894
X108.213 Y13.866
X108.347 Y13.866
X108.478 Y13.894
X108.601 Y13.949
X108.636 Y13.974
X108.706 Y13.959
X148.495 Y13.959
X148.565 Y13.974
X148.600 Y13.949
X148.722 Y13.894
X148.853 Y13.866
X148.987 Y13.866
X149.118 Y13.894
X149.240 Y13.948
X149.349 Y14.027
X149.439 Y14.127
X149.506 Y14.243
X149.547 Y14.370
X149.561 Y14.503
X149.547 Y14.637
X149.506 Y14.764
X149.451 Y14.859
X149.455 Y14.872
X149.467 Y14.979
X149.314 Y38.380
X149.467 Y97.848
X149.455 Y97.955
X149.451 Y97.968
X149.506 Y98.063
X149.547 Y98.190
X149.561 Y98.323
X149.547 Y98.457
X149.506 Y98.584
X149.439 Y98.700
X149.349 Y98.800
X149.240 Y98.878
X149.118 Y98.933
X148.987 Y98.961
X148.853 Y98.961
X148.722 Y98.933
X148.600 Y98.878
X148.491 Y98.800
X148.462 Y98.767
X108.739 Y98.767
X108.709 Y98.800
X108.601 Y98.878
X108.478 Y98.933
X108.347 Y98.961
X108.213 Y98.961
G0 Z3.000
G0  X108.739 Y97.880
G0  Z3.000
G01 F400 Z0
G01 F400 Z-0.100
G01F400X148.377 Y97.880
X148.374 Y97.848
X148.221 Y38.379
X148.373 Y15.048
X108.725 Y15.048
X108.725 Y97.848
X108.723 Y97.863
X108.739 Y97.880
G0 Z3.000
G0  X130.010 Y96.914
G0  Z3.000
G01 F400 Z0
G01 F400 Z-0.100
G01F400X130.010 Y94.653
X132.271 Y94.653
X132.271 Y95.238
X143.294 Y95.215
X143.294 Y71.336
X143.291 Y71.335
X143.105 Y71.200
X142.951 Y71.029
X142.894 Y70.929
X138.829 Y70.953
X138.742 Y70.953
X137.195 Y70.931
X137.130 Y71.044
X136.972 Y71.219
X136.782 Y71.357
X136.568 Y71.453
X136.338 Y71.502
X136.103 Y71.502
X135.873 Y71.453
X135.658 Y71.357
X135.468 Y71.219
X135.311 Y71.044
X135.193 Y70.841
X135.120 Y70.617
X135.096 Y70.383
X135.120 Y70.150
X135.193 Y69.926
X135.311 Y69.722
X135.468 Y69.548
X135.658 Y69.410
X135.873 Y69.314
X136.103 Y69.265
X136.338 Y69.265
X136.568 Y69.314
X136.782 Y69.410
X136.972 Y69.548
X137.130 Y69.722
X137.198 Y69.842
X138.804 Y69.864
X142.892 Y69.840
X142.951 Y69.737
X143.105 Y69.567
X143.291 Y69.432
X143.501 Y69.338
X143.725 Y69.291
X143.955 Y69.291
X144.180 Y69.338
X144.389 Y69.432
X144.576 Y69.567
X144.729 Y69.738
X144.844 Y69.937
X144.915 Y70.155
X144.939 Y70.383
X144.915 Y70.612
X144.844 Y70.830
X144.729 Y71.029
X144.576 Y71.200
X144.390 Y71.335
X144.387 Y71.336
X144.387 Y95.765
X144.375 Y95.872
X144.340 Y95.981
X144.283 Y96.080
X144.206 Y96.165
X144.114 Y96.232
X144.009 Y96.278
X143.898 Y96.302
X132.271 Y96.327
X132.271 Y96.914
X130.010 Y96.914
G0 Z3.000
G0  X131.022 Y94.369
G0  Z3.000
G01 F400 Z0
G01 F400 Z-0.100
G01F400X130.791 Y94.319
X130.575 Y94.223
X130.383 Y94.084
X130.225 Y93.908
X130.107 Y93.704
X130.034 Y93.479
X130.009 Y93.243
X130.034 Y93.008
X130.107 Y92.783
X130.225 Y92.578
X130.383 Y92.403
X130.575 Y92.264
X130.791 Y92.167
X131.022 Y92.118
X131.258 Y92.118
X131.490 Y92.167
X131.706 Y92.264
X131.897 Y92.403
X132.055 Y92.578
X132.174 Y92.783
X132.247 Y93.008
X132.272 Y93.243
X132.247 Y93.479
X132.174 Y93.704
X132.055 Y93.908
X131.897 Y94.084
X131.706 Y94.223
X131.490 Y94.319
X131.258 Y94.369
X131.022 Y94.369
G0 Z3.000
G0  X131.022 Y91.829
G0  Z3.000
G01 F400 Z0
G01 F400 Z-0.100
G01F400X130.791 Y91.779
X130.575 Y91.683
X130.383 Y91.544
X130.225 Y91.368
X130.107 Y91.164
X130.034 Y90.939
X130.009 Y90.703
X130.034 Y90.468
X130.107 Y90.243
X130.225 Y90.038
X130.383 Y89.863
X130.575 Y89.724
X130.791 Y89.627
X131.022 Y89.578
X131.258 Y89.578
X131.490 Y89.627
X131.706 Y89.724
X131.897 Y89.863
X132.055 Y90.038
X132.174 Y90.243
X132.247 Y90.468
X132.272 Y90.703
X132.247 Y90.939
X132.174 Y91.164
X132.055 Y91.368
X131.897 Y91.544
X131.706 Y91.683
X131.490 Y91.779
X131.258 Y91.829
X131.022 Y91.829
G0 Z3.000
G0  X131.022 Y89.289
G0  Z3.000
G01 F400 Z0
G01 F400 Z-0.100
G01F400X130.791 Y89.239
X130.575 Y89.143
X130.383 Y89.004
X130.225 Y88.828
X130.107 Y88.624
X130.034 Y88.399
X130.009 Y88.163
X130.034 Y87.928
X130.107 Y87.703
X130.225 Y87.498
X130.383 Y87.323
X130.575 Y87.184
X130.791 Y87.087
X131.022 Y87.038
X131.258 Y87.038
X131.490 Y87.087
X131.706 Y87.184
X131.897 Y87.323
X132.055 Y87.498
X132.174 Y87.703
X132.247 Y87.928
X132.272 Y88.163
X132.247 Y88.399
X132.174 Y88.624
X132.055 Y88.828
X131.897 Y89.004
X131.706 Y89.143
X131.490 Y89.239
X131.258 Y89.289
X131.022 Y89.289
G0 Z3.000
G0  X131.022 Y86.749
G0  Z3.000
G01 F400 Z0
G01 F400 Z-0.100
G01F400X130.791 Y86.699
X130.575 Y86.603
X130.383 Y86.464
X130.225 Y86.288
X130.107 Y86.084
X130.034 Y85.859
X130.009 Y85.623
X130.034 Y85.388
X130.107 Y85.163
X130.225 Y84.958
X130.383 Y84.783
X130.575 Y84.644
X130.791 Y84.547
X131.022 Y84.498
X131.258 Y84.498
X131.490 Y84.547
X131.706 Y84.644
X131.897 Y84.783
X132.055 Y84.958
X132.174 Y85.163
X132.247 Y85.388
X132.272 Y85.623
X132.247 Y85.859
X132.174 Y86.084
X132.055 Y86.288
X131.897 Y86.464
X131.706 Y86.603
X131.490 Y86.699
X131.258 Y86.749
X131.022 Y86.749
G0 Z3.000
G0  X131.022 Y84.209
G0  Z3.000
G01 F400 Z0
G01 F400 Z-0.100
G01F400X130.791 Y84.159
X130.575 Y84.063
X130.383 Y83.924
X130.225 Y83.748
X130.140 Y83.601
X125.483 Y83.502
X121.025 Y83.628
X120.923 Y83.628
X120.811 Y83.604
X120.707 Y83.557
X120.614 Y83.490
X120.538 Y83.405
X120.480 Y83.306
X120.445 Y83.197
X120.434 Y83.091
X120.434 Y75.986
X116.883 Y76.008
X116.827 Y76.008
X116.774 Y76.099
X116.623 Y76.267
X116.440 Y76.399
X116.234 Y76.491
X116.013 Y76.538
X115.787 Y76.538
X115.566 Y76.491
X115.360 Y76.399
X115.177 Y76.267
X115.026 Y76.099
X114.913 Y75.903
X114.843 Y75.688
X114.820 Y75.463
X114.843 Y75.239
X114.913 Y75.024
X115.026 Y74.828
X115.177 Y74.660
X115.360 Y74.528
X115.566 Y74.436
X115.787 Y74.389
X116.013 Y74.389
X116.234 Y74.436
X116.440 Y74.528
X116.623 Y74.660
X116.774 Y74.828
X116.827 Y74.919
X120.937 Y74.894
X121.037 Y74.894
X121.149 Y74.918
X121.254 Y74.964
X121.346 Y75.031
X121.423 Y75.116
X121.480 Y75.216
X121.515 Y75.324
X121.527 Y75.431
X121.527 Y82.522
X125.431 Y82.412
X125.520 Y82.412
X130.171 Y82.512
X130.225 Y82.418
X130.383 Y82.243
X130.575 Y82.104
X130.791 Y82.007
X131.022 Y81.958
X131.258 Y81.958
X131.490 Y82.007
X131.706 Y82.104
X131.897 Y82.243
X132.055 Y82.418
X132.174 Y82.623
X132.247 Y82.848
X132.272 Y83.083
X132.247 Y83.319
X132.174 Y83.544
X132.055 Y83.748
X131.897 Y83.924
X131.706 Y84.063
X131.490 Y84.159
X131.258 Y84.209
X131.022 Y84.209
G0 Z3.000
G0  X131.022 Y81.669
G0  Z3.000
G01 F400 Z0
G01 F400 Z-0.100
G01F400X130.791 Y81.619
X130.575 Y81.523
X130.383 Y81.384
X130.225 Y81.208
X130.155 Y81.088
X123.488 Y81.088
X123.377 Y81.064
X123.272 Y81.017
X123.180 Y80.950
X123.103 Y80.865
X123.046 Y80.766
X123.010 Y80.657
X122.999 Y80.551
X122.999 Y73.421
X116.883 Y73.468
X116.827 Y73.468
X116.774 Y73.559
X116.623 Y73.727
X116.440 Y73.859
X116.234 Y73.951
X116.013 Y73.998
X115.787 Y73.998
X115.566 Y73.951
X115.360 Y73.859
X115.177 Y73.727
X115.026 Y73.559
X114.913 Y73.363
X114.843 Y73.148
X114.820 Y72.923
X114.843 Y72.699
X114.913 Y72.484
X115.026 Y72.288
X115.177 Y72.120
X115.360 Y71.988
X115.566 Y71.896
X115.787 Y71.849
X116.013 Y71.849
X116.234 Y71.896
X116.440 Y71.988
X116.623 Y72.120
X116.774 Y72.288
X116.827 Y72.379
X123.503 Y72.328
X123.603 Y72.328
X123.715 Y72.352
X123.819 Y72.399
X123.912 Y72.466
X123.988 Y72.551
X124.046 Y72.650
X124.081 Y72.759
X124.092 Y72.865
X124.092 Y79.999
X130.155 Y79.999
X130.225 Y79.878
X130.383 Y79.703
X130.575 Y79.564
X130.595 Y79.555
X130.645 Y67.887
X130.656 Y67.781
X130.691 Y67.672
X130.748 Y67.573
X130.825 Y67.487
X130.918 Y67.420
X131.022 Y67.374
X131.133 Y67.350
X132.691 Y67.327
X132.770 Y67.184
X132.928 Y67.008
X133.118 Y66.870
X133.333 Y66.774
X133.563 Y66.725
X133.798 Y66.725
X134.028 Y66.774
X134.242 Y66.870
X134.433 Y67.008
X134.590 Y67.183
X134.707 Y67.386
X134.780 Y67.610
X134.805 Y67.843
X134.780 Y68.077
X134.707 Y68.301
X134.590 Y68.504
X134.433 Y68.679
X134.242 Y68.817
X134.028 Y68.913
X133.798 Y68.962
X133.563 Y68.962
X133.333 Y68.913
X133.118 Y68.817
X132.928 Y68.679
X132.771 Y68.504
X132.720 Y68.416
X131.735 Y68.431
X131.688 Y79.556
X131.706 Y79.564
X131.897 Y79.703
X132.055 Y79.878
X132.174 Y80.083
X132.247 Y80.308
X132.272 Y80.543
X132.247 Y80.779
X132.174 Y81.004
X132.055 Y81.208
X131.897 Y81.384
X131.706 Y81.523
X131.490 Y81.619
X131.258 Y81.669
X131.022 Y81.669
G0 Z3.000
G0  X133.563 Y71.502
G0  Z3.000
G01 F400 Z0
G01 F400 Z-0.100
G01F400X133.333 Y71.453
X133.118 Y71.357
X132.928 Y71.219
X132.771 Y71.044
X132.653 Y70.841
X132.581 Y70.617
X132.556 Y70.383
X132.581 Y70.150
X132.653 Y69.926
X132.771 Y69.722
X132.928 Y69.548
X133.118 Y69.410
X133.333 Y69.314
X133.563 Y69.265
X133.798 Y69.265
X134.028 Y69.314
X134.242 Y69.410
X134.433 Y69.548
X134.590 Y69.722
X134.707 Y69.926
X134.780 Y70.150
X134.805 Y70.383
X134.780 Y70.617
X134.707 Y70.841
X134.590 Y71.044
X134.433 Y71.219
X134.242 Y71.357
X134.028 Y71.453
X133.798 Y71.502
X133.563 Y71.502
G0 Z3.000
G0  X115.787 Y71.458
G0  Z3.000
G01 F400 Z0
G01 F400 Z-0.100
G01F400X115.566 Y71.411
X115.360 Y71.319
X115.177 Y71.187
X115.026 Y71.019
X114.913 Y70.823
X114.843 Y70.608
X114.820 Y70.383
X114.843 Y70.159
X114.913 Y69.944
X115.026 Y69.748
X115.177 Y69.580
X115.360 Y69.448
X115.566 Y69.356
X115.787 Y69.309
X116.013 Y69.309
X116.234 Y69.356
X116.440 Y69.448
X116.623 Y69.580
X116.774 Y69.748
X116.887 Y69.944
X116.957 Y70.159
X116.981 Y70.383
X116.957 Y70.608
X116.887 Y70.823
X116.774 Y71.019
X116.623 Y71.187
X116.440 Y71.319
X116.234 Y71.411
X116.013 Y71.458
X115.787 Y71.458
G0 Z3.000
G0  X136.103 Y68.962
G0  Z3.000
G01 F400 Z0
G01 F400 Z-0.100
G01F400X135.873 Y68.913
X135.658 Y68.817
X135.468 Y68.679
X135.311 Y68.504
X135.193 Y68.301
X135.120 Y68.077
X135.096 Y67.843
X135.120 Y67.610
X135.193 Y67.386
X135.311 Y67.183
X135.468 Y67.008
X135.658 Y66.870
X135.873 Y66.774
X136.103 Y66.725
X136.338 Y66.725
X136.568 Y66.774
X136.782 Y66.870
X136.972 Y67.008
X137.130 Y67.183
X137.247 Y67.386
X137.320 Y67.610
X137.345 Y67.843
X137.320 Y68.077
X137.247 Y68.301
X137.130 Y68.504
X136.972 Y68.679
X136.782 Y68.817
X136.568 Y68.913
X136.338 Y68.962
X136.103 Y68.962
G0 Z3.000
G0  X115.787 Y68.918
G0  Z3.000
G01 F400 Z0
G01 F400 Z-0.100
G01F400X115.566 Y68.871
X115.360 Y68.779
X115.177 Y68.647
X115.026 Y68.479
X114.913 Y68.283
X114.843 Y68.068
X114.820 Y67.843
X114.843 Y67.619
X114.913 Y67.404
X115.026 Y67.208
X115.177 Y67.040
X115.360 Y66.908
X115.566 Y66.816
X115.787 Y66.769
X116.013 Y66.769
X116.234 Y66.816
X116.440 Y66.908
X116.623 Y67.040
X116.774 Y67.208
X116.887 Y67.404
X116.957 Y67.619
X116.981 Y67.843
X116.957 Y68.068
X116.887 Y68.283
X116.774 Y68.479
X116.623 Y68.647
X116.440 Y68.779
X116.234 Y68.871
X116.013 Y68.918
X115.787 Y68.918
G0 Z3.000
G0  X133.563 Y66.422
G0  Z3.000
G01 F400 Z0
G01 F400 Z-0.100
G01F400X133.333 Y66.373
X133.118 Y66.277
X132.928 Y66.139
X132.771 Y65.964
X132.653 Y65.761
X132.581 Y65.537
X132.556 Y65.303
X132.581 Y65.070
X132.653 Y64.846
X132.771 Y64.642
X132.928 Y64.468
X133.118 Y64.330
X133.333 Y64.234
X133.563 Y64.185
X133.798 Y64.185
X134.028 Y64.234
X134.242 Y64.330
X134.433 Y64.468
X134.590 Y64.642
X134.707 Y64.846
X134.780 Y65.070
X134.805 Y65.303
X134.780 Y65.537
X134.707 Y65.761
X134.590 Y65.964
X134.433 Y66.139
X134.242 Y66.277
X134.028 Y66.373
X133.798 Y66.422
X133.563 Y66.422
G0 Z3.000
G0  X136.103 Y66.422
G0  Z3.000
G01 F400 Z0
G01 F400 Z-0.100
G01F400X135.873 Y66.373
X135.658 Y66.277
X135.468 Y66.139
X135.311 Y65.964
X135.193 Y65.761
X135.120 Y65.537
X135.096 Y65.303
X135.120 Y65.070
X135.193 Y64.846
X135.311 Y64.642
X135.468 Y64.468
X135.658 Y64.330
X135.873 Y64.234
X136.103 Y64.185
X136.338 Y64.185
X136.568 Y64.234
X136.782 Y64.330
X136.972 Y64.468
X137.130 Y64.642
X137.247 Y64.846
X137.320 Y65.070
X137.345 Y65.303
X137.320 Y65.537
X137.247 Y65.761
X137.130 Y65.964
X136.972 Y66.139
X136.782 Y66.277
X136.568 Y66.373
X136.338 Y66.422
X136.103 Y66.422
G0 Z3.000
G0  X143.725 Y66.396
G0  Z3.000
G01 F400 Z0
G01 F400 Z-0.100
G01F400X143.501 Y66.348
X143.291 Y66.255
X143.105 Y66.120
X142.951 Y65.949
X142.836 Y65.750
X142.766 Y65.532
X142.741 Y65.303
X142.766 Y65.075
X142.836 Y64.856
X142.951 Y64.658
X143.105 Y64.487
X143.291 Y64.352
X143.501 Y64.258
X143.725 Y64.211
X143.955 Y64.211
X144.180 Y64.258
X144.389 Y64.352
X144.576 Y64.487
X144.729 Y64.658
X144.844 Y64.856
X144.915 Y65.075
X144.939 Y65.303
X144.915 Y65.532
X144.844 Y65.750
X144.729 Y65.949
X144.576 Y66.120
X144.389 Y66.255
X144.180 Y66.348
X143.955 Y66.396
X143.725 Y66.396
G0 Z3.000
G0  X115.787 Y66.378
G0  Z3.000
G01 F400 Z0
G01 F400 Z-0.100
G01F400X115.566 Y66.331
X115.360 Y66.239
X115.177 Y66.106
X115.026 Y65.939
X114.913 Y65.743
X114.843 Y65.528
X114.820 Y65.303
X114.843 Y65.079
X114.913 Y64.864
X115.026 Y64.668
X115.177 Y64.500
X115.360 Y64.368
X115.566 Y64.276
X115.787 Y64.229
X116.013 Y64.229
X116.234 Y64.276
X116.440 Y64.368
X116.623 Y64.500
X116.774 Y64.668
X116.887 Y64.864
X116.957 Y65.079
X116.981 Y65.303
X116.957 Y65.528
X116.887 Y65.743
X116.774 Y65.939
X116.623 Y66.106
X116.440 Y66.239
X116.234 Y66.331
X116.013 Y66.378
X115.787 Y66.378
G0 Z3.000
G0  X133.563 Y63.882
G0  Z3.000
G01 F400 Z0
G01 F400 Z-0.100
G01F400X133.333 Y63.833
X133.118 Y63.737
X132.928 Y63.599
X132.771 Y63.424
X132.653 Y63.221
X132.581 Y62.997
X132.556 Y62.763
X132.581 Y62.530
X132.653 Y62.306
X132.771 Y62.103
X132.928 Y61.928
X133.118 Y61.790
X133.333 Y61.694
X133.563 Y61.645
X133.798 Y61.645
X134.028 Y61.694
X134.242 Y61.790
X134.433 Y61.928
X134.590 Y62.103
X134.707 Y62.306
X134.780 Y62.530
X134.805 Y62.763
X134.780 Y62.997
X134.707 Y63.221
X134.590 Y63.424
X134.433 Y63.599
X134.242 Y63.737
X134.028 Y63.833
X133.798 Y63.882
X133.563 Y63.882
G0 Z3.000
G0  X136.103 Y63.882
G0  Z3.000
G01 F400 Z0
G01 F400 Z-0.100
G01F400X135.873 Y63.833
X135.658 Y63.737
X135.468 Y63.599
X135.311 Y63.424
X135.193 Y63.221
X135.120 Y62.997
X135.096 Y62.763
X135.120 Y62.530
X135.193 Y62.306
X135.311 Y62.103
X135.468 Y61.928
X135.658 Y61.790
X135.873 Y61.694
X136.103 Y61.645
X136.338 Y61.645
X136.568 Y61.694
X136.782 Y61.790
X136.972 Y61.928
X137.130 Y62.103
X137.247 Y62.306
X137.320 Y62.530
X137.345 Y62.763
X137.320 Y62.997
X137.247 Y63.221
X137.130 Y63.424
X136.972 Y63.599
X136.782 Y63.737
X136.568 Y63.833
X136.338 Y63.882
X136.103 Y63.882
G0 Z3.000
G0  X115.787 Y63.838
G0  Z3.000
G01 F400 Z0
G01 F400 Z-0.100
G01F400X115.566 Y63.791
X115.360 Y63.699
X115.177 Y63.567
X115.026 Y63.399
X114.913 Y63.203
X114.843 Y62.988
X114.820 Y62.763
X114.843 Y62.539
X114.913 Y62.324
X115.026 Y62.128
X115.177 Y61.960
X115.360 Y61.828
X115.566 Y61.736
X115.787 Y61.689
X116.013 Y61.689
X116.234 Y61.736
X116.440 Y61.828
X116.623 Y61.960
X116.774 Y62.128
X116.827 Y62.219
X116.883 Y62.219
X128.105 Y62.243
X128.105 Y60.242
X128.116 Y60.135
X128.151 Y60.026
X128.208 Y59.927
X128.285 Y59.842
X128.377 Y59.775
X128.482 Y59.728
X128.593 Y59.705
X132.703 Y59.680
X132.771 Y59.563
X132.928 Y59.388
X133.118 Y59.250
X133.333 Y59.154
X133.563 Y59.105
X133.798 Y59.105
X134.028 Y59.154
X134.242 Y59.250
X134.433 Y59.388
X134.590 Y59.563
X134.707 Y59.766
X134.780 Y59.990
X134.805 Y60.223
X134.780 Y60.457
X134.707 Y60.681
X134.590 Y60.884
X134.433 Y61.059
X134.242 Y61.197
X134.028 Y61.293
X133.798 Y61.342
X133.563 Y61.342
X133.333 Y61.293
X133.118 Y61.197
X132.928 Y61.059
X132.771 Y60.884
X132.704 Y60.769
X129.197 Y60.790
X129.197 Y62.796
X129.186 Y62.903
X129.151 Y63.011
X129.094 Y63.110
X129.017 Y63.196
X128.924 Y63.263
X128.820 Y63.309
X128.708 Y63.333
X128.608 Y63.333
X116.827 Y63.308
X116.774 Y63.399
X116.623 Y63.567
X116.440 Y63.699
X116.234 Y63.791
X116.013 Y63.838
X115.787 Y63.838
G0 Z3.000
G0  X136.103 Y61.342
G0  Z3.000
G01 F400 Z0
G01 F400 Z-0.100
G01F400X135.873 Y61.293
X135.658 Y61.197
X135.468 Y61.059
X135.311 Y60.884
X135.193 Y60.681
X135.120 Y60.457
X135.096 Y60.223
X135.120 Y59.990
X135.193 Y59.766
X135.311 Y59.563
X135.468 Y59.388
X135.658 Y59.250
X135.873 Y59.154
X136.103 Y59.105
X136.338 Y59.105
X136.568 Y59.154
X136.782 Y59.250
X136.972 Y59.388
X137.130 Y59.563
X137.247 Y59.766
X137.320 Y59.990
X137.345 Y60.223
X137.320 Y60.457
X137.247 Y60.681
X137.130 Y60.884
X136.972 Y61.059
X136.782 Y61.197
X136.568 Y61.293
X136.338 Y61.342
X136.103 Y61.342
G0 Z3.000
G0  X115.787 Y61.298
G0  Z3.000
G01 F400 Z0
G01 F400 Z-0.100
G01F400X115.566 Y61.251
X115.360 Y61.159
X115.177 Y61.027
X115.026 Y60.859
X114.913 Y60.663
X114.843 Y60.448
X114.820 Y60.223
X114.843 Y59.999
X114.913 Y59.784
X115.026 Y59.588
X115.177 Y59.420
X115.360 Y59.288
X115.566 Y59.196
X115.787 Y59.149
X116.013 Y59.149
X116.234 Y59.196
X116.440 Y59.288
X116.623 Y59.420
X116.774 Y59.588
X116.887 Y59.784
X116.957 Y59.999
X116.981 Y60.223
X116.957 Y60.448
X116.887 Y60.663
X116.774 Y60.859
X116.623 Y61.027
X116.440 Y61.159
X116.234 Y61.251
X116.013 Y61.298
X115.787 Y61.298
G0 Z3.000
G0  X133.563 Y58.802
G0  Z3.000
G01 F400 Z0
G01 F400 Z-0.100
G01F400X133.333 Y58.753
X133.118 Y58.657
X132.928 Y58.519
X132.771 Y58.344
X132.703 Y58.228
X131.134 Y58.228
X131.022 Y58.204
X130.918 Y58.157
X130.825 Y58.090
X130.748 Y58.005
X130.691 Y57.906
X130.656 Y57.797
X130.645 Y57.691
X130.645 Y19.627
X130.656 Y19.521
X130.691 Y19.412
X130.748 Y19.313
X130.825 Y19.227
X130.918 Y19.160
X131.022 Y19.114
X131.134 Y19.090
X143.897 Y19.090
X144.009 Y19.114
X144.114 Y19.160
X144.206 Y19.227
X144.283 Y19.313
X144.340 Y19.412
X144.375 Y19.521
X144.387 Y19.627
X144.387 Y41.455
X144.406 Y41.464
X144.597 Y41.603
X144.756 Y41.778
X144.874 Y41.983
X144.947 Y42.208
X144.972 Y42.443
X144.947 Y42.679
X144.874 Y42.904
X144.756 Y43.108
X144.597 Y43.284
X144.406 Y43.423
X144.190 Y43.519
X143.959 Y43.569
X143.722 Y43.569
X143.491 Y43.519
X143.275 Y43.423
X143.083 Y43.284
X142.925 Y43.108
X142.807 Y42.904
X142.734 Y42.679
X142.709 Y42.443
X142.734 Y42.208
X142.807 Y41.983
X142.925 Y41.778
X143.083 Y41.603
X143.275 Y41.464
X143.294 Y41.455
X143.294 Y20.178
X131.737 Y20.178
X131.737 Y57.139
X132.703 Y57.139
X132.771 Y57.023
X132.928 Y56.848
X133.118 Y56.710
X133.333 Y56.614
X133.563 Y56.565
X133.798 Y56.565
X134.028 Y56.614
X134.242 Y56.710
X134.433 Y56.848
X134.590 Y57.023
X134.707 Y57.226
X134.780 Y57.450
X134.805 Y57.683
X134.780 Y57.917
X134.707 Y58.141
X134.590 Y58.344
X134.433 Y58.519
X134.242 Y58.657
X134.028 Y58.753
X133.798 Y58.802
X133.563 Y58.802
G0 Z3.000
G0  X136.103 Y58.802
G0  Z3.000
G01 F400 Z0
G01 F400 Z-0.100
G01F400X135.873 Y58.753
X135.658 Y58.657
X135.468 Y58.519
X135.311 Y58.344
X135.193 Y58.141
X135.120 Y57.917
X135.096 Y57.683
X135.120 Y57.450
X135.193 Y57.226
X135.311 Y57.023
X135.468 Y56.848
X135.658 Y56.710
X135.873 Y56.614
X136.103 Y56.565
X136.338 Y56.565
X136.568 Y56.614
X136.782 Y56.710
X136.972 Y56.848
X137.130 Y57.023
X137.247 Y57.226
X137.320 Y57.450
X137.345 Y57.683
X137.320 Y57.917
X137.247 Y58.141
X137.130 Y58.344
X136.972 Y58.519
X136.782 Y58.657
X136.568 Y58.753
X136.338 Y58.802
X136.103 Y58.802
G0 Z3.000
G0  X115.787 Y58.758
G0  Z3.000
G01 F400 Z0
G01 F400 Z-0.100
G01F400X115.566 Y58.711
X115.360 Y58.619
X115.177 Y58.486
X115.026 Y58.319
X114.913 Y58.123
X114.843 Y57.908
X114.820 Y57.683
X114.843 Y57.459
X114.913 Y57.244
X115.026 Y57.048
X115.177 Y56.880
X115.360 Y56.748
X115.566 Y56.656
X115.787 Y56.609
X116.013 Y56.609
X116.234 Y56.656
X116.440 Y56.748
X116.623 Y56.880
X116.774 Y57.048
X116.887 Y57.244
X116.957 Y57.459
X116.981 Y57.683
X116.957 Y57.908
X116.887 Y58.123
X116.774 Y58.319
X116.623 Y58.486
X116.440 Y58.619
X116.234 Y58.711
X116.013 Y58.758
X115.787 Y58.758
G0 Z3.000
G0  X133.563 Y56.262
G0  Z3.000
G01 F400 Z0
G01 F400 Z-0.100
G01F400X133.333 Y56.213
X133.118 Y56.117
X132.928 Y55.979
X132.771 Y55.804
X132.653 Y55.601
X132.581 Y55.377
X132.556 Y55.143
X132.581 Y54.910
X132.653 Y54.686
X132.771 Y54.483
X132.928 Y54.308
X133.118 Y54.170
X133.333 Y54.074
X133.563 Y54.025
X133.798 Y54.025
X134.028 Y54.074
X134.242 Y54.170
X134.433 Y54.308
X134.590 Y54.483
X134.707 Y54.686
X134.780 Y54.910
X134.805 Y55.143
X134.780 Y55.377
X134.707 Y55.601
X134.590 Y55.804
X134.433 Y55.979
X134.242 Y56.117
X134.028 Y56.213
X133.798 Y56.262
X133.563 Y56.262
G0 Z3.000
G0  X136.103 Y56.262
G0  Z3.000
G01 F400 Z0
G01 F400 Z-0.100
G01F400X135.873 Y56.213
X135.658 Y56.117
X135.468 Y55.979
X135.311 Y55.804
X135.193 Y55.601
X135.120 Y55.377
X135.096 Y55.143
X135.120 Y54.910
X135.193 Y54.686
X135.311 Y54.483
X135.468 Y54.308
X135.658 Y54.170
X135.873 Y54.074
X136.103 Y54.025
X136.338 Y54.025
X136.568 Y54.074
X136.782 Y54.170
X136.972 Y54.308
X137.130 Y54.483
X137.247 Y54.686
X137.320 Y54.910
X137.345 Y55.143
X137.320 Y55.377
X137.247 Y55.601
X137.130 Y55.804
X136.972 Y55.979
X136.782 Y56.117
X136.568 Y56.213
X136.338 Y56.262
X136.103 Y56.262
G0 Z3.000
G0  X115.787 Y56.218
G0  Z3.000
G01 F400 Z0
G01 F400 Z-0.100
G01F400X115.566 Y56.171
X115.360 Y56.079
X115.177 Y55.947
X115.026 Y55.779
X114.913 Y55.583
X114.843 Y55.368
X114.820 Y55.143
X114.843 Y54.919
X114.913 Y54.704
X115.026 Y54.508
X115.177 Y54.340
X115.360 Y54.208
X115.566 Y54.116
X115.787 Y54.069
X116.013 Y54.069
X116.234 Y54.116
X116.440 Y54.208
X116.623 Y54.340
X116.774 Y54.508
X116.887 Y54.704
X116.957 Y54.919
X116.981 Y55.143
X116.957 Y55.368
X116.887 Y55.583
X116.774 Y55.779
X116.623 Y55.947
X116.440 Y56.079
X116.234 Y56.171
X116.013 Y56.218
X115.787 Y56.218
G0 Z3.000
G0  X133.563 Y53.722
G0  Z3.000
G01 F400 Z0
G01 F400 Z-0.100
G01F400X133.333 Y53.673
X133.118 Y53.577
X132.928 Y53.439
X132.771 Y53.264
X132.653 Y53.061
X132.581 Y52.837
X132.556 Y52.603
X132.581 Y52.370
X132.653 Y52.146
X132.771 Y51.943
X132.928 Y51.768
X133.118 Y51.630
X133.333 Y51.534
X133.563 Y51.485
X133.798 Y51.485
X134.028 Y51.534
X134.242 Y51.630
X134.433 Y51.768
X134.590 Y51.943
X134.707 Y52.146
X134.780 Y52.370
X134.805 Y52.603
X134.780 Y52.837
X134.707 Y53.061
X134.590 Y53.264
X134.433 Y53.439
X134.242 Y53.577
X134.028 Y53.673
X133.798 Y53.722
X133.563 Y53.722
G0 Z3.000
G0  X136.103 Y53.722
G0  Z3.000
G01 F400 Z0
G01 F400 Z-0.100
G01F400X135.873 Y53.673
X135.658 Y53.577
X135.468 Y53.439
X135.311 Y53.264
X135.193 Y53.061
X135.120 Y52.837
X135.096 Y52.603
X135.120 Y52.370
X135.193 Y52.146
X135.311 Y51.943
X135.468 Y51.768
X135.658 Y51.630
X135.873 Y51.534
X136.103 Y51.485
X136.338 Y51.485
X136.568 Y51.534
X136.782 Y51.630
X136.972 Y51.768
X137.130 Y51.943
X137.247 Y52.146
X137.320 Y52.370
X137.345 Y52.603
X137.320 Y52.837
X137.247 Y53.061
X137.130 Y53.264
X136.972 Y53.439
X136.782 Y53.577
X136.568 Y53.673
X136.338 Y53.722
X136.103 Y53.722
G0 Z3.000
G0  X146.265 Y53.696
G0  Z3.000
G01 F400 Z0
G01 F400 Z-0.100
G01F400X146.041 Y53.648
X145.831 Y53.555
X145.645 Y53.420
X145.491 Y53.249
X145.376 Y53.050
X145.305 Y52.832
X145.281 Y52.603
X145.305 Y52.375
X145.376 Y52.157
X145.491 Y51.958
X145.645 Y51.787
X145.831 Y51.652
X145.835 Y51.650
X145.856 Y48.086
X144.971 Y48.073
X144.971 Y48.654
X142.710 Y48.654
X142.710 Y46.393
X144.971 Y46.393
X144.971 Y46.984
X146.464 Y47.005
X146.575 Y47.028
X146.679 Y47.075
X146.772 Y47.142
X146.848 Y47.227
X146.906 Y47.326
X146.941 Y47.435
X146.952 Y47.542
X146.928 Y51.651
X146.930 Y51.652
X147.115 Y51.787
X147.269 Y51.958
X147.384 Y52.157
X147.455 Y52.375
X147.479 Y52.603
X147.455 Y52.832
X147.384 Y53.050
X147.269 Y53.249
X147.115 Y53.420
X146.930 Y53.555
X146.720 Y53.648
X146.495 Y53.696
X146.265 Y53.696
G0 Z3.000
G0  X141.185 Y53.696
G0  Z3.000
G01 F400 Z0
G01 F400 Z-0.100
G01F400X140.961 Y53.648
X140.751 Y53.555
X140.565 Y53.420
X140.411 Y53.249
X140.296 Y53.050
X140.226 Y52.832
X140.201 Y52.603
X140.226 Y52.375
X140.296 Y52.157
X140.411 Y51.958
X140.565 Y51.787
X140.751 Y51.652
X140.753 Y51.651
X140.728 Y47.243
X140.779 Y45.000
X140.790 Y44.895
X140.826 Y44.786
X140.883 Y44.687
X140.960 Y44.602
X141.052 Y44.535
X141.156 Y44.488
X141.267 Y44.465
X142.854 Y44.442
X142.925 Y44.318
X143.083 Y44.143
X143.275 Y44.004
X143.491 Y43.907
X143.722 Y43.858
X143.959 Y43.858
X144.190 Y43.907
X144.406 Y44.004
X144.597 Y44.143
X144.756 Y44.318
X144.874 Y44.523
X144.947 Y44.748
X144.972 Y44.983
X144.947 Y45.219
X144.874 Y45.444
X144.756 Y45.648
X144.597 Y45.824
X144.406 Y45.963
X144.190 Y46.059
X143.959 Y46.109
X143.722 Y46.109
X143.491 Y46.059
X143.275 Y45.963
X143.083 Y45.824
X142.925 Y45.648
X142.857 Y45.531
X141.860 Y45.546
X141.821 Y47.247
X141.845 Y51.650
X141.850 Y51.652
X142.036 Y51.787
X142.189 Y51.958
X142.304 Y52.157
X142.375 Y52.375
X142.399 Y52.603
X142.375 Y52.832
X142.304 Y53.050
X142.189 Y53.249
X142.036 Y53.420
X141.850 Y53.555
X141.640 Y53.648
X141.415 Y53.696
X141.185 Y53.696
G0 Z3.000
G0  X114.820 Y53.683
G0  Z3.000
G01 F400 Z0
G01 F400 Z-0.100
G01F400X114.820 Y51.524
X116.980 Y51.524
X116.980 Y53.683
X114.820 Y53.683
G0 Z3.000
G0  X136.103 Y51.182
G0  Z3.000
G01 F400 Z0
G01 F400 Z-0.100
G01F400X135.873 Y51.133
X135.658 Y51.037
X135.468 Y50.899
X135.311 Y50.724
X135.193 Y50.521
X135.120 Y50.297
X135.096 Y50.063
X135.120 Y49.830
X135.193 Y49.606
X135.311 Y49.403
X135.468 Y49.228
X135.658 Y49.090
X135.873 Y48.994
X136.103 Y48.945
X136.338 Y48.945
X136.568 Y48.994
X136.782 Y49.090
X136.972 Y49.228
X137.130 Y49.403
X137.247 Y49.606
X137.320 Y49.830
X137.345 Y50.063
X137.320 Y50.297
X137.247 Y50.521
X137.130 Y50.724
X136.972 Y50.899
X136.782 Y51.037
X136.568 Y51.133
X136.338 Y51.182
X136.103 Y51.182
G0 Z3.000
G0  X133.537 Y51.182
G0  Z3.000
G01 F400 Z0
G01 F400 Z-0.100
G01F400X133.307 Y51.133
X133.093 Y51.037
X132.903 Y50.899
X132.745 Y50.724
X132.628 Y50.521
X132.555 Y50.297
X132.531 Y50.063
X132.555 Y49.830
X132.628 Y49.606
X132.745 Y49.403
X132.903 Y49.228
X133.093 Y49.090
X133.307 Y48.994
X133.537 Y48.945
X133.772 Y48.945
X134.002 Y48.994
X134.217 Y49.090
X134.407 Y49.228
X134.564 Y49.403
X134.682 Y49.606
X134.755 Y49.830
X134.779 Y50.063
X134.755 Y50.297
X134.682 Y50.521
X134.564 Y50.724
X134.407 Y50.899
X134.217 Y51.037
X134.002 Y51.133
X133.772 Y51.182
X133.537 Y51.182
G0 Z3.000
G0  X136.103 Y48.642
G0  Z3.000
G01 F400 Z0
G01 F400 Z-0.100
G01F400X135.873 Y48.593
X135.658 Y48.497
X135.468 Y48.359
X135.311 Y48.184
X135.193 Y47.981
X135.120 Y47.757
X135.096 Y47.523
X135.120 Y47.290
X135.193 Y47.066
X135.311 Y46.863
X135.468 Y46.688
X135.658 Y46.550
X135.873 Y46.454
X136.103 Y46.405
X136.338 Y46.405
X136.568 Y46.454
X136.782 Y46.550
X136.972 Y46.688
X137.130 Y46.863
X137.247 Y47.066
X137.320 Y47.290
X137.345 Y47.523
X137.320 Y47.757
X137.247 Y47.981
X137.130 Y48.184
X136.972 Y48.359
X136.782 Y48.497
X136.568 Y48.593
X136.338 Y48.642
X136.103 Y48.642
G0 Z3.000
G0  X133.563 Y48.642
G0  Z3.000
G01 F400 Z0
G01 F400 Z-0.100
G01F400X133.333 Y48.593
X133.118 Y48.497
X132.928 Y48.359
X132.771 Y48.184
X132.653 Y47.981
X132.581 Y47.757
X132.556 Y47.523
X132.581 Y47.290
X132.653 Y47.066
X132.771 Y46.863
X132.928 Y46.688
X133.118 Y46.550
X133.333 Y46.454
X133.563 Y46.405
X133.798 Y46.405
X134.028 Y46.454
X134.242 Y46.550
X134.433 Y46.688
X134.590 Y46.863
X134.707 Y47.066
X134.780 Y47.290
X134.805 Y47.523
X134.780 Y47.757
X134.707 Y47.981
X134.590 Y48.184
X134.433 Y48.359
X134.242 Y48.497
X134.028 Y48.593
X133.798 Y48.642
X133.563 Y48.642
G0 Z3.000
G0  X136.103 Y46.102
G0  Z3.000
G01 F400 Z0
G01 F400 Z-0.100
G01F400X135.873 Y46.053
X135.658 Y45.957
X135.468 Y45.819
X135.311 Y45.644
X135.193 Y45.441
X135.120 Y45.217
X135.096 Y44.983
X135.120 Y44.750
X135.193 Y44.526
X135.311 Y44.323
X135.468 Y44.148
X135.658 Y44.010
X135.873 Y43.914
X136.103 Y43.865
X136.338 Y43.865
X136.568 Y43.914
X136.782 Y44.010
X136.972 Y44.148
X137.130 Y44.323
X137.247 Y44.526
X137.320 Y44.750
X137.345 Y44.983
X137.320 Y45.217
X137.247 Y45.441
X137.130 Y45.644
X136.972 Y45.819
X136.782 Y45.957
X136.568 Y46.053
X136.338 Y46.102
X136.103 Y46.102
G0 Z3.000
G0  X133.563 Y46.102
G0  Z3.000
G01 F400 Z0
G01 F400 Z-0.100
G01F400X133.333 Y46.053
X133.118 Y45.957
X132.928 Y45.819
X132.771 Y45.644
X132.653 Y45.441
X132.581 Y45.217
X132.556 Y44.983
X132.581 Y44.750
X132.653 Y44.526
X132.771 Y44.323
X132.928 Y44.148
X133.118 Y44.010
X133.333 Y43.914
X133.563 Y43.865
X133.798 Y43.865
X134.028 Y43.914
X134.242 Y44.010
X134.433 Y44.148
X134.590 Y44.323
X134.707 Y44.526
X134.780 Y44.750
X134.805 Y44.983
X134.780 Y45.217
X134.707 Y45.441
X134.590 Y45.644
X134.433 Y45.819
X134.242 Y45.957
X134.028 Y46.053
X133.798 Y46.102
X133.563 Y46.102
G0 Z3.000
G0  X136.103 Y43.562
G0  Z3.000
G01 F400 Z0
G01 F400 Z-0.100
G01F400X135.873 Y43.513
X135.658 Y43.417
X135.468 Y43.279
X135.311 Y43.104
X135.193 Y42.901
X135.120 Y42.677
X135.096 Y42.443
X135.120 Y42.210
X135.193 Y41.986
X135.311 Y41.782
X135.468 Y41.608
X135.658 Y41.470
X135.873 Y41.374
X136.103 Y41.325
X136.338 Y41.325
X136.568 Y41.374
X136.782 Y41.470
X136.972 Y41.608
X137.130 Y41.782
X137.247 Y41.986
X137.320 Y42.210
X137.345 Y42.443
X137.320 Y42.677
X137.247 Y42.901
X137.130 Y43.104
X136.972 Y43.279
X136.782 Y43.417
X136.568 Y43.513
X136.338 Y43.562
X136.103 Y43.562
G0 Z3.000
G0  X133.563 Y43.562
G0  Z3.000
G01 F400 Z0
G01 F400 Z-0.100
G01F400X133.333 Y43.513
X133.118 Y43.417
X132.928 Y43.279
X132.771 Y43.104
X132.653 Y42.901
X132.581 Y42.677
X132.556 Y42.443
X132.581 Y42.210
X132.653 Y41.986
X132.771 Y41.782
X132.928 Y41.608
X133.118 Y41.470
X133.333 Y41.374
X133.563 Y41.325
X133.798 Y41.325
X134.028 Y41.374
X134.242 Y41.470
X134.433 Y41.608
X134.590 Y41.782
X134.707 Y41.986
X134.780 Y42.210
X134.805 Y42.443
X134.780 Y42.677
X134.707 Y42.901
X134.590 Y43.104
X134.433 Y43.279
X134.242 Y43.417
X134.028 Y43.513
X133.798 Y43.562
X133.563 Y43.562
G0 Z3.000
G0  X136.103 Y41.022
G0  Z3.000
G01 F400 Z0
G01 F400 Z-0.100
G01F400X135.873 Y40.973
X135.658 Y40.877
X135.468 Y40.739
X135.311 Y40.564
X135.193 Y40.361
X135.120 Y40.137
X135.096 Y39.903
X135.120 Y39.670
X135.193 Y39.446
X135.311 Y39.242
X135.468 Y39.068
X135.658 Y38.930
X135.873 Y38.834
X136.103 Y38.785
X136.338 Y38.785
X136.568 Y38.834
X136.782 Y38.930
X136.972 Y39.068
X137.130 Y39.242
X137.247 Y39.446
X137.320 Y39.670
X137.345 Y39.903
X137.320 Y40.137
X137.247 Y40.361
X137.130 Y40.564
X136.972 Y40.739
X136.782 Y40.877
X136.568 Y40.973
X136.338 Y41.022
X136.103 Y41.022
G0 Z3.000
G0  X133.563 Y41.022
G0  Z3.000
G01 F400 Z0
G01 F400 Z-0.100
G01F400X133.333 Y40.973
X133.118 Y40.877
X132.928 Y40.739
X132.771 Y40.564
X132.653 Y40.361
X132.581 Y40.137
X132.556 Y39.903
X132.581 Y39.670
X132.653 Y39.446
X132.771 Y39.242
X132.928 Y39.068
X133.118 Y38.930
X133.333 Y38.834
X133.563 Y38.785
X133.798 Y38.785
X134.028 Y38.834
X134.242 Y38.930
X134.433 Y39.068
X134.590 Y39.242
X134.707 Y39.446
X134.780 Y39.670
X134.805 Y39.903
X134.780 Y40.137
X134.707 Y40.361
X134.590 Y40.564
X134.433 Y40.739
X134.242 Y40.877
X134.028 Y40.973
X133.798 Y41.022
X133.563 Y41.022
G0 Z3.000
G0  X136.103 Y38.482
G0  Z3.000
G01 F400 Z0
G01 F400 Z-0.100
G01F400X135.873 Y38.433
X135.658 Y38.337
X135.468 Y38.199
X135.311 Y38.024
X135.193 Y37.821
X135.120 Y37.597
X135.096 Y37.363
X135.120 Y37.130
X135.193 Y36.906
X135.311 Y36.703
X135.468 Y36.528
X135.658 Y36.390
X135.873 Y36.294
X136.103 Y36.245
X136.338 Y36.245
X136.568 Y36.294
X136.782 Y36.390
X136.972 Y36.528
X137.130 Y36.703
X137.247 Y36.906
X137.320 Y37.130
X137.345 Y37.363
X137.320 Y37.597
X137.247 Y37.821
X137.130 Y38.024
X136.972 Y38.199
X136.782 Y38.337
X136.568 Y38.433
X136.338 Y38.482
X136.103 Y38.482
G0 Z3.000
G0  X133.563 Y38.482
G0  Z3.000
G01 F400 Z0
G01 F400 Z-0.100
G01F400X133.333 Y38.433
X133.118 Y38.337
X132.928 Y38.199
X132.771 Y38.024
X132.653 Y37.821
X132.581 Y37.597
X132.556 Y37.363
X132.581 Y37.130
X132.653 Y36.906
X132.771 Y36.703
X132.928 Y36.528
X133.118 Y36.390
X133.333 Y36.294
X133.563 Y36.245
X133.798 Y36.245
X134.028 Y36.294
X134.242 Y36.390
X134.433 Y36.528
X134.590 Y36.703
X134.707 Y36.906
X134.780 Y37.130
X134.805 Y37.363
X134.780 Y37.597
X134.707 Y37.821
X134.590 Y38.024
X134.433 Y38.199
X134.242 Y38.337
X134.028 Y38.433
X133.798 Y38.482
X133.563 Y38.482
G0 Z3.000
G0  X136.103 Y35.942
G0  Z3.000
G01 F400 Z0
G01 F400 Z-0.100
G01F400X135.873 Y35.893
X135.658 Y35.797
X135.468 Y35.659
X135.311 Y35.484
X135.193 Y35.281
X135.120 Y35.057
X135.096 Y34.823
X135.120 Y34.590
X135.193 Y34.366
X135.311 Y34.163
X135.468 Y33.988
X135.658 Y33.850
X135.873 Y33.754
X136.103 Y33.705
X136.338 Y33.705
X136.568 Y33.754
X136.782 Y33.850
X136.972 Y33.988
X137.130 Y34.163
X137.247 Y34.366
X137.320 Y34.590
X137.345 Y34.823
X137.320 Y35.057
X137.247 Y35.281
X137.130 Y35.484
X136.972 Y35.659
X136.782 Y35.797
X136.568 Y35.893
X136.338 Y35.942
X136.103 Y35.942
G0 Z3.000
G0  X133.563 Y35.942
G0  Z3.000
G01 F400 Z0
G01 F400 Z-0.100
G01F400X133.333 Y35.893
X133.118 Y35.797
X132.928 Y35.659
X132.771 Y35.484
X132.653 Y35.281
X132.581 Y35.057
X132.556 Y34.823
X132.581 Y34.590
X132.653 Y34.366
X132.771 Y34.163
X132.928 Y33.988
X133.118 Y33.850
X133.333 Y33.754
X133.563 Y33.705
X133.798 Y33.705
X134.028 Y33.754
X134.242 Y33.850
X134.433 Y33.988
X134.590 Y34.163
X134.707 Y34.366
X134.780 Y34.590
X134.805 Y34.823
X134.780 Y35.057
X134.707 Y35.281
X134.590 Y35.484
X134.433 Y35.659
X134.242 Y35.797
X134.028 Y35.893
X133.798 Y35.942
X133.563 Y35.942
G0 Z3.000
G0  X136.103 Y33.402
G0  Z3.000
G01 F400 Z0
G01 F400 Z-0.100
G01F400X135.873 Y33.353
X135.658 Y33.257
X135.468 Y33.119
X135.311 Y32.944
X135.193 Y32.741
X135.120 Y32.517
X135.096 Y32.283
X135.120 Y32.050
X135.193 Y31.826
X135.311 Y31.623
X135.468 Y31.448
X135.658 Y31.310
X135.873 Y31.214
X136.103 Y31.165
X136.338 Y31.165
X136.568 Y31.214
X136.782 Y31.310
X136.972 Y31.448
X137.130 Y31.623
X137.247 Y31.826
X137.320 Y32.050
X137.345 Y32.283
X137.320 Y32.517
X137.247 Y32.741
X137.130 Y32.944
X136.972 Y33.119
X136.782 Y33.257
X136.568 Y33.353
X136.338 Y33.402
X136.103 Y33.402
G0 Z3.000
G0  X133.563 Y33.402
G0  Z3.000
G01 F400 Z0
G01 F400 Z-0.100
G01F400X133.333 Y33.353
X133.118 Y33.257
X132.928 Y33.119
X132.771 Y32.944
X132.653 Y32.741
X132.581 Y32.517
X132.556 Y32.283
X132.581 Y32.050
X132.653 Y31.826
X132.771 Y31.623
X132.928 Y31.448
X133.118 Y31.310
X133.333 Y31.214
X133.563 Y31.165
X133.798 Y31.165
X134.028 Y31.214
X134.242 Y31.310
X134.433 Y31.448
X134.590 Y31.623
X134.707 Y31.826
X134.780 Y32.050
X134.805 Y32.283
X134.780 Y32.517
X134.707 Y32.741
X134.590 Y32.944
X134.433 Y33.119
X134.242 Y33.257
X134.028 Y33.353
X133.798 Y33.402
X133.563 Y33.402
G0 Z3.000
G0  X136.103 Y30.887
G0  Z3.000
G01 F400 Z0
G01 F400 Z-0.100
G01F400X135.873 Y30.838
X135.658 Y30.742
X135.468 Y30.604
X135.311 Y30.430
X135.193 Y30.226
X135.120 Y30.003
X135.096 Y29.769
X135.120 Y29.535
X135.193 Y29.312
X135.311 Y29.108
X135.468 Y28.933
X135.658 Y28.795
X135.873 Y28.700
X136.103 Y28.651
X136.338 Y28.651
X136.568 Y28.700
X136.782 Y28.795
X136.972 Y28.933
X137.130 Y29.108
X137.247 Y29.312
X137.320 Y29.535
X137.345 Y29.769
X137.320 Y30.003
X137.247 Y30.226
X137.130 Y30.430
X136.972 Y30.604
X136.782 Y30.742
X136.568 Y30.838
X136.338 Y30.887
X136.103 Y30.887
G0 Z3.000
G0  X133.563 Y30.887
G0  Z3.000
G01 F400 Z0
G01 F400 Z-0.100
G01F400X133.333 Y30.838
X133.118 Y30.742
X132.928 Y30.604
X132.771 Y30.430
X132.653 Y30.226
X132.581 Y30.003
X132.556 Y29.769
X132.581 Y29.535
X132.653 Y29.312
X132.771 Y29.108
X132.928 Y28.933
X133.118 Y28.795
X133.333 Y28.700
X133.563 Y28.651
X133.798 Y28.651
X134.028 Y28.700
X134.242 Y28.795
X134.433 Y28.933
X134.590 Y29.108
X134.707 Y29.312
X134.780 Y29.535
X134.805 Y29.769
X134.780 Y30.003
X134.707 Y30.226
X134.590 Y30.430
X134.433 Y30.604
X134.242 Y30.742
X134.028 Y30.838
X133.798 Y30.887
X133.563 Y30.887
G0 Z3.000
G0  X136.103 Y28.322
G0  Z3.000
G01 F400 Z0
G01 F400 Z-0.100
G01F400X135.873 Y28.273
X135.658 Y28.177
X135.468 Y28.039
X135.311 Y27.864
X135.193 Y27.661
X135.120 Y27.437
X135.096 Y27.203
X135.120 Y26.970
X135.193 Y26.746
X135.311 Y26.543
X135.468 Y26.368
X135.658 Y26.230
X135.873 Y26.134
X136.103 Y26.085
X136.338 Y26.085
X136.568 Y26.134
X136.782 Y26.230
X136.972 Y26.368
X137.130 Y26.543
X137.247 Y26.746
X137.320 Y26.970
X137.345 Y27.203
X137.320 Y27.437
X137.247 Y27.661
X137.130 Y27.864
X136.972 Y28.039
X136.782 Y28.177
X136.568 Y28.273
X136.338 Y28.322
X136.103 Y28.322
G0 Z3.000
G0  X133.563 Y28.322
G0  Z3.000
G01 F400 Z0
G01 F400 Z-0.100
G01F400X133.333 Y28.273
X133.118 Y28.177
X132.928 Y28.039
X132.771 Y27.864
X132.653 Y27.661
X132.581 Y27.437
X132.556 Y27.203
X132.581 Y26.970
X132.653 Y26.746
X132.771 Y26.543
X132.928 Y26.368
X133.118 Y26.230
X133.333 Y26.134
X133.563 Y26.085
X133.798 Y26.085
X134.028 Y26.134
X134.242 Y26.230
X134.433 Y26.368
X134.590 Y26.543
X134.707 Y26.746
X134.780 Y26.970
X134.805 Y27.203
X134.780 Y27.437
X134.707 Y27.661
X134.590 Y27.864
X134.433 Y28.039
X134.242 Y28.177
X134.028 Y28.273
X133.798 Y28.322
X133.563 Y28.322
G0 Z3.000
G0  X136.103 Y25.782
G0  Z3.000
G01 F400 Z0
G01 F400 Z-0.100
G01F400X135.873 Y25.733
X135.658 Y25.637
X135.468 Y25.499
X135.311 Y25.324
X135.193 Y25.121
X135.120 Y24.897
X135.096 Y24.663
X135.120 Y24.430
X135.193 Y24.206
X135.311 Y24.003
X135.468 Y23.828
X135.658 Y23.690
X135.873 Y23.594
X136.103 Y23.545
X136.338 Y23.545
X136.568 Y23.594
X136.782 Y23.690
X136.972 Y23.828
X137.130 Y24.003
X137.247 Y24.206
X137.320 Y24.430
X137.345 Y24.663
X137.320 Y24.897
X137.247 Y25.121
X137.130 Y25.324
X136.972 Y25.499
X136.782 Y25.637
X136.568 Y25.733
X136.338 Y25.782
X136.103 Y25.782
G0 Z3.000
G0  X133.563 Y25.782
G0  Z3.000
G01 F400 Z0
G01 F400 Z-0.100
G01F400X133.333 Y25.733
X133.118 Y25.637
X132.928 Y25.499
X132.771 Y25.324
X132.653 Y25.121
X132.581 Y24.897
X132.556 Y24.663
X132.581 Y24.430
X132.653 Y24.206
X132.771 Y24.003
X132.928 Y23.828
X133.118 Y23.690
X133.333 Y23.594
X133.563 Y23.545
X133.798 Y23.545
X134.028 Y23.594
X134.242 Y23.690
X134.433 Y23.828
X134.590 Y24.003
X134.707 Y24.206
X134.780 Y24.430
X134.805 Y24.663
X134.780 Y24.897
X134.707 Y25.121
X134.590 Y25.324
X134.433 Y25.499
X134.242 Y25.637
X134.028 Y25.733
X133.798 Y25.782
X133.563 Y25.782
G0 Z3.000
G0  X136.103 Y23.242
G0  Z3.000
G01 F400 Z0
G01 F400 Z-0.100
G01F400X135.873 Y23.193
X135.658 Y23.097
X135.468 Y22.959
X135.311 Y22.784
X135.193 Y22.581
X135.120 Y22.357
X135.096 Y22.123
X135.120 Y21.890
X135.193 Y21.666
X135.311 Y21.463
X135.468 Y21.288
X135.658 Y21.150
X135.873 Y21.054
X136.103 Y21.005
X136.338 Y21.005
X136.568 Y21.054
X136.782 Y21.150
X136.972 Y21.288
X137.130 Y21.463
X137.247 Y21.666
X137.320 Y21.890
X137.345 Y22.123
X137.320 Y22.357
X137.247 Y22.581
X137.130 Y22.784
X136.972 Y22.959
X136.782 Y23.097
X136.568 Y23.193
X136.338 Y23.242
X136.103 Y23.242
G0 Z3.000
G0  X133.563 Y23.242
G0  Z3.000
G01 F400 Z0
G01 F400 Z-0.100
G01F400X133.333 Y23.193
X133.118 Y23.097
X132.928 Y22.959
X132.771 Y22.784
X132.653 Y22.581
X132.581 Y22.357
X132.556 Y22.123
X132.581 Y21.890
X132.653 Y21.666
X132.771 Y21.463
X132.928 Y21.288
X133.118 Y21.150
X133.333 Y21.054
X133.563 Y21.005
X133.798 Y21.005
X134.028 Y21.054
X134.242 Y21.150
X134.433 Y21.288
X134.590 Y21.463
X134.707 Y21.666
X134.780 Y21.890
X134.805 Y22.123
X134.780 Y22.357
X134.707 Y22.581
X134.590 Y22.784
X134.433 Y22.959
X134.242 Y23.097
X134.028 Y23.193
X133.798 Y23.242
X133.563 Y23.242
G0 Z3.000
G0  X108.204 Y99.051
G0  Z3.000
G01 F400 Z0
G01 F400 Z-0.100
G01F400X108.054 Y99.019
X107.915 Y98.957
X107.791 Y98.867
X107.689 Y98.753
X107.612 Y98.621
X107.565 Y98.475
X107.549 Y98.323
X107.565 Y98.171
X107.612 Y98.026
X107.689 Y97.894
X107.745 Y97.831
X107.745 Y14.996
X107.689 Y14.933
X107.612 Y14.801
X107.565 Y14.655
X107.549 Y14.503
X107.565 Y14.351
X107.612 Y14.206
X107.689 Y14.074
X107.791 Y13.960
X107.915 Y13.870
X108.054 Y13.808
X108.204 Y13.776
X108.357 Y13.776
X108.506 Y13.808
X108.646 Y13.870
X108.656 Y13.878
X108.696 Y13.869
X148.504 Y13.869
X148.544 Y13.878
X148.554 Y13.870
X148.694 Y13.808
X148.844 Y13.776
X148.997 Y13.776
X149.146 Y13.808
X149.286 Y13.870
X149.410 Y13.960
X149.512 Y14.074
X149.588 Y14.206
X149.635 Y14.351
X149.651 Y14.503
X149.635 Y14.655
X149.588 Y14.801
X149.546 Y14.874
X149.557 Y14.975
X149.404 Y38.381
X149.557 Y97.853
X149.546 Y97.953
X149.588 Y98.026
X149.635 Y98.171
X149.651 Y98.323
X149.635 Y98.475
X149.588 Y98.621
X149.512 Y98.753
X149.410 Y98.867
X149.286 Y98.957
X149.146 Y99.019
X148.997 Y99.051
X148.844 Y99.051
X148.694 Y99.019
X148.555 Y98.957
X148.431 Y98.867
X148.422 Y98.857
X108.779 Y98.857
X108.770 Y98.867
X108.646 Y98.957
X108.506 Y99.019
X108.357 Y99.051
X108.204 Y99.051
G0 Z3.000
G0  X108.815 Y97.790
G0  Z3.000
G01 F400 Z0
G01 F400 Z-0.100
G01F400X148.284 Y97.790
X148.131 Y38.379
X148.283 Y15.138
X108.815 Y15.138
X108.815 Y97.790
G0 Z3.000
G0  X129.920 Y97.004
G0  Z3.000
G01 F400 Z0
G01 F400 Z-0.100
G01F400X129.920 Y94.563
X132.361 Y94.563
X132.361 Y95.148
X143.204 Y95.125
X143.204 Y71.383
X143.044 Y71.267
X142.878 Y71.082
X142.842 Y71.019
X138.829 Y71.043
X138.742 Y71.043
X137.247 Y71.022
X137.203 Y71.097
X137.033 Y71.286
X136.828 Y71.436
X136.596 Y71.539
X136.347 Y71.592
X136.093 Y71.592
X135.845 Y71.539
X135.613 Y71.436
X135.407 Y71.286
X135.237 Y71.097
X135.110 Y70.877
X135.032 Y70.636
X135.005 Y70.383
X135.032 Y70.131
X135.110 Y69.889
X135.237 Y69.669
X135.407 Y69.481
X135.613 Y69.331
X135.845 Y69.228
X136.093 Y69.175
X136.347 Y69.175
X136.596 Y69.228
X136.828 Y69.331
X137.033 Y69.481
X137.203 Y69.669
X137.251 Y69.752
X138.805 Y69.774
X142.840 Y69.751
X142.878 Y69.684
X143.044 Y69.499
X143.246 Y69.353
X143.473 Y69.252
X143.716 Y69.201
X143.965 Y69.201
X144.208 Y69.252
X144.435 Y69.353
X144.636 Y69.500
X144.802 Y69.684
X144.927 Y69.900
X145.003 Y70.136
X145.030 Y70.383
X145.003 Y70.631
X144.927 Y70.867
X144.802 Y71.082
X144.636 Y71.267
X144.477 Y71.383
X144.477 Y95.770
X144.464 Y95.891
X144.423 Y96.017
X144.356 Y96.133
X144.267 Y96.232
X144.159 Y96.310
X144.037 Y96.365
X143.907 Y96.392
X132.361 Y96.417
X132.361 Y97.004
X129.920 Y97.004
G0 Z3.000
G0  X131.012 Y94.459
G0  Z3.000
G01 F400 Z0
G01 F400 Z-0.100
G01F400X130.763 Y94.406
X130.529 Y94.302
X130.323 Y94.151
X130.152 Y93.962
X130.024 Y93.740
X129.945 Y93.497
X129.918 Y93.243
X129.945 Y92.989
X130.024 Y92.746
X130.152 Y92.525
X130.323 Y92.335
X130.529 Y92.185
X130.763 Y92.081
X131.012 Y92.028
X131.268 Y92.028
X131.518 Y92.081
X131.751 Y92.185
X131.958 Y92.335
X132.129 Y92.525
X132.257 Y92.746
X132.335 Y92.989
X132.362 Y93.243
X132.335 Y93.497
X132.257 Y93.740
X132.129 Y93.962
X131.958 Y94.151
X131.751 Y94.302
X131.518 Y94.406
X131.268 Y94.459
X131.012 Y94.459
G0 Z3.000
G0  X131.012 Y91.919
G0  Z3.000
G01 F400 Z0
G01 F400 Z-0.100
G01F400X130.763 Y91.866
X130.529 Y91.762
X130.323 Y91.612
X130.152 Y91.422
X130.024 Y91.200
X129.945 Y90.957
X129.918 Y90.703
X129.945 Y90.449
X130.024 Y90.206
X130.152 Y89.985
X130.323 Y89.795
X130.529 Y89.645
X130.763 Y89.541
X131.012 Y89.488
X131.268 Y89.488
X131.518 Y89.541
X131.751 Y89.645
X131.958 Y89.795
X132.129 Y89.985
X132.257 Y90.206
X132.335 Y90.449
X132.362 Y90.703
X132.335 Y90.957
X132.257 Y91.200
X132.129 Y91.422
X131.958 Y91.612
X131.751 Y91.762
X131.518 Y91.866
X131.268 Y91.919
X131.012 Y91.919
G0 Z3.000
G0  X131.012 Y89.379
G0  Z3.000
G01 F400 Z0
G01 F400 Z-0.100
G01F400X130.763 Y89.326
X130.529 Y89.222
X130.323 Y89.072
X130.152 Y88.882
X130.024 Y88.660
X129.945 Y88.417
X129.918 Y88.163
X129.945 Y87.909
X130.024 Y87.666
X130.152 Y87.445
X130.323 Y87.255
X130.529 Y87.105
X130.763 Y87.001
X131.012 Y86.948
X131.268 Y86.948
X131.518 Y87.001
X131.751 Y87.105
X131.958 Y87.255
X132.129 Y87.445
X132.257 Y87.666
X132.335 Y87.909
X132.362 Y88.163
X132.335 Y88.417
X132.257 Y88.660
X132.129 Y88.882
X131.958 Y89.072
X131.751 Y89.222
X131.518 Y89.326
X131.268 Y89.379
X131.012 Y89.379
G0 Z3.000
G0  X131.012 Y86.839
G0  Z3.000
G01 F400 Z0
G01 F400 Z-0.100
G01F400X130.763 Y86.785
X130.529 Y86.682
X130.323 Y86.532
X130.152 Y86.342
X130.024 Y86.120
X129.945 Y85.877
X129.918 Y85.623
X129.945 Y85.369
X130.024 Y85.126
X130.152 Y84.905
X130.323 Y84.715
X130.529 Y84.565
X130.763 Y84.461
X131.012 Y84.408
X131.268 Y84.408
X131.518 Y84.461
X131.751 Y84.565
X131.958 Y84.715
X132.129 Y84.905
X132.257 Y85.126
X132.335 Y85.369
X132.362 Y85.623
X132.335 Y85.877
X132.257 Y86.120
X132.129 Y86.342
X131.958 Y86.532
X131.751 Y86.682
X131.518 Y86.785
X131.268 Y86.839
X131.012 Y86.839
G0 Z3.000
G0  X131.012 Y84.299
G0  Z3.000
G01 F400 Z0
G01 F400 Z-0.100
G01F400X130.763 Y84.246
X130.529 Y84.142
X130.323 Y83.992
X130.152 Y83.802
X130.087 Y83.690
X125.483 Y83.592
X121.026 Y83.718
X120.913 Y83.718
X120.783 Y83.690
X120.662 Y83.636
X120.554 Y83.557
X120.464 Y83.458
X120.398 Y83.343
X120.357 Y83.216
X120.344 Y83.095
X120.344 Y76.076
X116.883 Y76.098
X116.879 Y76.098
X116.848 Y76.152
X116.684 Y76.334
X116.486 Y76.478
X116.262 Y76.577
X116.023 Y76.628
X115.778 Y76.628
X115.538 Y76.577
X115.315 Y76.478
X115.117 Y76.334
X114.953 Y76.152
X114.830 Y75.940
X114.755 Y75.707
X114.729 Y75.463
X114.755 Y75.220
X114.830 Y74.987
X114.953 Y74.775
X115.117 Y74.593
X115.315 Y74.449
X115.538 Y74.350
X115.778 Y74.299
X116.023 Y74.299
X116.262 Y74.350
X116.486 Y74.449
X116.684 Y74.593
X116.848 Y74.775
X116.879 Y74.829
X120.937 Y74.804
X121.047 Y74.804
X121.177 Y74.832
X121.299 Y74.886
X121.407 Y74.964
X121.496 Y75.063
X121.563 Y75.179
X121.604 Y75.306
X121.617 Y75.426
X121.617 Y82.430
X125.430 Y82.322
X125.521 Y82.322
X130.120 Y82.421
X130.152 Y82.365
X130.323 Y82.175
X130.529 Y82.025
X130.763 Y81.921
X131.012 Y81.868
X131.268 Y81.868
X131.518 Y81.921
X131.751 Y82.025
X131.958 Y82.175
X132.129 Y82.365
X132.257 Y82.586
X132.335 Y82.829
X132.362 Y83.083
X132.335 Y83.337
X132.257 Y83.580
X132.129 Y83.802
X131.958 Y83.992
X131.751 Y84.142
X131.518 Y84.246
X131.268 Y84.299
X131.012 Y84.299
G0 Z3.000
G0  X131.012 Y81.759
G0  Z3.000
G01 F400 Z0
G01 F400 Z-0.100
G01F400X130.763 Y81.706
X130.529 Y81.602
X130.323 Y81.452
X130.152 Y81.262
X130.103 Y81.178
X123.479 Y81.178
X123.349 Y81.150
X123.227 Y81.096
X123.119 Y81.017
X123.030 Y80.918
X122.963 Y80.803
X122.922 Y80.676
X122.909 Y80.555
X122.909 Y73.512
X116.883 Y73.558
X116.879 Y73.558
X116.848 Y73.612
X116.684 Y73.794
X116.486 Y73.938
X116.262 Y74.037
X116.023 Y74.088
X115.778 Y74.088
X115.538 Y74.037
X115.315 Y73.938
X115.117 Y73.794
X114.953 Y73.612
X114.830 Y73.400
X114.755 Y73.167
X114.729 Y72.923
X114.755 Y72.680
X114.830 Y72.447
X114.953 Y72.235
X115.117 Y72.053
X115.315 Y71.909
X115.538 Y71.810
X115.778 Y71.759
X116.023 Y71.759
X116.262 Y71.810
X116.486 Y71.909
X116.684 Y72.053
X116.848 Y72.235
X116.879 Y72.289
X123.502 Y72.238
X123.612 Y72.238
X123.743 Y72.266
X123.864 Y72.320
X123.972 Y72.399
X124.062 Y72.498
X124.128 Y72.613
X124.169 Y72.740
X124.182 Y72.861
X124.182 Y79.909
X130.103 Y79.909
X130.152 Y79.825
X130.323 Y79.635
X130.505 Y79.503
X130.555 Y67.882
X130.567 Y67.762
X130.608 Y67.635
X130.675 Y67.519
X130.764 Y67.420
X130.872 Y67.342
X130.994 Y67.288
X131.123 Y67.260
X132.637 Y67.238
X132.696 Y67.131
X132.867 Y66.941
X133.073 Y66.791
X133.305 Y66.688
X133.553 Y66.635
X133.807 Y66.635
X134.056 Y66.688
X134.287 Y66.791
X134.493 Y66.941
X134.663 Y67.129
X134.790 Y67.349
X134.868 Y67.591
X134.895 Y67.843
X134.868 Y68.096
X134.790 Y68.338
X134.663 Y68.558
X134.493 Y68.746
X134.287 Y68.895
X134.056 Y68.999
X133.807 Y69.052
X133.553 Y69.052
X133.305 Y68.999
X133.073 Y68.895
X132.867 Y68.746
X132.697 Y68.558
X132.668 Y68.507
X131.825 Y68.520
X131.778 Y79.505
X131.958 Y79.635
X132.129 Y79.825
X132.257 Y80.046
X132.335 Y80.289
X132.362 Y80.543
X132.335 Y80.797
X132.257 Y81.040
X132.129 Y81.262
X131.958 Y81.452
X131.751 Y81.602
X131.518 Y81.706
X131.268 Y81.759
X131.012 Y81.759
G0 Z3.000
G0  X133.553 Y71.592
G0  Z3.000
G01 F400 Z0
G01 F400 Z-0.100
G01F400X133.305 Y71.539
X133.073 Y71.436
X132.867 Y71.286
X132.697 Y71.097
X132.570 Y70.877
X132.492 Y70.636
X132.465 Y70.383
X132.492 Y70.131
X132.570 Y69.889
X132.697 Y69.669
X132.867 Y69.481
X133.073 Y69.331
X133.305 Y69.228
X133.553 Y69.175
X133.807 Y69.175
X134.056 Y69.228
X134.287 Y69.331
X134.493 Y69.481
X134.663 Y69.669
X134.790 Y69.889
X134.868 Y70.131
X134.895 Y70.383
X134.868 Y70.636
X134.790 Y70.877
X134.663 Y71.097
X134.493 Y71.286
X134.287 Y71.436
X134.056 Y71.539
X133.807 Y71.592
X133.553 Y71.592
G0 Z3.000
G0  X115.778 Y71.548
G0  Z3.000
G01 F400 Z0
G01 F400 Z-0.100
G01F400X115.538 Y71.497
X115.315 Y71.398
X115.117 Y71.254
X114.953 Y71.072
X114.830 Y70.860
X114.755 Y70.627
X114.729 Y70.383
X114.755 Y70.140
X114.830 Y69.907
X114.953 Y69.695
X115.117 Y69.513
X115.315 Y69.369
X115.538 Y69.270
X115.778 Y69.219
X116.023 Y69.219
X116.262 Y69.270
X116.486 Y69.369
X116.684 Y69.513
X116.848 Y69.695
X116.970 Y69.907
X117.046 Y70.140
X117.071 Y70.383
X117.046 Y70.627
X116.970 Y70.860
X116.848 Y71.072
X116.684 Y71.254
X116.486 Y71.398
X116.262 Y71.497
X116.023 Y71.548
X115.778 Y71.548
G0 Z3.000
G0  X136.093 Y69.052
G0  Z3.000
G01 F400 Z0
G01 F400 Z-0.100
G01F400X135.845 Y68.999
X135.613 Y68.895
X135.407 Y68.746
X135.237 Y68.558
X135.110 Y68.338
X135.032 Y68.096
X135.005 Y67.843
X135.032 Y67.591
X135.110 Y67.349
X135.237 Y67.129
X135.407 Y66.941
X135.613 Y66.791
X135.845 Y66.688
X136.093 Y66.635
X136.347 Y66.635
X136.596 Y66.688
X136.828 Y66.791
X137.033 Y66.941
X137.203 Y67.129
X137.330 Y67.349
X137.408 Y67.591
X137.435 Y67.843
X137.408 Y68.096
X137.330 Y68.338
X137.203 Y68.558
X137.033 Y68.746
X136.828 Y68.895
X136.596 Y68.999
X136.347 Y69.052
X136.093 Y69.052
G0 Z3.000
G0  X115.778 Y69.008
G0  Z3.000
G01 F400 Z0
G01 F400 Z-0.100
G01F400X115.538 Y68.957
X115.315 Y68.858
X115.117 Y68.714
X114.953 Y68.532
X114.830 Y68.320
X114.755 Y68.087
X114.729 Y67.843
X114.755 Y67.600
X114.830 Y67.367
X114.953 Y67.155
X115.117 Y66.973
X115.315 Y66.829
X115.538 Y66.730
X115.778 Y66.679
X116.023 Y66.679
X116.262 Y66.730
X116.486 Y66.829
X116.684 Y66.973
X116.848 Y67.155
X116.970 Y67.367
X117.046 Y67.600
X117.071 Y67.843
X117.046 Y68.087
X116.970 Y68.320
X116.848 Y68.532
X116.684 Y68.714
X116.486 Y68.858
X116.262 Y68.957
X116.023 Y69.008
X115.778 Y69.008
G0 Z3.000
G0  X136.093 Y66.512
G0  Z3.000
G01 F400 Z0
G01 F400 Z-0.100
G01F400X135.845 Y66.459
X135.613 Y66.356
X135.407 Y66.206
X135.237 Y66.017
X135.110 Y65.797
X135.032 Y65.556
X135.005 Y65.303
X135.032 Y65.051
X135.110 Y64.809
X135.237 Y64.589
X135.407 Y64.401
X135.613 Y64.251
X135.845 Y64.148
X136.093 Y64.095
X136.347 Y64.095
X136.596 Y64.148
X136.828 Y64.251
X137.033 Y64.401
X137.203 Y64.589
X137.330 Y64.809
X137.408 Y65.051
X137.435 Y65.303
X137.408 Y65.556
X137.330 Y65.797
X137.203 Y66.017
X137.033 Y66.206
X136.828 Y66.356
X136.596 Y66.459
X136.347 Y66.512
X136.093 Y66.512
G0 Z3.000
G0  X133.553 Y66.512
G0  Z3.000
G01 F400 Z0
G01 F400 Z-0.100
G01F400X133.305 Y66.459
X133.073 Y66.356
X132.867 Y66.206
X132.697 Y66.017
X132.570 Y65.797
X132.492 Y65.556
X132.465 Y65.303
X132.492 Y65.051
X132.570 Y64.809
X132.697 Y64.589
X132.867 Y64.401
X133.073 Y64.251
X133.305 Y64.148
X133.553 Y64.095
X133.807 Y64.095
X134.056 Y64.148
X134.287 Y64.251
X134.493 Y64.401
X134.663 Y64.589
X134.790 Y64.809
X134.868 Y65.051
X134.895 Y65.303
X134.868 Y65.556
X134.790 Y65.797
X134.663 Y66.017
X134.493 Y66.206
X134.287 Y66.356
X134.056 Y66.459
X133.807 Y66.512
X133.553 Y66.512
G0 Z3.000
G0  X143.716 Y66.486
G0  Z3.000
G01 F400 Z0
G01 F400 Z-0.100
G01F400X143.473 Y66.434
X143.246 Y66.333
X143.044 Y66.187
X142.878 Y66.002
X142.754 Y65.787
X142.677 Y65.551
X142.651 Y65.303
X142.677 Y65.056
X142.754 Y64.820
X142.878 Y64.604
X143.044 Y64.420
X143.246 Y64.273
X143.473 Y64.172
X143.716 Y64.121
X143.965 Y64.121
X144.208 Y64.172
X144.435 Y64.273
X144.636 Y64.420
X144.802 Y64.604
X144.927 Y64.820
X145.003 Y65.056
X145.030 Y65.303
X145.003 Y65.551
X144.927 Y65.787
X144.802 Y66.002
X144.636 Y66.187
X144.435 Y66.333
X144.208 Y66.434
X143.965 Y66.486
X143.716 Y66.486
G0 Z3.000
G0  X115.778 Y66.468
G0  Z3.000
G01 F400 Z0
G01 F400 Z-0.100
G01F400X115.538 Y66.417
X115.315 Y66.318
X115.117 Y66.174
X114.953 Y65.992
X114.830 Y65.780
X114.755 Y65.547
X114.729 Y65.303
X114.755 Y65.060
X114.830 Y64.827
X114.953 Y64.615
X115.117 Y64.433
X115.315 Y64.289
X115.538 Y64.190
X115.778 Y64.139
X116.023 Y64.139
X116.262 Y64.190
X116.486 Y64.289
X116.684 Y64.433
X116.848 Y64.615
X116.970 Y64.827
X117.046 Y65.060
X117.071 Y65.303
X117.046 Y65.547
X116.970 Y65.780
X116.848 Y65.992
X116.684 Y66.174
X116.486 Y66.318
X116.262 Y66.417
X116.023 Y66.468
X115.778 Y66.468
G0 Z3.000
G0  X136.093 Y63.972
G0  Z3.000
G01 F400 Z0
G01 F400 Z-0.100
G01F400X135.845 Y63.919
X135.613 Y63.816
X135.407 Y63.666
X135.237 Y63.478
X135.110 Y63.258
X135.032 Y63.016
X135.005 Y62.763
X135.032 Y62.511
X135.110 Y62.269
X135.237 Y62.049
X135.407 Y61.861
X135.613 Y61.711
X135.845 Y61.608
X136.093 Y61.555
X136.347 Y61.555
X136.596 Y61.608
X136.828 Y61.711
X137.033 Y61.861
X137.203 Y62.049
X137.330 Y62.269
X137.408 Y62.511
X137.435 Y62.763
X137.408 Y63.016
X137.330 Y63.258
X137.203 Y63.478
X137.033 Y63.666
X136.828 Y63.816
X136.596 Y63.919
X136.347 Y63.972
X136.093 Y63.972
G0 Z3.000
G0  X133.553 Y63.972
G0  Z3.000
G01 F400 Z0
G01 F400 Z-0.100
G01F400X133.305 Y63.919
X133.073 Y63.816
X132.867 Y63.666
X132.697 Y63.478
X132.570 Y63.258
X132.492 Y63.016
X132.465 Y62.763
X132.492 Y62.511
X132.570 Y62.269
X132.697 Y62.049
X132.867 Y61.861
X133.073 Y61.711
X133.305 Y61.608
X133.553 Y61.555
X133.807 Y61.555
X134.056 Y61.608
X134.287 Y61.711
X134.493 Y61.861
X134.663 Y62.049
X134.790 Y62.269
X134.868 Y62.511
X134.895 Y62.763
X134.868 Y63.016
X134.790 Y63.258
X134.663 Y63.478
X134.493 Y63.666
X134.287 Y63.816
X134.056 Y63.919
X133.807 Y63.972
X133.553 Y63.972
G0 Z3.000
G0  X115.778 Y63.928
G0  Z3.000
G01 F400 Z0
G01 F400 Z-0.100
G01F400X115.538 Y63.877
X115.315 Y63.778
X115.117 Y63.634
X114.953 Y63.452
X114.830 Y63.240
X114.755 Y63.007
X114.729 Y62.763
X114.755 Y62.520
X114.830 Y62.287
X114.953 Y62.075
X115.117 Y61.893
X115.315 Y61.749
X115.538 Y61.650
X115.778 Y61.599
X116.023 Y61.599
X116.262 Y61.650
X116.486 Y61.749
X116.684 Y61.893
X116.848 Y62.075
X116.879 Y62.129
X116.883 Y62.129
X128.015 Y62.153
X128.015 Y60.237
X128.027 Y60.116
X128.068 Y59.989
X128.135 Y59.874
X128.224 Y59.775
X128.332 Y59.697
X128.454 Y59.642
X128.584 Y59.615
X132.650 Y59.591
X132.697 Y59.509
X132.867 Y59.321
X133.073 Y59.171
X133.305 Y59.068
X133.553 Y59.015
X133.807 Y59.015
X134.056 Y59.068
X134.287 Y59.171
X134.493 Y59.321
X134.663 Y59.509
X134.790 Y59.729
X134.868 Y59.971
X134.895 Y60.223
X134.868 Y60.476
X134.790 Y60.718
X134.663 Y60.938
X134.493 Y61.126
X134.287 Y61.276
X134.056 Y61.379
X133.807 Y61.432
X133.553 Y61.432
X133.305 Y61.379
X133.073 Y61.276
X132.867 Y61.126
X132.697 Y60.938
X132.652 Y60.859
X129.287 Y60.880
X129.287 Y62.801
X129.275 Y62.921
X129.234 Y63.048
X129.167 Y63.164
X129.078 Y63.263
X128.970 Y63.341
X128.848 Y63.395
X128.718 Y63.423
X128.608 Y63.423
X116.879 Y63.398
X116.848 Y63.452
X116.684 Y63.634
X116.486 Y63.778
X116.262 Y63.877
X116.023 Y63.928
X115.778 Y63.928
G0 Z3.000
G0  X136.093 Y61.432
G0  Z3.000
G01 F400 Z0
G01 F400 Z-0.100
G01F400X135.845 Y61.379
X135.613 Y61.276
X135.407 Y61.126
X135.237 Y60.938
X135.110 Y60.718
X135.032 Y60.476
X135.005 Y60.223
X135.032 Y59.971
X135.110 Y59.729
X135.237 Y59.509
X135.407 Y59.321
X135.613 Y59.171
X135.845 Y59.068
X136.093 Y59.015
X136.347 Y59.015
X136.596 Y59.068
X136.828 Y59.171
X137.033 Y59.321
X137.203 Y59.509
X137.330 Y59.729
X137.408 Y59.971
X137.435 Y60.223
X137.408 Y60.476
X137.330 Y60.718
X137.203 Y60.938
X137.033 Y61.126
X136.828 Y61.276
X136.596 Y61.379
X136.347 Y61.432
X136.093 Y61.432
G0 Z3.000
G0  X115.778 Y61.388
G0  Z3.000
G01 F400 Z0
G01 F400 Z-0.100
G01F400X115.538 Y61.337
X115.315 Y61.238
X115.117 Y61.094
X114.953 Y60.912
X114.830 Y60.700
X114.755 Y60.467
X114.729 Y60.223
X114.755 Y59.980
X114.830 Y59.747
X114.953 Y59.535
X115.117 Y59.353
X115.315 Y59.209
X115.538 Y59.110
X115.778 Y59.059
X116.023 Y59.059
X116.262 Y59.110
X116.486 Y59.209
X116.684 Y59.353
X116.848 Y59.535
X116.970 Y59.747
X117.046 Y59.980
X117.071 Y60.223
X117.046 Y60.467
X116.970 Y60.700
X116.848 Y60.912
X116.684 Y61.094
X116.486 Y61.238
X116.262 Y61.337
X116.023 Y61.388
X115.778 Y61.388
G0 Z3.000
G0  X136.093 Y58.892
G0  Z3.000
G01 F400 Z0
G01 F400 Z-0.100
G01F400X135.845 Y58.839
X135.613 Y58.736
X135.407 Y58.586
X135.237 Y58.398
X135.110 Y58.178
X135.032 Y57.936
X135.005 Y57.683
X135.032 Y57.431
X135.110 Y57.189
X135.237 Y56.969
X135.407 Y56.781
X135.613 Y56.631
X135.845 Y56.528
X136.093 Y56.475
X136.347 Y56.475
X136.596 Y56.528
X136.828 Y56.631
X137.033 Y56.781
X137.203 Y56.969
X137.330 Y57.189
X137.408 Y57.431
X137.435 Y57.683
X137.408 Y57.936
X137.330 Y58.178
X137.203 Y58.398
X137.033 Y58.586
X136.828 Y58.736
X136.596 Y58.839
X136.347 Y58.892
X136.093 Y58.892
G0 Z3.000
G0  X133.553 Y58.892
G0  Z3.000
G01 F400 Z0
G01 F400 Z-0.100
G01F400X133.305 Y58.839
X133.073 Y58.736
X132.867 Y58.586
X132.697 Y58.398
X132.651 Y58.318
X131.124 Y58.318
X130.994 Y58.290
X130.872 Y58.236
X130.764 Y58.157
X130.675 Y58.058
X130.608 Y57.943
X130.567 Y57.816
X130.555 Y57.695
X130.555 Y19.622
X130.567 Y19.502
X130.608 Y19.375
X130.675 Y19.259
X130.764 Y19.160
X130.872 Y19.082
X130.994 Y19.028
X131.124 Y19.000
X143.907 Y19.000
X144.037 Y19.028
X144.159 Y19.082
X144.267 Y19.160
X144.356 Y19.259
X144.423 Y19.375
X144.464 Y19.502
X144.477 Y19.622
X144.477 Y41.404
X144.658 Y41.535
X144.829 Y41.725
X144.957 Y41.946
X145.035 Y42.189
X145.062 Y42.443
X145.035 Y42.697
X144.957 Y42.940
X144.829 Y43.162
X144.658 Y43.352
X144.451 Y43.502
X144.218 Y43.605
X143.968 Y43.659
X143.712 Y43.659
X143.463 Y43.605
X143.229 Y43.502
X143.023 Y43.352
X142.852 Y43.162
X142.724 Y42.940
X142.645 Y42.697
X142.618 Y42.443
X142.645 Y42.189
X142.724 Y41.946
X142.852 Y41.725
X143.023 Y41.535
X143.204 Y41.404
X143.204 Y20.268
X131.827 Y20.268
X131.827 Y57.049
X132.651 Y57.049
X132.697 Y56.969
X132.867 Y56.781
X133.073 Y56.631
X133.305 Y56.528
X133.553 Y56.475
X133.807 Y56.475
X134.056 Y56.528
X134.287 Y56.631
X134.493 Y56.781
X134.663 Y56.969
X134.790 Y57.189
X134.868 Y57.431
X134.895 Y57.683
X134.868 Y57.936
X134.790 Y58.178
X134.663 Y58.398
X134.493 Y58.586
X134.287 Y58.736
X134.056 Y58.839
X133.807 Y58.892
X133.553 Y58.892
G0 Z3.000
G0  X115.778 Y58.848
G0  Z3.000
G01 F400 Z0
G01 F400 Z-0.100
G01F400X115.538 Y58.797
X115.315 Y58.698
X115.117 Y58.554
X114.953 Y58.372
X114.830 Y58.160
X114.755 Y57.927
X114.729 Y57.683
X114.755 Y57.440
X114.830 Y57.207
X114.953 Y56.995
X115.117 Y56.813
X115.315 Y56.669
X115.538 Y56.570
X115.778 Y56.519
X116.023 Y56.519
X116.262 Y56.570
X116.486 Y56.669
X116.684 Y56.813
X116.848 Y56.995
X116.970 Y57.207
X117.046 Y57.440
X117.071 Y57.683
X117.046 Y57.927
X116.970 Y58.160
X116.848 Y58.372
X116.684 Y58.554
X116.486 Y58.698
X116.262 Y58.797
X116.023 Y58.848
X115.778 Y58.848
G0 Z3.000
G0  X136.093 Y56.352
G0  Z3.000
G01 F400 Z0
G01 F400 Z-0.100
G01F400X135.845 Y56.299
X135.613 Y56.196
X135.407 Y56.046
X135.237 Y55.858
X135.110 Y55.638
X135.032 Y55.396
X135.005 Y55.143
X135.032 Y54.891
X135.110 Y54.649
X135.237 Y54.429
X135.407 Y54.241
X135.613 Y54.091
X135.845 Y53.988
X136.093 Y53.935
X136.347 Y53.935
X136.596 Y53.988
X136.828 Y54.091
X137.033 Y54.241
X137.203 Y54.429
X137.330 Y54.649
X137.408 Y54.891
X137.435 Y55.143
X137.408 Y55.396
X137.330 Y55.638
X137.203 Y55.858
X137.033 Y56.046
X136.828 Y56.196
X136.596 Y56.299
X136.347 Y56.352
X136.093 Y56.352
G0 Z3.000
G0  X133.553 Y56.352
G0  Z3.000
G01 F400 Z0
G01 F400 Z-0.100
G01F400X133.305 Y56.299
X133.073 Y56.196
X132.867 Y56.046
X132.697 Y55.858
X132.570 Y55.638
X132.492 Y55.396
X132.465 Y55.143
X132.492 Y54.891
X132.570 Y54.649
X132.697 Y54.429
X132.867 Y54.241
X133.073 Y54.091
X133.305 Y53.988
X133.553 Y53.935
X133.807 Y53.935
X134.056 Y53.988
X134.287 Y54.091
X134.493 Y54.241
X134.663 Y54.429
X134.790 Y54.649
X134.868 Y54.891
X134.895 Y55.143
X134.868 Y55.396
X134.790 Y55.638
X134.663 Y55.858
X134.493 Y56.046
X134.287 Y56.196
X134.056 Y56.299
X133.807 Y56.352
X133.553 Y56.352
G0 Z3.000
G0  X115.778 Y56.308
G0  Z3.000
G01 F400 Z0
G01 F400 Z-0.100
G01F400X115.538 Y56.257
X115.315 Y56.158
X115.117 Y56.014
X114.953 Y55.832
X114.830 Y55.620
X114.755 Y55.387
X114.729 Y55.143
X114.755 Y54.900
X114.830 Y54.667
X114.953 Y54.455
X115.117 Y54.273
X115.315 Y54.129
X115.538 Y54.030
X115.778 Y53.979
X116.023 Y53.979
X116.262 Y54.030
X116.486 Y54.129
X116.684 Y54.273
X116.848 Y54.455
X116.970 Y54.667
X117.046 Y54.900
X117.071 Y55.143
X117.046 Y55.387
X116.970 Y55.620
X116.848 Y55.832
X116.684 Y56.014
X116.486 Y56.158
X116.262 Y56.257
X116.023 Y56.308
X115.778 Y56.308
G0 Z3.000
G0  X136.093 Y53.812
G0  Z3.000
G01 F400 Z0
G01 F400 Z-0.100
G01F400X135.845 Y53.759
X135.613 Y53.656
X135.407 Y53.506
X135.237 Y53.318
X135.110 Y53.098
X135.032 Y52.856
X135.005 Y52.603
X135.032 Y52.351
X135.110 Y52.109
X135.237 Y51.889
X135.407 Y51.701
X135.613 Y51.551
X135.845 Y51.448
X136.093 Y51.395
X136.347 Y51.395
X136.596 Y51.448
X136.828 Y51.551
X137.033 Y51.701
X137.203 Y51.889
X137.330 Y52.109
X137.408 Y52.351
X137.435 Y52.603
X137.408 Y52.856
X137.330 Y53.098
X137.203 Y53.318
X137.033 Y53.506
X136.828 Y53.656
X136.596 Y53.759
X136.347 Y53.812
X136.093 Y53.812
G0 Z3.000
G0  X133.553 Y53.812
G0  Z3.000
G01 F400 Z0
G01 F400 Z-0.100
G01F400X133.305 Y53.759
X133.073 Y53.656
X132.867 Y53.506
X132.697 Y53.318
X132.570 Y53.098
X132.492 Y52.856
X132.465 Y52.603
X132.492 Y52.351
X132.570 Y52.109
X132.697 Y51.889
X132.867 Y51.701
X133.073 Y51.551
X133.305 Y51.448
X133.553 Y51.395
X133.807 Y51.395
X134.056 Y51.448
X134.287 Y51.551
X134.493 Y51.701
X134.663 Y51.889
