( Generated by Carbide Copper )
( Material Size )
( X= 152.400, Y= 101.600, Z= 1.580 )
()
G17
G21
G54
G90
M05
(  )
T502 M06
( Contour )
M03 S10000
G0  X15.183 Y97.829
G0  Z3.000
G01 F400 Z0
G01 F400 Z-0.100
G01F400X15.070 Y97.805
X14.965 Y97.759
X14.872 Y97.691
X14.795 Y97.605
X14.737 Y97.506
X14.702 Y97.396
X14.690 Y97.282
X14.702 Y97.168
X14.737 Y97.058
X14.795 Y96.959
X14.867 Y96.879
X14.890 Y96.848
X14.885 Y96.802
X14.885 Y13.941
X14.893 Y13.887
X14.872 Y13.871
X14.795 Y13.785
X14.737 Y13.686
X14.702 Y13.576
X14.690 Y13.462
X14.702 Y13.348
X14.737 Y13.238
X14.795 Y13.139
X14.872 Y13.053
X14.965 Y12.985
X15.070 Y12.939
X15.183 Y12.915
X15.298 Y12.915
X15.410 Y12.939
X15.515 Y12.985
X15.608 Y13.053
X15.663 Y13.114
X15.686 Y13.109
X55.434 Y13.109
X55.457 Y13.114
X55.512 Y13.053
X55.605 Y12.985
X55.710 Y12.939
X55.823 Y12.915
X55.938 Y12.915
X56.050 Y12.939
X56.155 Y12.985
X56.248 Y13.053
X56.325 Y13.139
X56.383 Y13.238
X56.418 Y13.348
X56.430 Y13.462
X56.418 Y13.576
X56.383 Y13.686
X56.325 Y13.785
X56.253 Y13.865
X56.230 Y13.896
X56.235 Y13.942
X56.235 Y96.803
X56.227 Y96.857
X56.248 Y96.873
X56.325 Y96.959
X56.383 Y97.058
X56.418 Y97.168
X56.430 Y97.282
X56.418 Y97.396
X56.383 Y97.506
X56.325 Y97.605
X56.248 Y97.691
X56.155 Y97.759
X56.050 Y97.805
X55.938 Y97.829
X55.823 Y97.829
X55.710 Y97.805
X55.605 Y97.759
X55.512 Y97.691
X55.457 Y97.630
X55.434 Y97.635
X15.686 Y97.635
X15.663 Y97.630
X15.608 Y97.691
X15.515 Y97.759
X15.410 Y97.805
X15.298 Y97.829
X15.183 Y97.829
G0 Z3.000
G0  X15.663 Y96.934
G0  Z3.000
G01 F400 Z0
G01 F400 Z-0.100
G01F400X15.686 Y96.929
X55.434 Y96.929
X55.457 Y96.934
X55.507 Y96.879
X55.530 Y96.848
X55.525 Y96.802
X55.525 Y13.941
X55.533 Y13.887
X55.512 Y13.871
X55.457 Y13.810
X55.434 Y13.815
X15.686 Y13.815
X15.663 Y13.811
X15.613 Y13.865
X15.590 Y13.896
X15.595 Y13.942
X15.595 Y96.803
X15.587 Y96.857
X15.608 Y96.873
X15.663 Y96.934
G0 Z3.000
G0  X31.979 Y95.783
G0  Z3.000
G01 F400 Z0
G01 F400 Z-0.100
G01F400X31.979 Y93.701
X34.061 Y93.701
X34.061 Y94.386
X40.260 Y94.341
X40.260 Y59.205
X40.267 Y59.134
X40.290 Y59.063
X40.327 Y58.999
X40.377 Y58.944
X40.437 Y58.900
X40.505 Y58.870
X40.577 Y58.854
X49.879 Y58.829
X49.896 Y58.779
X49.999 Y58.600
X50.138 Y58.446
X50.305 Y58.325
X50.494 Y58.240
X50.697 Y58.197
X50.904 Y58.197
X51.106 Y58.240
X51.295 Y58.325
X51.463 Y58.446
X51.601 Y58.600
X51.705 Y58.779
X51.768 Y58.976
X51.790 Y59.182
X51.768 Y59.388
X51.705 Y59.585
X51.601 Y59.764
X51.463 Y59.918
X51.295 Y60.039
X51.106 Y60.124
X50.904 Y60.167
X50.697 Y60.167
X50.494 Y60.124
X50.305 Y60.039
X50.138 Y59.918
X49.999 Y59.764
X49.896 Y59.585
X49.880 Y59.536
X40.969 Y59.560
X40.969 Y94.694
X40.962 Y94.765
X40.939 Y94.836
X40.902 Y94.900
X40.852 Y94.955
X40.792 Y94.999
X40.724 Y95.029
X40.652 Y95.044
X34.061 Y95.093
X34.061 Y95.783
X31.979 Y95.783
G0 Z3.000
G0  X32.911 Y93.237
G0  Z3.000
G01 F400 Z0
G01 F400 Z-0.100
G01F400X32.698 Y93.192
X32.500 Y93.103
X32.324 Y92.976
X32.178 Y92.814
X32.069 Y92.625
X32.047 Y92.556
X22.841 Y92.581
X22.772 Y92.581
X22.700 Y92.565
X22.632 Y92.535
X22.572 Y92.491
X22.522 Y92.436
X22.485 Y92.372
X22.462 Y92.301
X22.454 Y92.230
X22.454 Y64.682
X21.249 Y64.647
X21.241 Y64.672
X21.136 Y64.855
X20.995 Y65.011
X20.824 Y65.135
X20.632 Y65.221
X20.425 Y65.265
X20.215 Y65.265
X20.008 Y65.221
X19.816 Y65.135
X19.645 Y65.011
X19.504 Y64.855
X19.399 Y64.672
X19.334 Y64.472
X19.312 Y64.262
X19.334 Y64.052
X19.399 Y63.852
X19.504 Y63.669
X19.645 Y63.513
X19.816 Y63.389
X20.008 Y63.303
X20.215 Y63.259
X20.425 Y63.259
X20.632 Y63.303
X20.824 Y63.389
X20.995 Y63.513
X21.136 Y63.669
X21.241 Y63.852
X21.270 Y63.940
X22.824 Y63.985
X26.965 Y63.936
X26.996 Y63.842
X27.104 Y63.654
X27.248 Y63.494
X27.423 Y63.367
X27.620 Y63.279
X27.832 Y63.234
X28.048 Y63.234
X28.260 Y63.279
X28.457 Y63.367
X28.632 Y63.494
X28.776 Y63.654
X28.884 Y63.842
X28.951 Y64.047
X28.974 Y64.262
X28.951 Y64.477
X28.884 Y64.683
X28.776 Y64.870
X28.632 Y65.030
X28.457 Y65.157
X28.260 Y65.245
X28.048 Y65.290
X27.832 Y65.290
X27.620 Y65.245
X27.423 Y65.157
X27.248 Y65.030
X27.104 Y64.870
X26.996 Y64.683
X26.983 Y64.643
X23.164 Y64.688
X23.164 Y91.873
X32.046 Y91.849
X32.069 Y91.779
X32.178 Y91.590
X32.324 Y91.428
X32.500 Y91.301
X32.698 Y91.212
X32.911 Y91.167
X33.129 Y91.167
X33.342 Y91.212
X33.540 Y91.301
X33.717 Y91.428
X33.862 Y91.590
X33.971 Y91.779
X34.038 Y91.986
X34.061 Y92.202
X34.038 Y92.418
X33.971 Y92.625
X33.862 Y92.814
X33.717 Y92.976
X33.540 Y93.103
X33.342 Y93.192
X33.129 Y93.237
X32.911 Y93.237
G0 Z3.000
G0  X32.911 Y90.697
G0  Z3.000
G01 F400 Z0
G01 F400 Z-0.100
G01F400X32.698 Y90.652
X32.500 Y90.563
X32.324 Y90.436
X32.178 Y90.274
X32.069 Y90.085
X32.002 Y89.878
X31.979 Y89.662
X32.002 Y89.446
X32.069 Y89.239
X32.178 Y89.050
X32.324 Y88.889
X32.500 Y88.761
X32.698 Y88.672
X32.911 Y88.627
X33.129 Y88.627
X33.342 Y88.672
X33.540 Y88.761
X33.717 Y88.889
X33.862 Y89.050
X33.971 Y89.239
X34.038 Y89.446
X34.061 Y89.662
X34.038 Y89.878
X33.971 Y90.085
X33.862 Y90.274
X33.717 Y90.436
X33.540 Y90.563
X33.342 Y90.652
X33.129 Y90.697
X32.911 Y90.697
G0 Z3.000
G0  X32.911 Y88.157
G0  Z3.000
G01 F400 Z0
G01 F400 Z-0.100
G01F400X32.698 Y88.112
X32.500 Y88.023
X32.324 Y87.895
X32.178 Y87.734
X32.069 Y87.545
X32.002 Y87.338
X31.979 Y87.122
X32.002 Y86.906
X32.069 Y86.699
X32.178 Y86.510
X32.324 Y86.349
X32.500 Y86.221
X32.698 Y86.132
X32.911 Y86.087
X33.129 Y86.087
X33.342 Y86.132
X33.540 Y86.221
X33.717 Y86.349
X33.862 Y86.510
X33.971 Y86.699
X34.038 Y86.906
X34.061 Y87.122
X34.038 Y87.338
X33.971 Y87.545
X33.862 Y87.734
X33.717 Y87.895
X33.540 Y88.023
X33.342 Y88.112
X33.129 Y88.157
X32.911 Y88.157
G0 Z3.000
G0  X32.911 Y85.617
G0  Z3.000
G01 F400 Z0
G01 F400 Z-0.100
G01F400X32.698 Y85.572
X32.500 Y85.483
X32.324 Y85.356
X32.178 Y85.194
X32.069 Y85.005
X32.002 Y84.798
X31.979 Y84.582
X32.002 Y84.366
X32.069 Y84.159
X32.178 Y83.970
X32.324 Y83.809
X32.500 Y83.681
X32.698 Y83.592
X32.911 Y83.547
X33.129 Y83.547
X33.342 Y83.592
X33.540 Y83.681
X33.717 Y83.809
X33.862 Y83.970
X33.971 Y84.159
X34.038 Y84.366
X34.061 Y84.582
X34.038 Y84.798
X33.971 Y85.005
X33.862 Y85.194
X33.717 Y85.356
X33.540 Y85.483
X33.342 Y85.572
X33.129 Y85.617
X32.911 Y85.617
G0 Z3.000
G0  X32.911 Y83.077
G0  Z3.000
G01 F400 Z0
G01 F400 Z-0.100
G01F400X32.698 Y83.032
X32.500 Y82.943
X32.324 Y82.816
X32.178 Y82.654
X32.069 Y82.465
X32.002 Y82.258
X31.979 Y82.042
X32.002 Y81.826
X32.069 Y81.619
X32.178 Y81.430
X32.324 Y81.269
X32.500 Y81.141
X32.664 Y81.067
X32.662 Y80.476
X32.500 Y80.403
X32.324 Y80.276
X32.178 Y80.114
X32.069 Y79.925
X32.002 Y79.718
X31.979 Y79.502
X32.002 Y79.286
X32.069 Y79.079
X32.178 Y78.890
X32.324 Y78.728
X32.500 Y78.601
X32.653 Y78.532
X32.590 Y64.661
X31.437 Y64.644
X31.424 Y64.683
X31.316 Y64.870
X31.172 Y65.030
X30.997 Y65.157
X30.800 Y65.245
X30.588 Y65.290
X30.372 Y65.290
X30.161 Y65.245
X29.963 Y65.157
X29.788 Y65.030
X29.644 Y64.870
X29.536 Y64.683
X29.469 Y64.477
X29.446 Y64.262
X29.469 Y64.047
X29.536 Y63.842
X29.644 Y63.654
X29.788 Y63.494
X29.963 Y63.367
X30.161 Y63.279
X30.372 Y63.234
X30.588 Y63.234
X30.800 Y63.279
X30.997 Y63.367
X31.172 Y63.494
X31.316 Y63.654
X31.424 Y63.842
X31.455 Y63.937
X32.981 Y63.960
X33.053 Y63.975
X33.121 Y64.005
X33.181 Y64.049
X33.231 Y64.104
X33.268 Y64.168
X33.291 Y64.239
X33.299 Y64.310
X33.376 Y78.527
X33.540 Y78.601
X33.717 Y78.728
X33.862 Y78.890
X33.971 Y79.079
X34.038 Y79.286
X34.061 Y79.502
X34.038 Y79.718
X33.971 Y79.925
X33.862 Y80.114
X33.717 Y80.276
X33.540 Y80.404
X33.371 Y80.478
X33.376 Y81.067
X33.540 Y81.141
X33.717 Y81.269
X33.862 Y81.430
X33.971 Y81.619
X34.038 Y81.826
X34.061 Y82.042
X34.038 Y82.258
X33.971 Y82.465
X33.862 Y82.654
X33.717 Y82.816
X33.540 Y82.943
X33.342 Y83.032
X33.129 Y83.077
X32.911 Y83.077
G0 Z3.000
G0  X50.697 Y75.407
G0  Z3.000
G01 F400 Z0
G01 F400 Z-0.100
G01F400X50.494 Y75.364
X50.305 Y75.279
X50.138 Y75.158
X49.999 Y75.004
X49.896 Y74.825
X49.832 Y74.628
X49.810 Y74.422
X49.832 Y74.216
X49.896 Y74.019
X49.999 Y73.840
X50.138 Y73.686
X50.305 Y73.565
X50.494 Y73.480
X50.697 Y73.437
X50.904 Y73.437
X51.106 Y73.480
X51.295 Y73.565
X51.463 Y73.686
X51.601 Y73.840
X51.705 Y74.019
X51.768 Y74.216
X51.790 Y74.422
X51.768 Y74.628
X51.705 Y74.825
X51.601 Y75.004
X51.463 Y75.158
X51.295 Y75.279
X51.106 Y75.364
X50.904 Y75.407
X50.697 Y75.407
G0 Z3.000
G0  X50.697 Y72.867
G0  Z3.000
G01 F400 Z0
G01 F400 Z-0.100
G01F400X50.494 Y72.824
X50.305 Y72.739
X50.138 Y72.618
X49.999 Y72.464
X49.896 Y72.285
X49.832 Y72.088
X49.810 Y71.882
X49.832 Y71.676
X49.896 Y71.479
X49.999 Y71.300
X50.138 Y71.146
X50.305 Y71.025
X50.494 Y70.940
X50.697 Y70.897
X50.904 Y70.897
X51.106 Y70.940
X51.295 Y71.025
X51.463 Y71.146
X51.601 Y71.300
X51.705 Y71.479
X51.768 Y71.676
X51.790 Y71.882
X51.768 Y72.088
X51.705 Y72.285
X51.601 Y72.464
X51.463 Y72.618
X51.295 Y72.739
X51.106 Y72.824
X50.904 Y72.867
X50.697 Y72.867
G0 Z3.000
G0  X27.832 Y70.370
G0  Z3.000
G01 F400 Z0
G01 F400 Z-0.100
G01F400X27.620 Y70.325
X27.423 Y70.237
X27.248 Y70.110
X27.104 Y69.950
X26.996 Y69.763
X26.929 Y69.557
X26.906 Y69.342
X26.929 Y69.127
X26.996 Y68.922
X27.104 Y68.734
X27.248 Y68.574
X27.423 Y68.447
X27.620 Y68.359
X27.832 Y68.314
X28.048 Y68.314
X28.260 Y68.359
X28.457 Y68.447
X28.632 Y68.574
X28.776 Y68.734
X28.884 Y68.922
X28.951 Y69.127
X28.974 Y69.342
X28.951 Y69.557
X28.884 Y69.763
X28.776 Y69.950
X28.632 Y70.110
X28.457 Y70.237
X28.260 Y70.325
X28.048 Y70.370
X27.832 Y70.370
G0 Z3.000
G0  X30.372 Y70.370
G0  Z3.000
G01 F400 Z0
G01 F400 Z-0.100
G01F400X30.161 Y70.325
X29.963 Y70.237
X29.788 Y70.110
X29.644 Y69.950
X29.536 Y69.763
X29.469 Y69.557
X29.446 Y69.342
X29.469 Y69.127
X29.536 Y68.922
X29.644 Y68.734
X29.788 Y68.574
X29.963 Y68.447
X30.161 Y68.359
X30.372 Y68.314
X30.588 Y68.314
X30.800 Y68.359
X30.997 Y68.447
X31.172 Y68.574
X31.316 Y68.734
X31.424 Y68.922
X31.491 Y69.127
X31.514 Y69.342
X31.491 Y69.557
X31.424 Y69.763
X31.316 Y69.950
X31.172 Y70.110
X30.997 Y70.237
X30.800 Y70.325
X30.588 Y70.370
X30.372 Y70.370
G0 Z3.000
G0  X20.215 Y70.345
G0  Z3.000
G01 F400 Z0
G01 F400 Z-0.100
G01F400X20.008 Y70.301
X19.816 Y70.215
X19.645 Y70.091
X19.504 Y69.935
X19.399 Y69.752
X19.334 Y69.552
X19.312 Y69.342
X19.334 Y69.132
X19.399 Y68.932
X19.504 Y68.749
X19.645 Y68.593
X19.816 Y68.469
X20.008 Y68.383
X20.215 Y68.339
X20.425 Y68.339
X20.632 Y68.383
X20.824 Y68.469
X20.995 Y68.593
X21.136 Y68.749
X21.241 Y68.932
X21.306 Y69.132
X21.328 Y69.342
X21.306 Y69.552
X21.241 Y69.752
X21.136 Y69.935
X20.995 Y70.091
X20.824 Y70.215
X20.632 Y70.301
X20.425 Y70.345
X20.215 Y70.345
G0 Z3.000
G0  X50.697 Y70.327
G0  Z3.000
G01 F400 Z0
G01 F400 Z-0.100
G01F400X50.494 Y70.284
X50.305 Y70.199
X50.138 Y70.078
X49.999 Y69.924
X49.896 Y69.745
X49.832 Y69.548
X49.810 Y69.342
X49.832 Y69.136
X49.896 Y68.939
X49.999 Y68.760
X50.138 Y68.606
X50.305 Y68.485
X50.494 Y68.400
X50.697 Y68.357
X50.904 Y68.357
X51.106 Y68.400
X51.295 Y68.485
X51.463 Y68.606
X51.601 Y68.760
X51.705 Y68.939
X51.768 Y69.136
X51.790 Y69.342
X51.768 Y69.548
X51.705 Y69.745
X51.601 Y69.924
X51.463 Y70.078
X51.295 Y70.199
X51.106 Y70.284
X50.904 Y70.327
X50.697 Y70.327
G0 Z3.000
G0  X27.832 Y67.830
G0  Z3.000
G01 F400 Z0
G01 F400 Z-0.100
G01F400X27.620 Y67.785
X27.423 Y67.697
X27.248 Y67.570
X27.104 Y67.410
X26.996 Y67.222
X26.929 Y67.017
X26.906 Y66.802
X26.929 Y66.587
X26.996 Y66.382
X27.104 Y66.194
X27.248 Y66.034
X27.423 Y65.907
X27.620 Y65.819
X27.832 Y65.774
X28.048 Y65.774
X28.260 Y65.819
X28.457 Y65.907
X28.632 Y66.034
X28.776 Y66.194
X28.884 Y66.382
X28.951 Y66.587
X28.974 Y66.802
X28.951 Y67.017
X28.884 Y67.222
X28.776 Y67.410
X28.632 Y67.570
X28.457 Y67.697
X28.260 Y67.785
X28.048 Y67.830
X27.832 Y67.830
G0 Z3.000
G0  X30.372 Y67.830
G0  Z3.000
G01 F400 Z0
G01 F400 Z-0.100
G01F400X30.161 Y67.785
X29.963 Y67.697
X29.788 Y67.570
X29.644 Y67.410
X29.536 Y67.222
X29.469 Y67.017
X29.446 Y66.802
X29.469 Y66.587
X29.536 Y66.382
X29.644 Y66.194
X29.788 Y66.034
X29.963 Y65.907
X30.161 Y65.819
X30.372 Y65.774
X30.588 Y65.774
X30.800 Y65.819
X30.997 Y65.907
X31.172 Y66.034
X31.316 Y66.194
X31.424 Y66.382
X31.491 Y66.587
X31.514 Y66.802
X31.491 Y67.017
X31.424 Y67.222
X31.316 Y67.410
X31.172 Y67.570
X30.997 Y67.697
X30.800 Y67.785
X30.588 Y67.830
X30.372 Y67.830
G0 Z3.000
G0  X50.697 Y67.787
G0  Z3.000
G01 F400 Z0
G01 F400 Z-0.100
G01F400X50.494 Y67.744
X50.305 Y67.659
X50.138 Y67.538
X49.999 Y67.384
X49.896 Y67.205
X49.832 Y67.008
X49.810 Y66.802
X49.832 Y66.596
X49.896 Y66.399
X49.999 Y66.220
X50.138 Y66.066
X50.305 Y65.945
X50.494 Y65.860
X50.697 Y65.817
X50.904 Y65.817
X51.106 Y65.860
X51.295 Y65.945
X51.463 Y66.066
X51.601 Y66.220
X51.705 Y66.399
X51.768 Y66.596
X51.790 Y66.802
X51.768 Y67.008
X51.705 Y67.205
X51.601 Y67.384
X51.463 Y67.538
X51.295 Y67.659
X51.106 Y67.744
X50.904 Y67.787
X50.697 Y67.787
G0 Z3.000
G0  X50.697 Y65.247
G0  Z3.000
G01 F400 Z0
G01 F400 Z-0.100
G01F400X50.494 Y65.204
X50.305 Y65.119
X50.138 Y64.998
X49.999 Y64.844
X49.896 Y64.665
X49.832 Y64.468
X49.810 Y64.262
X49.832 Y64.056
X49.896 Y63.859
X49.999 Y63.680
X50.138 Y63.526
X50.305 Y63.405
X50.494 Y63.320
X50.697 Y63.277
X50.904 Y63.277
X51.106 Y63.320
X51.295 Y63.405
X51.463 Y63.526
X51.601 Y63.680
X51.705 Y63.859
X51.768 Y64.056
X51.790 Y64.262
X51.768 Y64.468
X51.705 Y64.665
X51.601 Y64.844
X51.463 Y64.998
X51.295 Y65.119
X51.106 Y65.204
X50.904 Y65.247
X50.697 Y65.247
G0 Z3.000
G0  X27.832 Y62.750
G0  Z3.000
G01 F400 Z0
G01 F400 Z-0.100
G01F400X27.620 Y62.705
X27.423 Y62.617
X27.248 Y62.490
X27.104 Y62.330
X26.996 Y62.143
X26.929 Y61.937
X26.906 Y61.722
X26.929 Y61.507
X26.996 Y61.302
X27.104 Y61.114
X27.248 Y60.954
X27.423 Y60.827
X27.620 Y60.739
X27.832 Y60.694
X28.048 Y60.694
X28.260 Y60.739
X28.457 Y60.827
X28.632 Y60.954
X28.776 Y61.114
X28.884 Y61.302
X28.951 Y61.507
X28.974 Y61.722
X28.951 Y61.937
X28.884 Y62.143
X28.776 Y62.330
X28.632 Y62.490
X28.457 Y62.617
X28.260 Y62.705
X28.048 Y62.750
X27.832 Y62.750
G0 Z3.000
G0  X30.372 Y62.750
G0  Z3.000
G01 F400 Z0
G01 F400 Z-0.100
G01F400X30.161 Y62.705
X29.963 Y62.617
X29.788 Y62.490
X29.644 Y62.330
X29.536 Y62.143
X29.469 Y61.937
X29.446 Y61.722
X29.469 Y61.507
X29.536 Y61.302
X29.644 Y61.114
X29.788 Y60.954
X29.963 Y60.827
X30.161 Y60.739
X30.372 Y60.694
X30.588 Y60.694
X30.800 Y60.739
X30.997 Y60.827
X31.172 Y60.954
X31.316 Y61.114
X31.424 Y61.302
X31.491 Y61.507
X31.514 Y61.722
X31.491 Y61.937
X31.424 Y62.143
X31.316 Y62.330
X31.172 Y62.490
X30.997 Y62.617
X30.800 Y62.705
X30.588 Y62.750
X30.372 Y62.750
G0 Z3.000
G0  X50.697 Y62.707
G0  Z3.000
G01 F400 Z0
G01 F400 Z-0.100
G01F400X50.494 Y62.664
X50.305 Y62.579
X50.138 Y62.458
X49.999 Y62.304
X49.896 Y62.125
X49.832 Y61.928
X49.810 Y61.722
X49.832 Y61.516
X49.896 Y61.319
X49.999 Y61.140
X50.138 Y60.986
X50.305 Y60.865
X50.494 Y60.780
X50.697 Y60.737
X50.904 Y60.737
X51.106 Y60.780
X51.295 Y60.865
X51.463 Y60.986
X51.601 Y61.140
X51.705 Y61.319
X51.768 Y61.516
X51.790 Y61.722
X51.768 Y61.928
X51.705 Y62.125
X51.601 Y62.304
X51.463 Y62.458
X51.295 Y62.579
X51.106 Y62.664
X50.904 Y62.707
X50.697 Y62.707
G0 Z3.000
G0  X27.832 Y60.210
G0  Z3.000
G01 F400 Z0
G01 F400 Z-0.100
G01F400X27.620 Y60.165
X27.423 Y60.077
X27.248 Y59.950
X27.104 Y59.790
X26.996 Y59.603
X26.929 Y59.397
X26.906 Y59.182
X26.929 Y58.967
X26.996 Y58.762
X27.104 Y58.574
X27.248 Y58.414
X27.423 Y58.287
X27.620 Y58.199
X27.832 Y58.154
X28.048 Y58.154
X28.260 Y58.199
X28.457 Y58.287
X28.632 Y58.414
X28.776 Y58.574
X28.884 Y58.762
X28.951 Y58.967
X28.974 Y59.182
X28.951 Y59.397
X28.884 Y59.603
X28.776 Y59.790
X28.632 Y59.950
X28.457 Y60.077
X28.260 Y60.165
X28.048 Y60.210
X27.832 Y60.210
G0 Z3.000
G0  X30.372 Y60.210
G0  Z3.000
G01 F400 Z0
G01 F400 Z-0.100
G01F400X30.161 Y60.165
X29.963 Y60.077
X29.788 Y59.950
X29.644 Y59.790
X29.536 Y59.603
X29.469 Y59.397
X29.446 Y59.182
X29.469 Y58.967
X29.536 Y58.762
X29.644 Y58.574
X29.788 Y58.414
X29.963 Y58.287
X30.161 Y58.199
X30.372 Y58.154
X30.588 Y58.154
X30.800 Y58.199
X30.997 Y58.287
X31.172 Y58.414
X31.316 Y58.574
X31.424 Y58.762
X31.491 Y58.967
X31.514 Y59.182
X31.491 Y59.397
X31.424 Y59.603
X31.316 Y59.790
X31.172 Y59.950
X30.997 Y60.077
X30.800 Y60.165
X30.588 Y60.210
X30.372 Y60.210
G0 Z3.000
G0  X27.832 Y57.670
G0  Z3.000
G01 F400 Z0
G01 F400 Z-0.100
G01F400X27.620 Y57.625
X27.423 Y57.537
X27.248 Y57.410
X27.104 Y57.250
X26.996 Y57.063
X26.929 Y56.857
X26.906 Y56.642
X26.929 Y56.427
X26.996 Y56.222
X27.104 Y56.034
X27.248 Y55.874
X27.423 Y55.747
X27.620 Y55.659
X27.832 Y55.614
X28.048 Y55.614
X28.260 Y55.659
X28.457 Y55.747
X28.632 Y55.874
X28.776 Y56.034
X28.884 Y56.222
X28.951 Y56.427
X28.974 Y56.642
X28.951 Y56.857
X28.884 Y57.063
X28.776 Y57.250
X28.632 Y57.410
X28.457 Y57.537
X28.260 Y57.625
X28.048 Y57.670
X27.832 Y57.670
G0 Z3.000
G0  X30.372 Y57.670
G0  Z3.000
G01 F400 Z0
G01 F400 Z-0.100
G01F400X30.161 Y57.625
X29.963 Y57.537
X29.788 Y57.410
X29.644 Y57.250
X29.536 Y57.063
X29.469 Y56.857
X29.446 Y56.642
X29.469 Y56.427
X29.536 Y56.222
X29.644 Y56.034
X29.788 Y55.874
X29.963 Y55.747
X30.161 Y55.659
X30.372 Y55.614
X30.588 Y55.614
X30.800 Y55.659
X30.997 Y55.747
X31.172 Y55.874
X31.316 Y56.034
X31.424 Y56.222
X31.491 Y56.427
X31.514 Y56.642
X31.491 Y56.857
X31.424 Y57.063
X31.316 Y57.250
X31.172 Y57.410
X30.997 Y57.537
X30.800 Y57.625
X30.588 Y57.670
X30.372 Y57.670
G0 Z3.000
G0  X50.697 Y57.627
G0  Z3.000
G01 F400 Z0
G01 F400 Z-0.100
G01F400X50.494 Y57.584
X50.305 Y57.499
X50.138 Y57.378
X49.999 Y57.224
X49.896 Y57.045
X49.832 Y56.848
X49.810 Y56.642
X49.832 Y56.436
X49.896 Y56.239
X49.999 Y56.060
X50.138 Y55.906
X50.305 Y55.785
X50.494 Y55.700
X50.697 Y55.657
X50.904 Y55.657
X51.106 Y55.700
X51.295 Y55.785
X51.463 Y55.906
X51.601 Y56.060
X51.705 Y56.239
X51.768 Y56.436
X51.790 Y56.642
X51.768 Y56.848
X51.705 Y57.045
X51.601 Y57.224
X51.463 Y57.378
X51.295 Y57.499
X51.106 Y57.584
X50.904 Y57.627
X50.697 Y57.627
G0 Z3.000
G0  X27.832 Y55.130
G0  Z3.000
G01 F400 Z0
G01 F400 Z-0.100
G01F400X27.620 Y55.085
X27.423 Y54.997
X27.248 Y54.870
X27.104 Y54.710
X26.996 Y54.523
X26.929 Y54.317
X26.906 Y54.102
X26.929 Y53.887
X26.996 Y53.681
X27.104 Y53.494
X27.248 Y53.334
X27.423 Y53.207
X27.620 Y53.119
X27.832 Y53.074
X28.048 Y53.074
X28.260 Y53.119
X28.457 Y53.207
X28.632 Y53.334
X28.776 Y53.494
X28.884 Y53.681
X28.951 Y53.887
X28.974 Y54.102
X28.951 Y54.317
X28.884 Y54.523
X28.776 Y54.710
X28.632 Y54.870
X28.457 Y54.997
X28.260 Y55.085
X28.048 Y55.130
X27.832 Y55.130
G0 Z3.000
G0  X30.372 Y55.130
G0  Z3.000
G01 F400 Z0
G01 F400 Z-0.100
G01F400X30.161 Y55.085
X29.963 Y54.997
X29.788 Y54.870
X29.644 Y54.710
X29.536 Y54.523
X29.469 Y54.317
X29.446 Y54.102
X29.469 Y53.887
X29.536 Y53.681
X29.644 Y53.494
X29.788 Y53.334
X29.963 Y53.207
X30.161 Y53.119
X30.372 Y53.074
X30.588 Y53.074
X30.800 Y53.119
X30.997 Y53.207
X31.172 Y53.334
X31.316 Y53.494
X31.424 Y53.681
X31.491 Y53.887
X31.514 Y54.102
X31.491 Y54.317
X31.424 Y54.523
X31.316 Y54.710
X31.172 Y54.870
X30.997 Y54.997
X30.800 Y55.085
X30.588 Y55.130
X30.372 Y55.130
G0 Z3.000
G0  X50.697 Y55.087
G0  Z3.000
G01 F400 Z0
G01 F400 Z-0.100
G01F400X50.494 Y55.044
X50.305 Y54.959
X50.138 Y54.838
X49.999 Y54.684
X49.896 Y54.505
X49.832 Y54.308
X49.810 Y54.102
X49.832 Y53.896
X49.896 Y53.699
X49.999 Y53.520
X50.138 Y53.366
X50.305 Y53.245
X50.494 Y53.160
X50.697 Y53.117
X50.904 Y53.117
X51.106 Y53.160
X51.295 Y53.245
X51.463 Y53.366
X51.601 Y53.520
X51.705 Y53.699
X51.768 Y53.896
X51.790 Y54.102
X51.768 Y54.308
X51.705 Y54.505
X51.601 Y54.684
X51.463 Y54.838
X51.295 Y54.959
X51.106 Y55.044
X50.904 Y55.087
X50.697 Y55.087
G0 Z3.000
G0  X27.832 Y52.590
G0  Z3.000
G01 F400 Z0
G01 F400 Z-0.100
G01F400X27.620 Y52.545
X27.423 Y52.457
X27.248 Y52.330
X27.104 Y52.170
X26.996 Y51.983
X26.929 Y51.777
X26.906 Y51.562
X26.929 Y51.347
X26.996 Y51.142
X27.104 Y50.954
X27.248 Y50.794
X27.423 Y50.667
X27.620 Y50.579
X27.832 Y50.534
X28.048 Y50.534
X28.260 Y50.579
X28.457 Y50.667
X28.632 Y50.794
X28.776 Y50.954
X28.884 Y51.142
X28.951 Y51.347
X28.974 Y51.562
X28.951 Y51.777
X28.884 Y51.983
X28.776 Y52.170
X28.632 Y52.330
X28.457 Y52.457
X28.260 Y52.545
X28.048 Y52.590
X27.832 Y52.590
G0 Z3.000
G0  X30.372 Y52.590
G0  Z3.000
G01 F400 Z0
G01 F400 Z-0.100
G01F400X30.161 Y52.545
X29.963 Y52.457
X29.788 Y52.330
X29.644 Y52.170
X29.536 Y51.983
X29.469 Y51.777
X29.446 Y51.562
X29.469 Y51.347
X29.536 Y51.142
X29.644 Y50.954
X29.788 Y50.794
X29.963 Y50.667
X30.161 Y50.579
X30.372 Y50.534
X30.588 Y50.534
X30.800 Y50.579
X30.997 Y50.667
X31.172 Y50.794
X31.316 Y50.954
X31.424 Y51.142
X31.491 Y51.347
X31.514 Y51.562
X31.491 Y51.777
X31.424 Y51.983
X31.316 Y52.170
X31.172 Y52.330
X30.997 Y52.457
X30.800 Y52.545
X30.588 Y52.590
X30.372 Y52.590
G0 Z3.000
G0  X17.675 Y52.565
G0  Z3.000
G01 F400 Z0
G01 F400 Z-0.100
G01F400X17.468 Y52.521
X17.276 Y52.435
X17.105 Y52.311
X16.964 Y52.155
X16.859 Y51.972
X16.794 Y51.772
X16.772 Y51.562
X16.794 Y51.352
X16.859 Y51.152
X16.964 Y50.969
X17.105 Y50.813
X17.276 Y50.689
X17.468 Y50.603
X17.675 Y50.559
X17.885 Y50.559
X18.092 Y50.603
X18.284 Y50.689
X18.455 Y50.813
X18.596 Y50.969
X18.701 Y51.152
X18.766 Y51.352
X18.788 Y51.562
X18.766 Y51.772
X18.701 Y51.972
X18.596 Y52.155
X18.455 Y52.311
X18.284 Y52.435
X18.092 Y52.521
X17.885 Y52.565
X17.675 Y52.565
G0 Z3.000
G0  X22.755 Y52.565
G0  Z3.000
G01 F400 Z0
G01 F400 Z-0.100
G01F400X22.548 Y52.521
X22.356 Y52.435
X22.185 Y52.311
X22.044 Y52.155
X21.939 Y51.972
X21.874 Y51.772
X21.852 Y51.562
X21.874 Y51.352
X21.939 Y51.152
X22.044 Y50.969
X22.185 Y50.813
X22.356 Y50.689
X22.548 Y50.603
X22.755 Y50.559
X22.965 Y50.559
X23.172 Y50.603
X23.364 Y50.689
X23.535 Y50.813
X23.676 Y50.969
X23.781 Y51.152
X23.846 Y51.352
X23.868 Y51.562
X23.846 Y51.772
X23.781 Y51.972
X23.676 Y52.155
X23.535 Y52.311
X23.364 Y52.435
X23.172 Y52.521
X22.965 Y52.565
X22.755 Y52.565
G0 Z3.000
G0  X49.810 Y52.552
G0  Z3.000
G01 F400 Z0
G01 F400 Z-0.100
G01F400X49.810 Y50.572
X51.790 Y50.572
X51.790 Y52.552
X49.810 Y52.552
G0 Z3.000
G0  X30.397 Y50.050
G0  Z3.000
G01 F400 Z0
G01 F400 Z-0.100
G01F400X30.186 Y50.005
X29.989 Y49.917
X29.814 Y49.790
X29.669 Y49.630
X29.561 Y49.443
X29.494 Y49.237
X29.472 Y49.022
X29.494 Y48.807
X29.561 Y48.602
X29.669 Y48.414
X29.814 Y48.254
X29.989 Y48.127
X30.186 Y48.039
X30.397 Y47.994
X30.614 Y47.994
X30.825 Y48.039
X31.022 Y48.127
X31.197 Y48.254
X31.342 Y48.414
X31.450 Y48.602
X31.517 Y48.807
X31.539 Y49.022
X31.517 Y49.237
X31.450 Y49.443
X31.342 Y49.630
X31.197 Y49.790
X31.022 Y49.917
X30.825 Y50.005
X30.614 Y50.050
X30.397 Y50.050
G0 Z3.000
G0  X27.832 Y50.050
G0  Z3.000
G01 F400 Z0
G01 F400 Z-0.100
G01F400X27.620 Y50.005
X27.423 Y49.917
X27.248 Y49.790
X27.104 Y49.630
X26.996 Y49.443
X26.929 Y49.237
X26.906 Y49.022
X26.929 Y48.807
X26.996 Y48.602
X27.104 Y48.414
X27.248 Y48.254
X27.423 Y48.127
X27.620 Y48.039
X27.832 Y47.994
X28.048 Y47.994
X28.260 Y48.039
X28.457 Y48.127
X28.632 Y48.254
X28.776 Y48.414
X28.884 Y48.602
X28.951 Y48.807
X28.974 Y49.022
X28.951 Y49.237
X28.884 Y49.443
X28.776 Y49.630
X28.632 Y49.790
X28.457 Y49.917
X28.260 Y50.005
X28.048 Y50.050
X27.832 Y50.050
G0 Z3.000
G0  X19.279 Y47.523
G0  Z3.000
G01 F400 Z0
G01 F400 Z-0.100
G01F400X19.279 Y45.441
X21.361 Y45.441
X21.361 Y47.523
X19.279 Y47.523
G0 Z3.000
G0  X30.372 Y47.510
G0  Z3.000
G01 F400 Z0
G01 F400 Z-0.100
G01F400X30.161 Y47.465
X29.963 Y47.377
X29.788 Y47.250
X29.644 Y47.090
X29.536 Y46.903
X29.469 Y46.697
X29.446 Y46.482
X29.469 Y46.267
X29.536 Y46.062
X29.644 Y45.874
X29.788 Y45.714
X29.963 Y45.587
X30.161 Y45.499
X30.372 Y45.454
X30.588 Y45.454
X30.800 Y45.499
X30.997 Y45.587
X31.172 Y45.714
X31.316 Y45.874
X31.424 Y46.062
X31.491 Y46.267
X31.514 Y46.482
X31.491 Y46.697
X31.424 Y46.903
X31.316 Y47.090
X31.172 Y47.250
X30.997 Y47.377
X30.800 Y47.465
X30.588 Y47.510
X30.372 Y47.510
G0 Z3.000
G0  X27.832 Y47.510
G0  Z3.000
G01 F400 Z0
G01 F400 Z-0.100
G01F400X27.620 Y47.465
X27.423 Y47.377
X27.248 Y47.250
X27.104 Y47.090
X26.996 Y46.903
X26.929 Y46.697
X26.906 Y46.482
X26.929 Y46.267
X26.996 Y46.062
X27.104 Y45.874
X27.248 Y45.714
X27.423 Y45.587
X27.620 Y45.499
X27.832 Y45.454
X28.048 Y45.454
X28.260 Y45.499
X28.457 Y45.587
X28.632 Y45.714
X28.776 Y45.874
X28.884 Y46.062
X28.951 Y46.267
X28.974 Y46.482
X28.951 Y46.697
X28.884 Y46.903
X28.776 Y47.090
X28.632 Y47.250
X28.457 Y47.377
X28.260 Y47.465
X28.048 Y47.510
X27.832 Y47.510
G0 Z3.000
G0  X20.211 Y44.977
G0  Z3.000
G01 F400 Z0
G01 F400 Z-0.100
G01F400X19.998 Y44.932
X19.800 Y44.843
X19.623 Y44.715
X19.478 Y44.554
X19.369 Y44.365
X19.302 Y44.158
X19.279 Y43.942
X19.302 Y43.726
X19.369 Y43.519
X19.478 Y43.330
X19.623 Y43.169
X19.800 Y43.041
X19.998 Y42.952
X20.211 Y42.907
X20.429 Y42.907
X20.642 Y42.952
X20.840 Y43.041
X21.017 Y43.169
X21.162 Y43.330
X21.271 Y43.519
X21.338 Y43.726
X21.361 Y43.942
X21.338 Y44.158
X21.271 Y44.365
X21.162 Y44.554
X21.017 Y44.715
X20.840 Y44.843
X20.642 Y44.932
X20.429 Y44.977
X20.211 Y44.977
G0 Z3.000
G0  X30.372 Y44.970
G0  Z3.000
G01 F400 Z0
G01 F400 Z-0.100
G01F400X30.161 Y44.925
X29.963 Y44.837
X29.788 Y44.710
X29.644 Y44.550
X29.536 Y44.363
X29.469 Y44.157
X29.446 Y43.942
X29.469 Y43.727
X29.536 Y43.522
X29.644 Y43.334
X29.788 Y43.174
X29.963 Y43.047
X30.161 Y42.959
X30.372 Y42.914
X30.588 Y42.914
X30.800 Y42.959
X30.997 Y43.047
X31.172 Y43.174
X31.316 Y43.334
X31.424 Y43.522
X31.491 Y43.727
X31.514 Y43.942
X31.491 Y44.157
X31.424 Y44.363
X31.316 Y44.550
X31.172 Y44.710
X30.997 Y44.837
X30.800 Y44.925
X30.588 Y44.970
X30.372 Y44.970
G0 Z3.000
G0  X27.832 Y44.970
G0  Z3.000
G01 F400 Z0
G01 F400 Z-0.100
G01F400X27.620 Y44.925
X27.423 Y44.837
X27.248 Y44.710
X27.104 Y44.550
X26.996 Y44.363
X26.929 Y44.157
X26.906 Y43.942
X26.929 Y43.727
X26.996 Y43.522
X27.104 Y43.334
X27.248 Y43.174
X27.423 Y43.047
X27.620 Y42.959
X27.832 Y42.914
X28.048 Y42.914
X28.260 Y42.959
X28.457 Y43.047
X28.632 Y43.174
X28.776 Y43.334
X28.884 Y43.522
X28.951 Y43.727
X28.974 Y43.942
X28.951 Y44.157
X28.884 Y44.363
X28.776 Y44.550
X28.632 Y44.710
X28.457 Y44.837
X28.260 Y44.925
X28.048 Y44.970
X27.832 Y44.970
G0 Z3.000
G0  X20.211 Y42.437
G0  Z3.000
G01 F400 Z0
G01 F400 Z-0.100
G01F400X19.998 Y42.392
X19.800 Y42.303
X19.623 Y42.175
X19.478 Y42.014
X19.369 Y41.825
X19.302 Y41.618
X19.279 Y41.402
X19.302 Y41.186
X19.369 Y40.979
X19.478 Y40.790
X19.623 Y40.629
X19.800 Y40.501
X19.998 Y40.412
X20.211 Y40.367
X20.429 Y40.367
X20.642 Y40.412
X20.840 Y40.501
X21.017 Y40.629
X21.162 Y40.790
X21.271 Y40.979
X21.338 Y41.186
X21.361 Y41.402
X21.338 Y41.618
X21.271 Y41.825
X21.162 Y42.014
X21.017 Y42.175
X20.840 Y42.303
X20.642 Y42.392
X20.429 Y42.437
X20.211 Y42.437
G0 Z3.000
G0  X30.372 Y42.430
G0  Z3.000
G01 F400 Z0
G01 F400 Z-0.100
G01F400X30.161 Y42.385
X29.963 Y42.297
X29.788 Y42.170
X29.644 Y42.010
X29.536 Y41.823
X29.469 Y41.617
X29.446 Y41.402
X29.469 Y41.187
X29.536 Y40.982
X29.644 Y40.794
X29.788 Y40.634
X29.963 Y40.507
X30.161 Y40.419
X30.372 Y40.374
X30.588 Y40.374
X30.800 Y40.419
X30.997 Y40.507
X31.172 Y40.634
X31.316 Y40.794
X31.424 Y40.982
X31.491 Y41.187
X31.514 Y41.402
X31.491 Y41.617
X31.424 Y41.823
X31.316 Y42.010
X31.172 Y42.170
X30.997 Y42.297
X30.800 Y42.385
X30.588 Y42.430
X30.372 Y42.430
G0 Z3.000
G0  X27.832 Y42.430
G0  Z3.000
G01 F400 Z0
G01 F400 Z-0.100
G01F400X27.620 Y42.385
X27.423 Y42.297
X27.248 Y42.170
X27.104 Y42.010
X26.996 Y41.823
X26.929 Y41.617
X26.906 Y41.402
X26.929 Y41.187
X26.996 Y40.982
X27.104 Y40.794
X27.248 Y40.634
X27.423 Y40.507
X27.620 Y40.419
X27.832 Y40.374
X28.048 Y40.374
X28.260 Y40.419
X28.457 Y40.507
X28.632 Y40.634
X28.776 Y40.794
X28.884 Y40.982
X28.951 Y41.187
X28.974 Y41.402
X28.951 Y41.617
X28.884 Y41.823
X28.776 Y42.010
X28.632 Y42.170
X28.457 Y42.297
X28.260 Y42.385
X28.048 Y42.430
X27.832 Y42.430
G0 Z3.000
G0  X30.372 Y39.890
G0  Z3.000
G01 F400 Z0
G01 F400 Z-0.100
G01F400X30.161 Y39.845
X29.963 Y39.757
X29.788 Y39.630
X29.644 Y39.470
X29.536 Y39.282
X29.469 Y39.077
X29.446 Y38.862
X29.469 Y38.647
X29.536 Y38.442
X29.644 Y38.254
X29.788 Y38.094
X29.963 Y37.967
X30.161 Y37.879
X30.372 Y37.834
X30.588 Y37.834
X30.800 Y37.879
X30.997 Y37.967
X31.172 Y38.094
X31.316 Y38.254
X31.424 Y38.442
X31.491 Y38.647
X31.514 Y38.862
X31.491 Y39.077
X31.424 Y39.282
X31.316 Y39.470
X31.172 Y39.630
X30.997 Y39.757
X30.800 Y39.845
X30.588 Y39.890
X30.372 Y39.890
G0 Z3.000
G0  X27.832 Y39.890
G0  Z3.000
G01 F400 Z0
G01 F400 Z-0.100
G01F400X27.620 Y39.845
X27.423 Y39.757
X27.248 Y39.630
X27.104 Y39.470
X26.996 Y39.282
X26.929 Y39.077
X26.906 Y38.862
X26.929 Y38.647
X26.996 Y38.442
X27.104 Y38.254
X27.248 Y38.094
X27.423 Y37.967
X27.620 Y37.879
X27.832 Y37.834
X28.048 Y37.834
X28.260 Y37.879
X28.457 Y37.967
X28.632 Y38.094
X28.776 Y38.254
X28.884 Y38.442
X28.951 Y38.647
X28.974 Y38.862
X28.951 Y39.077
X28.884 Y39.282
X28.776 Y39.470
X28.632 Y39.630
X28.457 Y39.757
X28.260 Y39.845
X28.048 Y39.890
X27.832 Y39.890
G0 Z3.000
G0  X30.372 Y37.350
G0  Z3.000
G01 F400 Z0
G01 F400 Z-0.100
G01F400X30.161 Y37.305
X29.963 Y37.217
X29.788 Y37.090
X29.644 Y36.930
X29.536 Y36.742
X29.469 Y36.537
X29.446 Y36.322
X29.469 Y36.107
X29.536 Y35.901
X29.644 Y35.714
X29.788 Y35.554
X29.963 Y35.427
X30.161 Y35.339
X30.372 Y35.294
X30.588 Y35.294
X30.800 Y35.339
X30.997 Y35.427
X31.172 Y35.554
X31.316 Y35.714
X31.424 Y35.901
X31.491 Y36.107
X31.514 Y36.322
X31.491 Y36.537
X31.424 Y36.742
X31.316 Y36.930
X31.172 Y37.090
X30.997 Y37.217
X30.800 Y37.305
X30.588 Y37.350
X30.372 Y37.350
G0 Z3.000
G0  X27.832 Y37.350
G0  Z3.000
G01 F400 Z0
G01 F400 Z-0.100
G01F400X27.620 Y37.305
X27.423 Y37.217
X27.248 Y37.090
X27.104 Y36.930
X26.996 Y36.742
X26.929 Y36.537
X26.906 Y36.322
X26.929 Y36.107
X26.996 Y35.901
X27.104 Y35.714
X27.248 Y35.554
X27.423 Y35.427
X27.620 Y35.339
X27.832 Y35.294
X28.048 Y35.294
X28.260 Y35.339
X28.457 Y35.427
X28.632 Y35.554
X28.776 Y35.714
X28.884 Y35.901
X28.951 Y36.107
X28.974 Y36.322
X28.951 Y36.537
X28.884 Y36.742
X28.776 Y36.930
X28.632 Y37.090
X28.457 Y37.217
X28.260 Y37.305
X28.048 Y37.350
X27.832 Y37.350
G0 Z3.000
G0  X30.372 Y34.810
G0  Z3.000
G01 F400 Z0
G01 F400 Z-0.100
G01F400X30.161 Y34.765
X29.963 Y34.677
X29.788 Y34.550
X29.644 Y34.390
X29.536 Y34.203
X29.469 Y33.997
X29.446 Y33.782
X29.469 Y33.567
X29.536 Y33.361
X29.644 Y33.174
X29.788 Y33.014
X29.963 Y32.887
X30.161 Y32.799
X30.372 Y32.754
X30.588 Y32.754
X30.800 Y32.799
X30.997 Y32.887
X31.172 Y33.014
X31.316 Y33.174
X31.424 Y33.361
X31.491 Y33.567
X31.514 Y33.782
X31.491 Y33.997
X31.424 Y34.203
X31.316 Y34.390
X31.172 Y34.550
X30.997 Y34.677
X30.800 Y34.765
X30.588 Y34.810
X30.372 Y34.810
G0 Z3.000
G0  X27.832 Y34.810
G0  Z3.000
G01 F400 Z0
G01 F400 Z-0.100
G01F400X27.620 Y34.765
X27.423 Y34.677
X27.248 Y34.550
X27.104 Y34.390
X26.996 Y34.203
X26.929 Y33.997
X26.906 Y33.782
X26.929 Y33.567
X26.996 Y33.361
X27.104 Y33.174
X27.248 Y33.014
X27.423 Y32.887
X27.620 Y32.799
X27.832 Y32.754
X28.048 Y32.754
X28.260 Y32.799
X28.457 Y32.887
X28.632 Y33.014
X28.776 Y33.174
X28.884 Y33.361
X28.951 Y33.567
X28.974 Y33.782
X28.951 Y33.997
X28.884 Y34.203
X28.776 Y34.390
X28.632 Y34.550
X28.457 Y34.677
X28.260 Y34.765
X28.048 Y34.810
X27.832 Y34.810
G0 Z3.000
G0  X30.372 Y32.270
G0  Z3.000
G01 F400 Z0
G01 F400 Z-0.100
G01F400X30.161 Y32.225
X29.963 Y32.137
X29.788 Y32.010
X29.644 Y31.850
X29.536 Y31.663
X29.469 Y31.457
X29.446 Y31.242
X29.469 Y31.027
X29.536 Y30.822
X29.644 Y30.634
X29.788 Y30.474
X29.963 Y30.347
X30.161 Y30.259
X30.372 Y30.214
X30.588 Y30.214
X30.800 Y30.259
X30.997 Y30.347
X31.172 Y30.474
X31.316 Y30.634
X31.424 Y30.822
X31.491 Y31.027
X31.514 Y31.242
X31.491 Y31.457
X31.424 Y31.663
X31.316 Y31.850
X31.172 Y32.010
X30.997 Y32.137
X30.800 Y32.225
X30.588 Y32.270
X30.372 Y32.270
G0 Z3.000
G0  X27.832 Y32.270
G0  Z3.000
G01 F400 Z0
G01 F400 Z-0.100
G01F400X27.620 Y32.225
X27.423 Y32.137
X27.248 Y32.010
X27.104 Y31.850
X26.996 Y31.663
X26.929 Y31.457
X26.906 Y31.242
X26.929 Y31.027
X26.996 Y30.822
X27.104 Y30.634
X27.248 Y30.474
X27.423 Y30.347
X27.620 Y30.259
X27.832 Y30.214
X28.048 Y30.214
X28.260 Y30.259
X28.457 Y30.347
X28.632 Y30.474
X28.776 Y30.634
X28.884 Y30.822
X28.951 Y31.027
X28.974 Y31.242
X28.951 Y31.457
X28.884 Y31.663
X28.776 Y31.850
X28.632 Y32.010
X28.457 Y32.137
X28.260 Y32.225
X28.048 Y32.270
X27.832 Y32.270
G0 Z3.000
G0  X30.372 Y29.756
G0  Z3.000
G01 F400 Z0
G01 F400 Z-0.100
G01F400X30.161 Y29.711
X29.963 Y29.623
X29.788 Y29.496
X29.644 Y29.335
X29.536 Y29.148
X29.469 Y28.942
X29.446 Y28.727
X29.469 Y28.513
X29.536 Y28.307
X29.644 Y28.120
X29.788 Y27.959
X29.963 Y27.832
X30.161 Y27.744
X30.372 Y27.699
X30.588 Y27.699
X30.800 Y27.744
X30.997 Y27.832
X31.172 Y27.959
X31.316 Y28.120
X31.424 Y28.307
X31.491 Y28.513
X31.514 Y28.727
X31.491 Y28.942
X31.424 Y29.148
X31.316 Y29.335
X31.172 Y29.496
X30.997 Y29.623
X30.800 Y29.711
X30.588 Y29.756
X30.372 Y29.756
G0 Z3.000
G0  X27.832 Y29.756
G0  Z3.000
G01 F400 Z0
G01 F400 Z-0.100
G01F400X27.620 Y29.711
X27.423 Y29.623
X27.248 Y29.496
X27.104 Y29.335
X26.996 Y29.148
X26.929 Y28.942
X26.906 Y28.727
X26.929 Y28.513
X26.996 Y28.307
X27.104 Y28.120
X27.248 Y27.959
X27.423 Y27.832
X27.620 Y27.744
X27.832 Y27.699
X28.048 Y27.699
X28.260 Y27.744
X28.457 Y27.832
X28.632 Y27.959
X28.776 Y28.120
X28.884 Y28.307
X28.951 Y28.513
X28.974 Y28.727
X28.951 Y28.942
X28.884 Y29.148
X28.776 Y29.335
X28.632 Y29.496
X28.457 Y29.623
X28.260 Y29.711
X28.048 Y29.756
X27.832 Y29.756
G0 Z3.000
G0  X30.372 Y27.190
G0  Z3.000
G01 F400 Z0
G01 F400 Z-0.100
G01F400X30.161 Y27.145
X29.963 Y27.057
X29.788 Y26.930
X29.644 Y26.770
X29.536 Y26.582
X29.469 Y26.377
X29.446 Y26.162
X29.469 Y25.947
X29.536 Y25.742
X29.644 Y25.554
X29.788 Y25.394
X29.963 Y25.267
X30.161 Y25.179
X30.372 Y25.134
X30.588 Y25.134
X30.800 Y25.179
X30.997 Y25.267
X31.172 Y25.394
X31.316 Y25.554
X31.424 Y25.742
X31.491 Y25.947
X31.514 Y26.162
X31.491 Y26.377
X31.424 Y26.582
X31.316 Y26.770
X31.172 Y26.930
X30.997 Y27.057
X30.800 Y27.145
X30.588 Y27.190
X30.372 Y27.190
G0 Z3.000
G0  X27.832 Y27.190
G0  Z3.000
G01 F400 Z0
G01 F400 Z-0.100
G01F400X27.620 Y27.145
X27.423 Y27.057
X27.248 Y26.930
X27.104 Y26.770
X26.996 Y26.582
X26.929 Y26.377
X26.906 Y26.162
X26.929 Y25.947
X26.996 Y25.742
X27.104 Y25.554
X27.248 Y25.394
X27.423 Y25.267
X27.620 Y25.179
X27.832 Y25.134
X28.048 Y25.134
X28.260 Y25.179
X28.457 Y25.267
X28.632 Y25.394
X28.776 Y25.554
X28.884 Y25.742
X28.951 Y25.947
X28.974 Y26.162
X28.951 Y26.377
X28.884 Y26.582
X28.776 Y26.770
X28.632 Y26.930
X28.457 Y27.057
X28.260 Y27.145
X28.048 Y27.190
X27.832 Y27.190
G0 Z3.000
G0  X30.372 Y24.650
G0  Z3.000
G01 F400 Z0
G01 F400 Z-0.100
G01F400X30.161 Y24.605
X29.963 Y24.517
X29.788 Y24.390
X29.644 Y24.230
X29.536 Y24.043
X29.469 Y23.837
X29.446 Y23.622
X29.469 Y23.407
X29.536 Y23.201
X29.644 Y23.014
X29.788 Y22.854
X29.963 Y22.727
X30.161 Y22.639
X30.372 Y22.594
X30.588 Y22.594
X30.800 Y22.639
X30.997 Y22.727
X31.172 Y22.854
X31.316 Y23.014
X31.424 Y23.201
X31.491 Y23.407
X31.514 Y23.622
X31.491 Y23.837
X31.424 Y24.043
X31.316 Y24.230
X31.172 Y24.390
X30.997 Y24.517
X30.800 Y24.605
X30.588 Y24.650
X30.372 Y24.650
G0 Z3.000
G0  X27.832 Y24.650
G0  Z3.000
G01 F400 Z0
G01 F400 Z-0.100
G01F400X27.620 Y24.605
X27.423 Y24.517
X27.248 Y24.390
X27.104 Y24.230
X26.996 Y24.043
X26.929 Y23.837
X26.906 Y23.622
X26.929 Y23.407
X26.996 Y23.201
X27.104 Y23.014
X27.248 Y22.854
X27.423 Y22.727
X27.620 Y22.639
X27.832 Y22.594
X28.048 Y22.594
X28.260 Y22.639
X28.457 Y22.727
X28.632 Y22.854
X28.776 Y23.014
X28.884 Y23.201
X28.951 Y23.407
X28.974 Y23.622
X28.951 Y23.837
X28.884 Y24.043
X28.776 Y24.230
X28.632 Y24.390
X28.457 Y24.517
X28.260 Y24.605
X28.048 Y24.650
X27.832 Y24.650
G0 Z3.000
G0  X30.372 Y22.110
G0  Z3.000
G01 F400 Z0
G01 F400 Z-0.100
G01F400X30.161 Y22.065
X29.963 Y21.977
X29.788 Y21.850
X29.644 Y21.690
X29.536 Y21.503
X29.469 Y21.297
X29.446 Y21.082
X29.469 Y20.867
X29.536 Y20.662
X29.644 Y20.474
X29.788 Y20.314
X29.963 Y20.187
X30.161 Y20.099
X30.372 Y20.054
X30.588 Y20.054
X30.800 Y20.099
X30.997 Y20.187
X31.172 Y20.314
X31.316 Y20.474
X31.424 Y20.662
X31.491 Y20.867
X31.514 Y21.082
X31.491 Y21.297
X31.424 Y21.503
X31.316 Y21.690
X31.172 Y21.850
X30.997 Y21.977
X30.800 Y22.065
X30.588 Y22.110
X30.372 Y22.110
G0 Z3.000
G0  X27.832 Y22.110
G0  Z3.000
G01 F400 Z0
G01 F400 Z-0.100
G01F400X27.620 Y22.065
X27.423 Y21.977
X27.248 Y21.850
X27.104 Y21.690
X26.996 Y21.503
X26.929 Y21.297
X26.906 Y21.082
X26.929 Y20.867
X26.996 Y20.662
X27.104 Y20.474
X27.248 Y20.314
X27.423 Y20.187
X27.620 Y20.099
X27.832 Y20.054
X28.048 Y20.054
X28.260 Y20.099
X28.457 Y20.187
X28.632 Y20.314
X28.776 Y20.474
X28.884 Y20.662
X28.951 Y20.867
X28.974 Y21.082
X28.951 Y21.297
X28.884 Y21.503
X28.776 Y21.690
X28.632 Y21.850
X28.457 Y21.977
X28.260 Y22.065
X28.048 Y22.110
X27.832 Y22.110
G0 Z3.000
G0  X15.173 Y97.919
G0  Z3.000
G01 F400 Z0
G01 F400 Z-0.100
G01F400X15.042 Y97.891
X14.920 Y97.837
X14.811 Y97.758
X14.722 Y97.659
X14.655 Y97.543
X14.613 Y97.415
X14.599 Y97.282
X14.613 Y97.149
X14.655 Y97.021
X14.722 Y96.905
X14.797 Y96.822
X14.795 Y96.807
X14.795 Y13.934
X14.797 Y13.922
X14.722 Y13.839
X14.655 Y13.723
X14.613 Y13.595
X14.599 Y13.462
X14.613 Y13.329
X14.655 Y13.201
X14.722 Y13.085
X14.811 Y12.986
X14.920 Y12.907
X15.042 Y12.853
X15.173 Y12.825
X15.307 Y12.825
X15.438 Y12.853
X15.560 Y12.907
X15.669 Y12.986
X15.699 Y13.019
X55.422 Y13.019
X55.451 Y12.986
X55.560 Y12.907
X55.682 Y12.853
X55.813 Y12.825
X55.947 Y12.825
X56.078 Y12.853
X56.200 Y12.907
X56.309 Y12.986
X56.398 Y13.085
X56.465 Y13.201
X56.507 Y13.329
X56.521 Y13.462
X56.507 Y13.595
X56.465 Y13.723
X56.398 Y13.839
X56.323 Y13.922
X56.325 Y13.937
X56.325 Y96.810
X56.323 Y96.822
X56.398 Y96.905
X56.465 Y97.021
X56.507 Y97.149
X56.521 Y97.282
X56.507 Y97.415
X56.465 Y97.543
X56.398 Y97.659
X56.309 Y97.758
X56.200 Y97.837
X56.078 Y97.891
X55.947 Y97.919
X55.813 Y97.919
X55.682 Y97.891
X55.560 Y97.837
X55.451 Y97.758
X55.422 Y97.725
X15.699 Y97.725
X15.669 Y97.758
X15.560 Y97.837
X15.438 Y97.891
X15.307 Y97.919
X15.173 Y97.919
G0 Z3.000
G0  X15.699 Y96.839
G0  Z3.000
G01 F400 Z0
G01 F400 Z-0.100
G01F400X55.422 Y96.839
X55.437 Y96.822
X55.435 Y96.807
X55.435 Y13.934
X55.437 Y13.922
X55.422 Y13.905
X15.699 Y13.905
X15.683 Y13.922
X15.685 Y13.937
X15.685 Y96.810
X15.683 Y96.822
X15.699 Y96.839
G0 Z3.000
G0  X31.889 Y95.873
G0  Z3.000
G01 F400 Z0
G01 F400 Z-0.100
G01F400X31.889 Y93.611
X34.151 Y93.611
X34.151 Y94.296
X40.170 Y94.251
X40.170 Y59.200
X40.179 Y59.115
X40.208 Y59.026
X40.254 Y58.946
X40.317 Y58.876
X40.392 Y58.822
X40.477 Y58.784
X40.568 Y58.764
X49.815 Y58.739
X49.926 Y58.547
X50.077 Y58.379
X50.260 Y58.246
X50.466 Y58.154
X50.687 Y58.107
X50.913 Y58.107
X51.134 Y58.154
X51.340 Y58.246
X51.523 Y58.379
X51.674 Y58.547
X51.787 Y58.742
X51.857 Y58.957
X51.881 Y59.182
X51.857 Y59.407
X51.787 Y59.622
X51.674 Y59.817
X51.523 Y59.985
X51.340 Y60.118
X51.134 Y60.210
X50.913 Y60.257
X50.687 Y60.257
X50.466 Y60.210
X50.260 Y60.118
X50.077 Y59.985
X49.926 Y59.817
X49.815 Y59.626
X41.059 Y59.650
X41.059 Y94.699
X41.050 Y94.784
X41.022 Y94.872
X40.975 Y94.953
X40.913 Y95.022
X40.837 Y95.077
X40.752 Y95.115
X40.662 Y95.134
X34.151 Y95.183
X34.151 Y95.873
X31.889 Y95.873
G0 Z3.000
G0  X32.902 Y93.327
G0  Z3.000
G01 F400 Z0
G01 F400 Z-0.100
G01F400X32.670 Y93.278
X32.454 Y93.182
X32.263 Y93.043
X32.105 Y92.867
X31.986 Y92.662
X31.981 Y92.646
X22.841 Y92.671
X22.763 Y92.671
X22.672 Y92.651
X22.587 Y92.613
X22.511 Y92.559
X22.449 Y92.489
X22.402 Y92.409
X22.373 Y92.320
X22.364 Y92.235
X22.364 Y64.770
X21.306 Y64.739
X21.209 Y64.908
X21.055 Y65.079
X20.869 Y65.214
X20.660 Y65.307
X20.435 Y65.355
X20.205 Y65.355
X19.980 Y65.307
X19.771 Y65.214
X19.585 Y65.079
X19.431 Y64.908
X19.316 Y64.709
X19.245 Y64.490
X19.221 Y64.262
X19.245 Y64.034
X19.316 Y63.815
X19.431 Y63.616
X19.585 Y63.446
X19.771 Y63.310
X19.980 Y63.217
X20.205 Y63.169
X20.435 Y63.169
X20.660 Y63.217
X20.869 Y63.310
X21.055 Y63.446
X21.209 Y63.616
X21.324 Y63.815
X21.336 Y63.851
X22.825 Y63.895
X26.899 Y63.847
X26.913 Y63.805
X27.030 Y63.601
X27.188 Y63.426
X27.378 Y63.288
X27.593 Y63.193
X27.822 Y63.144
X28.058 Y63.144
X28.288 Y63.193
X28.502 Y63.288
X28.692 Y63.426
X28.850 Y63.601
X28.967 Y63.805
X29.040 Y64.028
X29.064 Y64.262
X29.040 Y64.496
X28.967 Y64.719
X28.850 Y64.923
X28.692 Y65.098
X28.502 Y65.236
X28.288 Y65.331
X28.058 Y65.380
X27.822 Y65.380
X27.593 Y65.331
X27.378 Y65.236
X27.188 Y65.098
X27.030 Y64.923
X26.921 Y64.734
X23.254 Y64.776
X23.254 Y91.783
X31.981 Y91.760
X31.986 Y91.742
X32.105 Y91.537
X32.263 Y91.361
X32.454 Y91.222
X32.670 Y91.126
X32.902 Y91.077
X33.138 Y91.077
X33.370 Y91.126
X33.586 Y91.222
X33.777 Y91.361
X33.935 Y91.537
X34.054 Y91.742
X34.127 Y91.967
X34.151 Y92.202
X34.127 Y92.437
X34.054 Y92.662
X33.935 Y92.867
X33.777 Y93.043
X33.586 Y93.182
X33.370 Y93.278
X33.138 Y93.327
X32.902 Y93.327
G0 Z3.000
G0  X32.902 Y90.787
G0  Z3.000
G01 F400 Z0
G01 F400 Z-0.100
G01F400X32.670 Y90.738
X32.454 Y90.642
X32.263 Y90.503
X32.105 Y90.327
X31.986 Y90.122
X31.913 Y89.897
X31.889 Y89.662
X31.913 Y89.427
X31.986 Y89.202
X32.105 Y88.997
X32.263 Y88.821
X32.454 Y88.682
X32.670 Y88.586
X32.902 Y88.537
X33.138 Y88.537
X33.370 Y88.586
X33.586 Y88.682
X33.777 Y88.821
X33.935 Y88.997
X34.054 Y89.202
X34.127 Y89.427
X34.151 Y89.662
X34.127 Y89.897
X34.054 Y90.122
X33.935 Y90.327
X33.777 Y90.503
X33.586 Y90.642
X33.370 Y90.738
X33.138 Y90.787
X32.902 Y90.787
G0 Z3.000
G0  X32.902 Y88.247
G0  Z3.000
G01 F400 Z0
G01 F400 Z-0.100
G01F400X32.670 Y88.198
X32.454 Y88.102
X32.263 Y87.963
X32.105 Y87.787
X31.986 Y87.582
X31.913 Y87.357
X31.889 Y87.122
X31.913 Y86.887
X31.986 Y86.662
X32.105 Y86.457
X32.263 Y86.281
X32.454 Y86.142
X32.670 Y86.046
X32.902 Y85.997
X33.138 Y85.997
X33.370 Y86.046
X33.586 Y86.142
X33.777 Y86.281
X33.935 Y86.457
X34.054 Y86.662
X34.127 Y86.887
X34.151 Y87.122
X34.127 Y87.357
X34.054 Y87.582
X33.935 Y87.787
X33.777 Y87.963
X33.586 Y88.102
X33.370 Y88.198
X33.138 Y88.247
X32.902 Y88.247
G0 Z3.000
G0  X32.902 Y85.707
G0  Z3.000
G01 F400 Z0
G01 F400 Z-0.100
G01F400X32.670 Y85.658
X32.454 Y85.562
X32.263 Y85.423
X32.105 Y85.247
X31.986 Y85.042
X31.913 Y84.817
X31.889 Y84.582
X31.913 Y84.347
X31.986 Y84.122
X32.105 Y83.917
X32.263 Y83.741
X32.454 Y83.602
X32.670 Y83.506
X32.902 Y83.457
X33.138 Y83.457
X33.370 Y83.506
X33.586 Y83.602
X33.777 Y83.741
X33.935 Y83.917
X34.054 Y84.122
X34.127 Y84.347
X34.151 Y84.582
X34.127 Y84.817
X34.054 Y85.042
X33.935 Y85.247
X33.777 Y85.423
X33.586 Y85.562
X33.370 Y85.658
X33.138 Y85.707
X32.902 Y85.707
G0 Z3.000
G0  X32.902 Y83.167
G0  Z3.000
G01 F400 Z0
G01 F400 Z-0.100
G01F400X32.670 Y83.118
X32.454 Y83.022
X32.263 Y82.883
X32.105 Y82.707
X31.986 Y82.502
X31.913 Y82.277
X31.889 Y82.042
X31.913 Y81.807
X31.986 Y81.582
X32.105 Y81.377
X32.263 Y81.201
X32.454 Y81.062
X32.574 Y81.009
X32.572 Y80.534
X32.454 Y80.482
X32.263 Y80.343
X32.105 Y80.167
X31.986 Y79.962
X31.913 Y79.737
X31.889 Y79.502
X31.913 Y79.267
X31.986 Y79.042
X32.105 Y78.837
X32.263 Y78.661
X32.454 Y78.522
X32.563 Y78.474
X32.501 Y64.750
X31.498 Y64.735
X31.390 Y64.923
X31.232 Y65.098
X31.042 Y65.236
X30.828 Y65.331
X30.598 Y65.380
X30.362 Y65.380
X30.133 Y65.331
X29.918 Y65.236
X29.728 Y65.098
X29.570 Y64.923
X29.453 Y64.719
X29.380 Y64.496
X29.356 Y64.262
X29.380 Y64.028
X29.453 Y63.805
X29.570 Y63.601
X29.728 Y63.426
X29.918 Y63.288
X30.133 Y63.193
X30.362 Y63.144
X30.598 Y63.144
X30.828 Y63.193
X31.042 Y63.288
X31.232 Y63.426
X31.390 Y63.601
X31.507 Y63.805
X31.521 Y63.848
X32.992 Y63.870
X33.081 Y63.889
X33.166 Y63.927
X33.242 Y63.982
X33.304 Y64.051
X33.351 Y64.132
X33.380 Y64.220
X33.389 Y64.305
X33.466 Y78.469
X33.586 Y78.522
X33.777 Y78.661
X33.935 Y78.837
X34.054 Y79.042
X34.127 Y79.267
X34.151 Y79.502
X34.127 Y79.737
X34.054 Y79.962
X33.935 Y80.167
X33.777 Y80.343
X33.585 Y80.482
X33.462 Y80.536
X33.465 Y81.009
X33.586 Y81.062
X33.777 Y81.201
X33.935 Y81.377
X34.054 Y81.582
X34.127 Y81.807
X34.151 Y82.042
X34.127 Y82.277
X34.054 Y82.502
X33.935 Y82.707
X33.777 Y82.883
X33.586 Y83.022
X33.370 Y83.118
X33.138 Y83.167
X32.902 Y83.167
G0 Z3.000
G0  X50.687 Y75.497
G0  Z3.000
G01 F400 Z0
G01 F400 Z-0.100
G01F400X50.466 Y75.450
X50.260 Y75.358
X50.077 Y75.225
X49.926 Y75.057
X49.813 Y74.862
X49.743 Y74.647
X49.719 Y74.422
X49.743 Y74.197
X49.813 Y73.983
X49.926 Y73.787
X50.077 Y73.619
X50.260 Y73.486
X50.466 Y73.394
X50.687 Y73.347
X50.913 Y73.347
X51.134 Y73.394
X51.340 Y73.486
X51.523 Y73.619
X51.674 Y73.787
X51.787 Y73.983
X51.857 Y74.197
X51.881 Y74.422
X51.857 Y74.647
X51.787 Y74.862
X51.674 Y75.057
X51.523 Y75.225
X51.340 Y75.358
X51.134 Y75.450
X50.913 Y75.497
X50.687 Y75.497
G0 Z3.000
G0  X50.687 Y72.957
G0  Z3.000
G01 F400 Z0
G01 F400 Z-0.100
G01F400X50.466 Y72.910
X50.260 Y72.818
X50.077 Y72.685
X49.926 Y72.517
X49.813 Y72.322
X49.743 Y72.107
X49.719 Y71.882
X49.743 Y71.657
X49.813 Y71.443
X49.926 Y71.247
X50.077 Y71.079
X50.260 Y70.946
X50.466 Y70.854
X50.687 Y70.807
X50.913 Y70.807
X51.134 Y70.854
X51.340 Y70.946
X51.523 Y71.079
X51.674 Y71.247
X51.787 Y71.443
X51.857 Y71.657
X51.881 Y71.882
X51.857 Y72.107
X51.787 Y72.322
X51.674 Y72.517
X51.523 Y72.685
X51.340 Y72.818
X51.134 Y72.910
X50.913 Y72.957
X50.687 Y72.957
G0 Z3.000
G0  X30.362 Y70.460
G0  Z3.000
G01 F400 Z0
G01 F400 Z-0.100
G01F400X30.133 Y70.411
X29.918 Y70.316
X29.728 Y70.178
X29.570 Y70.003
X29.453 Y69.799
X29.380 Y69.576
X29.356 Y69.342
X29.380 Y69.108
X29.453 Y68.885
X29.570 Y68.681
X29.728 Y68.506
X29.918 Y68.368
X30.133 Y68.273
X30.362 Y68.224
X30.598 Y68.224
X30.828 Y68.273
X31.042 Y68.368
X31.232 Y68.506
X31.390 Y68.681
X31.507 Y68.885
X31.580 Y69.108
X31.604 Y69.342
X31.580 Y69.576
X31.507 Y69.799
X31.390 Y70.003
X31.232 Y70.178
X31.042 Y70.316
X30.828 Y70.411
X30.598 Y70.460
X30.362 Y70.460
G0 Z3.000
G0  X27.822 Y70.460
G0  Z3.000
G01 F400 Z0
G01 F400 Z-0.100
G01F400X27.593 Y70.411
X27.378 Y70.316
X27.188 Y70.178
X27.030 Y70.003
X26.913 Y69.799
X26.840 Y69.576
X26.816 Y69.342
X26.840 Y69.108
X26.913 Y68.885
X27.030 Y68.681
X27.188 Y68.506
X27.378 Y68.368
X27.593 Y68.273
X27.822 Y68.224
X28.058 Y68.224
X28.288 Y68.273
X28.502 Y68.368
X28.692 Y68.506
X28.850 Y68.681
X28.967 Y68.885
X29.040 Y69.108
X29.064 Y69.342
X29.040 Y69.576
X28.967 Y69.799
X28.850 Y70.003
X28.692 Y70.178
X28.502 Y70.316
X28.288 Y70.411
X28.058 Y70.460
X27.822 Y70.460
G0 Z3.000
G0  X20.205 Y70.435
G0  Z3.000
G01 F400 Z0
G01 F400 Z-0.100
G01F400X19.980 Y70.387
X19.771 Y70.294
X19.585 Y70.159
X19.431 Y69.988
X19.316 Y69.789
X19.245 Y69.570
X19.221 Y69.342
X19.245 Y69.114
X19.316 Y68.895
X19.431 Y68.696
X19.585 Y68.526
X19.771 Y68.390
X19.980 Y68.297
X20.205 Y68.249
X20.435 Y68.249
X20.660 Y68.297
X20.869 Y68.390
X21.055 Y68.526
X21.209 Y68.696
X21.324 Y68.895
X21.395 Y69.114
X21.419 Y69.342
X21.395 Y69.570
X21.324 Y69.789
X21.209 Y69.988
X21.055 Y70.159
X20.869 Y70.294
X20.660 Y70.387
X20.435 Y70.435
X20.205 Y70.435
G0 Z3.000
G0  X50.687 Y70.417
G0  Z3.000
G01 F400 Z0
G01 F400 Z-0.100
G01F400X50.466 Y70.370
X50.260 Y70.278
X50.077 Y70.145
X49.926 Y69.977
X49.813 Y69.782
X49.743 Y69.567
X49.719 Y69.342
X49.743 Y69.117
X49.813 Y68.903
X49.926 Y68.707
X50.077 Y68.539
X50.260 Y68.406
X50.466 Y68.314
X50.687 Y68.267
X50.913 Y68.267
X51.134 Y68.314
X51.340 Y68.406
X51.523 Y68.539
X51.674 Y68.707
X51.787 Y68.903
X51.857 Y69.117
X51.881 Y69.342
X51.857 Y69.567
X51.787 Y69.782
X51.674 Y69.977
X51.523 Y70.145
X51.340 Y70.278
X51.134 Y70.370
X50.913 Y70.417
X50.687 Y70.417
G0 Z3.000
G0  X30.362 Y67.920
G0  Z3.000
G01 F400 Z0
G01 F400 Z-0.100
G01F400X30.133 Y67.871
X29.918 Y67.776
X29.728 Y67.638
X29.570 Y67.463
X29.453 Y67.259
X29.380 Y67.036
X29.356 Y66.802
X29.380 Y66.568
X29.453 Y66.345
X29.570 Y66.141
X29.728 Y65.966
X29.918 Y65.828
X30.133 Y65.733
X30.362 Y65.684
X30.598 Y65.684
X30.828 Y65.733
X31.042 Y65.828
X31.232 Y65.966
X31.390 Y66.141
X31.507 Y66.345
X31.580 Y66.568
X31.604 Y66.802
X31.580 Y67.036
X31.507 Y67.259
X31.390 Y67.463
X31.232 Y67.638
X31.042 Y67.776
X30.828 Y67.871
X30.598 Y67.920
X30.362 Y67.920
G0 Z3.000
G0  X27.822 Y67.920
G0  Z3.000
G01 F400 Z0
G01 F400 Z-0.100
G01F400X27.593 Y67.871
X27.378 Y67.776
X27.188 Y67.638
X27.030 Y67.463
X26.913 Y67.259
X26.840 Y67.036
X26.816 Y66.802
X26.840 Y66.568
X26.913 Y66.345
X27.030 Y66.141
X27.188 Y65.966
X27.378 Y65.828
X27.593 Y65.733
X27.822 Y65.684
X28.058 Y65.684
X28.288 Y65.733
X28.502 Y65.828
X28.692 Y65.966
X28.850 Y66.141
X28.967 Y66.345
X29.040 Y66.568
X29.064 Y66.802
X29.040 Y67.036
X28.967 Y67.259
X28.850 Y67.463
X28.692 Y67.638
X28.502 Y67.776
X28.288 Y67.871
X28.058 Y67.920
X27.822 Y67.920
G0 Z3.000
G0  X50.687 Y67.877
G0  Z3.000
G01 F400 Z0
G01 F400 Z-0.100
G01F400X50.466 Y67.830
X50.260 Y67.738
X50.077 Y67.605
X49.926 Y67.437
X49.813 Y67.242
X49.743 Y67.027
X49.719 Y66.802
X49.743 Y66.577
X49.813 Y66.362
X49.926 Y66.167
X50.077 Y65.999
X50.260 Y65.866
X50.466 Y65.774
X50.687 Y65.727
X50.913 Y65.727
X51.134 Y65.774
X51.340 Y65.866
X51.523 Y65.999
X51.674 Y66.167
X51.787 Y66.362
X51.857 Y66.577
X51.881 Y66.802
X51.857 Y67.027
X51.787 Y67.242
X51.674 Y67.437
X51.523 Y67.605
X51.340 Y67.738
X51.134 Y67.830
X50.913 Y67.877
X50.687 Y67.877
G0 Z3.000
G0  X50.687 Y65.337
G0  Z3.000
G01 F400 Z0
G01 F400 Z-0.100
G01F400X50.466 Y65.290
X50.260 Y65.198
X50.077 Y65.065
X49.926 Y64.897
X49.813 Y64.702
X49.743 Y64.487
X49.719 Y64.262
X49.743 Y64.037
X49.813 Y63.823
X49.926 Y63.627
X50.077 Y63.459
X50.260 Y63.326
X50.466 Y63.234
X50.687 Y63.187
X50.913 Y63.187
X51.134 Y63.234
X51.340 Y63.326
X51.523 Y63.459
X51.674 Y63.627
X51.787 Y63.823
X51.857 Y64.037
X51.881 Y64.262
X51.857 Y64.487
X51.787 Y64.702
X51.674 Y64.897
X51.523 Y65.065
X51.340 Y65.198
X51.134 Y65.290
X50.913 Y65.337
X50.687 Y65.337
G0 Z3.000
G0  X30.362 Y62.840
G0  Z3.000
G01 F400 Z0
G01 F400 Z-0.100
G01F400X30.133 Y62.791
X29.918 Y62.696
X29.728 Y62.558
X29.570 Y62.383
X29.453 Y62.179
X29.380 Y61.956
X29.356 Y61.722
X29.380 Y61.488
X29.453 Y61.265
X29.570 Y61.061
X29.728 Y60.886
X29.918 Y60.748
X30.133 Y60.653
X30.362 Y60.604
X30.598 Y60.604
X30.828 Y60.653
X31.042 Y60.748
X31.232 Y60.886
X31.390 Y61.061
X31.507 Y61.265
X31.580 Y61.488
X31.604 Y61.722
X31.580 Y61.956
X31.507 Y62.179
X31.390 Y62.383
X31.232 Y62.558
X31.042 Y62.696
X30.828 Y62.791
X30.598 Y62.840
X30.362 Y62.840
G0 Z3.000
G0  X27.822 Y62.840
G0  Z3.000
G01 F400 Z0
G01 F400 Z-0.100
G01F400X27.593 Y62.791
X27.378 Y62.696
X27.188 Y62.558
X27.030 Y62.383
X26.913 Y62.179
X26.840 Y61.956
X26.816 Y61.722
X26.840 Y61.488
X26.913 Y61.265
X27.030 Y61.061
X27.188 Y60.886
X27.378 Y60.748
X27.593 Y60.653
X27.822 Y60.604
X28.058 Y60.604
X28.288 Y60.653
X28.502 Y60.748
X28.692 Y60.886
X28.850 Y61.061
X28.967 Y61.265
X29.040 Y61.488
X29.064 Y61.722
X29.040 Y61.956
X28.967 Y62.179
X28.850 Y62.383
X28.692 Y62.558
X28.502 Y62.696
X28.288 Y62.791
X28.058 Y62.840
X27.822 Y62.840
G0 Z3.000
G0  X50.687 Y62.797
G0  Z3.000
G01 F400 Z0
G01 F400 Z-0.100
G01F400X50.466 Y62.750
X50.260 Y62.658
X50.077 Y62.525
X49.926 Y62.357
X49.813 Y62.162
X49.743 Y61.947
X49.719 Y61.722
X49.743 Y61.497
X49.813 Y61.283
X49.926 Y61.087
X50.077 Y60.919
X50.260 Y60.786
X50.466 Y60.694
X50.687 Y60.647
X50.913 Y60.647
X51.134 Y60.694
X51.340 Y60.786
X51.523 Y60.919
X51.674 Y61.087
X51.787 Y61.283
X51.857 Y61.497
X51.881 Y61.722
X51.857 Y61.947
X51.787 Y62.162
X51.674 Y62.357
X51.523 Y62.525
X51.340 Y62.658
X51.134 Y62.750
X50.913 Y62.797
X50.687 Y62.797
G0 Z3.000
G0  X30.362 Y60.300
G0  Z3.000
G01 F400 Z0
G01 F400 Z-0.100
G01F400X30.133 Y60.251
X29.918 Y60.156
X29.728 Y60.018
X29.570 Y59.843
X29.453 Y59.639
X29.380 Y59.416
X29.356 Y59.182
X29.380 Y58.948
X29.453 Y58.725
X29.570 Y58.521
X29.728 Y58.346
X29.918 Y58.208
X30.133 Y58.113
X30.362 Y58.064
X30.598 Y58.064
X30.828 Y58.113
X31.042 Y58.208
X31.232 Y58.346
X31.390 Y58.521
X31.507 Y58.725
X31.580 Y58.948
X31.604 Y59.182
X31.580 Y59.416
X31.507 Y59.639
X31.390 Y59.843
X31.232 Y60.018
X31.042 Y60.156
X30.828 Y60.251
X30.598 Y60.300
X30.362 Y60.300
G0 Z3.000
G0  X27.822 Y60.300
G0  Z3.000
G01 F400 Z0
G01 F400 Z-0.100
G01F400X27.593 Y60.251
X27.378 Y60.156
X27.188 Y60.018
X27.030 Y59.843
X26.913 Y59.639
X26.840 Y59.416
X26.816 Y59.182
X26.840 Y58.948
X26.913 Y58.725
X27.030 Y58.521
X27.188 Y58.346
X27.378 Y58.208
X27.593 Y58.113
X27.822 Y58.064
X28.058 Y58.064
X28.288 Y58.113
X28.502 Y58.208
X28.692 Y58.346
X28.850 Y58.521
X28.967 Y58.725
X29.040 Y58.948
X29.064 Y59.182
X29.040 Y59.416
X28.967 Y59.639
X28.850 Y59.843
X28.692 Y60.018
X28.502 Y60.156
X28.288 Y60.251
X28.058 Y60.300
X27.822 Y60.300
G0 Z3.000
G0  X30.362 Y57.760
G0  Z3.000
G01 F400 Z0
G01 F400 Z-0.100
G01F400X30.133 Y57.711
X29.918 Y57.616
X29.728 Y57.478
X29.570 Y57.303
X29.453 Y57.099
X29.380 Y56.876
X29.356 Y56.642
X29.380 Y56.408
X29.453 Y56.185
X29.570 Y55.981
X29.728 Y55.806
X29.918 Y55.668
X30.133 Y55.573
X30.362 Y55.524
X30.598 Y55.524
X30.828 Y55.573
X31.042 Y55.668
X31.232 Y55.806
X31.390 Y55.981
X31.507 Y56.185
X31.580 Y56.408
X31.604 Y56.642
X31.580 Y56.876
X31.507 Y57.099
X31.390 Y57.303
X31.232 Y57.478
X31.042 Y57.616
X30.828 Y57.711
X30.598 Y57.760
X30.362 Y57.760
G0 Z3.000
G0  X27.822 Y57.760
G0  Z3.000
G01 F400 Z0
G01 F400 Z-0.100
G01F400X27.593 Y57.711
X27.378 Y57.616
X27.188 Y57.478
X27.030 Y57.303
X26.913 Y57.099
X26.840 Y56.876
X26.816 Y56.642
X26.840 Y56.408
X26.913 Y56.185
X27.030 Y55.981
X27.188 Y55.806
X27.378 Y55.668
X27.593 Y55.573
X27.822 Y55.524
X28.058 Y55.524
X28.288 Y55.573
X28.502 Y55.668
X28.692 Y55.806
X28.850 Y55.981
X28.967 Y56.185
X29.040 Y56.408
X29.064 Y56.642
X29.040 Y56.876
X28.967 Y57.099
X28.850 Y57.303
X28.692 Y57.478
X28.502 Y57.616
X28.288 Y57.711
X28.058 Y57.760
X27.822 Y57.760
G0 Z3.000
G0  X50.687 Y57.717
G0  Z3.000
G01 F400 Z0
G01 F400 Z-0.100
G01F400X50.466 Y57.670
X50.260 Y57.578
X50.077 Y57.445
X49.926 Y57.277
X49.813 Y57.082
X49.743 Y56.867
X49.719 Y56.642
X49.743 Y56.417
X49.813 Y56.203
X49.926 Y56.007
X50.077 Y55.839
X50.260 Y55.706
X50.466 Y55.614
X50.687 Y55.567
X50.913 Y55.567
X51.134 Y55.614
X51.340 Y55.706
X51.523 Y55.839
X51.674 Y56.007
X51.787 Y56.203
X51.857 Y56.417
X51.881 Y56.642
X51.857 Y56.867
X51.787 Y57.082
X51.674 Y57.277
X51.523 Y57.445
X51.340 Y57.578
X51.134 Y57.670
X50.913 Y57.717
X50.687 Y57.717
G0 Z3.000
G0  X30.362 Y55.220
G0  Z3.000
G01 F400 Z0
G01 F400 Z-0.100
G01F400X30.133 Y55.171
X29.918 Y55.076
X29.728 Y54.938
X29.570 Y54.763
X29.453 Y54.559
X29.380 Y54.336
X29.356 Y54.102
X29.380 Y53.868
X29.453 Y53.645
X29.570 Y53.441
X29.728 Y53.266
X29.918 Y53.128
X30.133 Y53.033
X30.362 Y52.984
X30.598 Y52.984
X30.828 Y53.033
X31.042 Y53.128
X31.232 Y53.266
X31.390 Y53.441
X31.507 Y53.645
X31.580 Y53.868
X31.604 Y54.102
X31.580 Y54.336
X31.507 Y54.559
X31.390 Y54.763
X31.232 Y54.938
X31.042 Y55.076
X30.828 Y55.171
X30.598 Y55.220
X30.362 Y55.220
G0 Z3.000
G0  X27.822 Y55.220
G0  Z3.000
G01 F400 Z0
G01 F400 Z-0.100
G01F400X27.593 Y55.171
X27.378 Y55.076
X27.188 Y54.938
X27.030 Y54.763
X26.913 Y54.559
X26.840 Y54.336
X26.816 Y54.102
X26.840 Y53.868
X26.913 Y53.645
X27.030 Y53.441
X27.188 Y53.266
X27.378 Y53.128
X27.593 Y53.033
X27.822 Y52.984
X28.058 Y52.984
X28.288 Y53.033
X28.502 Y53.128
X28.692 Y53.266
X28.850 Y53.441
X28.967 Y53.645
X29.040 Y53.868
X29.064 Y54.102
X29.040 Y54.336
X28.967 Y54.559
X28.850 Y54.763
X28.692 Y54.938
X28.502 Y55.076
X28.288 Y55.171
X28.058 Y55.220
X27.822 Y55.220
G0 Z3.000
G0  X50.687 Y55.177
G0  Z3.000
G01 F400 Z0
G01 F400 Z-0.100
G01F400X50.466 Y55.130
X50.260 Y55.038
X50.077 Y54.905
X49.926 Y54.737
X49.813 Y54.541
X49.743 Y54.327
X49.719 Y54.102
X49.743 Y53.877
X49.813 Y53.663
X49.926 Y53.467
X50.077 Y53.299
X50.260 Y53.166
X50.466 Y53.074
X50.687 Y53.027
X50.913 Y53.027
X51.134 Y53.074
X51.340 Y53.166
X51.523 Y53.299
X51.674 Y53.467
X51.787 Y53.663
X51.857 Y53.877
X51.881 Y54.102
X51.857 Y54.327
X51.787 Y54.541
X51.674 Y54.737
X51.523 Y54.905
X51.340 Y55.038
X51.134 Y55.130
X50.913 Y55.177
X50.687 Y55.177
G0 Z3.000
G0  X30.362 Y52.680
G0  Z3.000
G01 F400 Z0
G01 F400 Z-0.100
G01F400X30.133 Y52.631
X29.918 Y52.536
X29.728 Y52.398
X29.570 Y52.223
X29.453 Y52.019
X29.380 Y51.796
X29.356 Y51.562
X29.380 Y51.328
X29.453 Y51.105
X29.570 Y50.901
X29.728 Y50.726
X29.918 Y50.588
X30.133 Y50.493
X30.362 Y50.444
X30.598 Y50.444
X30.828 Y50.493
X31.042 Y50.588
X31.232 Y50.726
X31.390 Y50.901
X31.507 Y51.105
X31.580 Y51.328
X31.604 Y51.562
X31.580 Y51.796
X31.507 Y52.019
X31.390 Y52.223
X31.232 Y52.398
X31.042 Y52.536
X30.828 Y52.631
X30.598 Y52.680
X30.362 Y52.680
G0 Z3.000
G0  X27.822 Y52.680
G0  Z3.000
G01 F400 Z0
G01 F400 Z-0.100
G01F400X27.593 Y52.631
X27.378 Y52.536
X27.188 Y52.398
X27.030 Y52.223
X26.913 Y52.019
X26.840 Y51.796
X26.816 Y51.562
X26.840 Y51.328
X26.913 Y51.105
X27.030 Y50.901
X27.188 Y50.726
X27.378 Y50.588
X27.593 Y50.493
X27.822 Y50.444
X28.058 Y50.444
X28.288 Y50.493
X28.502 Y50.588
X28.692 Y50.726
X28.850 Y50.901
X28.967 Y51.105
X29.040 Y51.328
X29.064 Y51.562
X29.040 Y51.796
X28.967 Y52.019
X28.850 Y52.223
X28.692 Y52.398
X28.502 Y52.536
X28.288 Y52.631
X28.058 Y52.680
X27.822 Y52.680
G0 Z3.000
G0  X22.745 Y52.655
G0  Z3.000
G01 F400 Z0
G01 F400 Z-0.100
G01F400X22.520 Y52.607
X22.311 Y52.514
X22.125 Y52.379
X21.971 Y52.208
X21.856 Y52.009
X21.785 Y51.790
X21.761 Y51.562
X21.785 Y51.334
X21.856 Y51.115
X21.971 Y50.916
X22.125 Y50.745
X22.311 Y50.610
X22.520 Y50.517
X22.745 Y50.469
X22.975 Y50.469
X23.200 Y50.517
X23.409 Y50.610
X23.595 Y50.745
X23.749 Y50.916
X23.864 Y51.115
X23.935 Y51.334
X23.959 Y51.562
X23.935 Y51.790
X23.864 Y52.009
X23.749 Y52.208
X23.595 Y52.379
X23.409 Y52.514
X23.200 Y52.607
X22.975 Y52.655
X22.745 Y52.655
G0 Z3.000
G0  X17.665 Y52.655
G0  Z3.000
G01 F400 Z0
G01 F400 Z-0.100
G01F400X17.440 Y52.607
X17.231 Y52.514
X17.045 Y52.379
X16.891 Y52.208
X16.776 Y52.009
X16.705 Y51.790
X16.681 Y51.562
X16.705 Y51.334
X16.776 Y51.115
X16.891 Y50.916
X17.045 Y50.745
X17.231 Y50.610
X17.440 Y50.517
X17.665 Y50.469
X17.895 Y50.469
X18.120 Y50.517
X18.329 Y50.610
X18.515 Y50.745
X18.669 Y50.916
X18.784 Y51.115
X18.855 Y51.334
X18.879 Y51.562
X18.855 Y51.790
X18.784 Y52.009
X18.669 Y52.208
X18.515 Y52.379
X18.329 Y52.514
X18.120 Y52.607
X17.895 Y52.655
X17.665 Y52.655
G0 Z3.000
G0  X49.720 Y52.642
G0  Z3.000
G01 F400 Z0
G01 F400 Z-0.100
G01F400X49.720 Y50.482
X51.880 Y50.482
X51.880 Y52.642
X49.720 Y52.642
G0 Z3.000
G0  X27.822 Y50.140
G0  Z3.000
G01 F400 Z0
G01 F400 Z-0.100
G01F400X27.593 Y50.091
X27.378 Y49.996
X27.188 Y49.858
X27.030 Y49.683
X26.913 Y49.479
X26.840 Y49.256
X26.816 Y49.022
X26.840 Y48.788
X26.913 Y48.565
X27.030 Y48.361
X27.188 Y48.186
X27.378 Y48.048
X27.593 Y47.953
X27.822 Y47.904
X28.058 Y47.904
X28.288 Y47.953
X28.502 Y48.048
X28.692 Y48.186
X28.850 Y48.361
X28.967 Y48.565
X29.040 Y48.788
X29.064 Y49.022
X29.040 Y49.256
X28.967 Y49.479
X28.850 Y49.683
X28.692 Y49.858
X28.502 Y49.996
X28.288 Y50.091
X28.058 Y50.140
X27.822 Y50.140
G0 Z3.000
G0  X30.388 Y50.140
G0  Z3.000
G01 F400 Z0
G01 F400 Z-0.100
G01F400X30.158 Y50.091
X29.943 Y49.996
X29.753 Y49.858
X29.596 Y49.683
X29.478 Y49.479
X29.406 Y49.256
X29.381 Y49.022
X29.406 Y48.788
X29.478 Y48.565
X29.596 Y48.361
X29.753 Y48.186
X29.943 Y48.048
X30.158 Y47.953
X30.388 Y47.904
X30.623 Y47.904
X30.853 Y47.953
X31.068 Y48.048
X31.258 Y48.186
X31.415 Y48.361
X31.533 Y48.565
X31.605 Y48.788
X31.630 Y49.022
X31.605 Y49.256
X31.533 Y49.479
X31.415 Y49.683
X31.258 Y49.858
X31.068 Y49.996
X30.853 Y50.091
X30.623 Y50.140
X30.388 Y50.140
G0 Z3.000
G0  X19.189 Y47.613
G0  Z3.000
G01 F400 Z0
G01 F400 Z-0.100
G01F400X19.189 Y45.351
X21.451 Y45.351
X21.451 Y47.613
X19.189 Y47.613
G0 Z3.000
G0  X27.822 Y47.600
G0  Z3.000
G01 F400 Z0
G01 F400 Z-0.100
G01F400X27.593 Y47.551
X27.378 Y47.456
X27.188 Y47.318
X27.030 Y47.143
X26.913 Y46.939
X26.840 Y46.716
X26.816 Y46.482
X26.840 Y46.248
X26.913 Y46.025
X27.030 Y45.821
X27.188 Y45.646
X27.378 Y45.508
X27.593 Y45.413
X27.822 Y45.364
X28.058 Y45.364
X28.288 Y45.413
X28.502 Y45.508
X28.692 Y45.646
X28.850 Y45.821
X28.967 Y46.025
X29.040 Y46.248
X29.064 Y46.482
X29.040 Y46.716
X28.967 Y46.939
X28.850 Y47.143
X28.692 Y47.318
X28.502 Y47.456
X28.288 Y47.551
X28.058 Y47.600
X27.822 Y47.600
G0 Z3.000
G0  X30.362 Y47.600
G0  Z3.000
G01 F400 Z0
G01 F400 Z-0.100
G01F400X30.133 Y47.551
X29.918 Y47.456
X29.728 Y47.318
X29.570 Y47.143
X29.453 Y46.939
X29.380 Y46.716
X29.356 Y46.482
X29.380 Y46.248
X29.453 Y46.025
X29.570 Y45.821
X29.728 Y45.646
X29.918 Y45.508
X30.133 Y45.413
X30.362 Y45.364
X30.598 Y45.364
X30.828 Y45.413
X31.042 Y45.508
X31.232 Y45.646
X31.390 Y45.821
X31.507 Y46.025
X31.580 Y46.248
X31.604 Y46.482
X31.580 Y46.716
X31.507 Y46.939
X31.390 Y47.143
X31.232 Y47.318
X31.042 Y47.456
X30.828 Y47.551
X30.598 Y47.600
X30.362 Y47.600
G0 Z3.000
G0  X20.202 Y45.067
G0  Z3.000
G01 F400 Z0
G01 F400 Z-0.100
G01F400X19.970 Y45.018
X19.754 Y44.922
X19.563 Y44.783
X19.405 Y44.607
X19.286 Y44.402
X19.213 Y44.177
X19.189 Y43.942
X19.213 Y43.707
X19.286 Y43.482
X19.405 Y43.277
X19.563 Y43.101
X19.754 Y42.962
X19.970 Y42.866
X20.202 Y42.817
X20.438 Y42.817
X20.670 Y42.866
X20.886 Y42.962
X21.077 Y43.101
X21.235 Y43.277
X21.354 Y43.482
X21.427 Y43.707
X21.451 Y43.942
X21.427 Y44.177
X21.354 Y44.402
X21.235 Y44.607
X21.077 Y44.783
X20.886 Y44.922
X20.670 Y45.018
X20.438 Y45.067
X20.202 Y45.067
G0 Z3.000
G0  X27.822 Y45.060
G0  Z3.000
G01 F400 Z0
G01 F400 Z-0.100
G01F400X27.593 Y45.011
X27.378 Y44.916
X27.188 Y44.778
X27.030 Y44.603
X26.913 Y44.399
X26.840 Y44.176
X26.816 Y43.942
X26.840 Y43.708
X26.913 Y43.485
X27.030 Y43.281
X27.188 Y43.106
X27.378 Y42.968
X27.593 Y42.873
X27.822 Y42.824
X28.058 Y42.824
X28.288 Y42.873
X28.502 Y42.968
X28.692 Y43.106
X28.850 Y43.281
X28.967 Y43.485
X29.040 Y43.708
X29.064 Y43.942
X29.040 Y44.176
X28.967 Y44.399
X28.850 Y44.603
X28.692 Y44.778
X28.502 Y44.916
X28.288 Y45.011
X28.058 Y45.060
X27.822 Y45.060
G0 Z3.000
G0  X30.362 Y45.060
G0  Z3.000
G01 F400 Z0
G01 F400 Z-0.100
G01F400X30.133 Y45.011
X29.918 Y44.916
X29.728 Y44.778
X29.570 Y44.603
X29.453 Y44.399
X29.380 Y44.176
X29.356 Y43.942
X29.380 Y43.708
X29.453 Y43.485
X29.570 Y43.281
X29.728 Y43.106
X29.918 Y42.968
X30.133 Y42.873
X30.362 Y42.824
X30.598 Y42.824
X30.828 Y42.873
X31.042 Y42.968
X31.232 Y43.106
X31.390 Y43.281
X31.507 Y43.485
X31.580 Y43.708
X31.604 Y43.942
X31.580 Y44.176
X31.507 Y44.399
X31.390 Y44.603
X31.232 Y44.778
X31.042 Y44.916
X30.828 Y45.011
X30.598 Y45.060
X30.362 Y45.060
G0 Z3.000
G0  X20.202 Y42.527
G0  Z3.000
G01 F400 Z0
G01 F400 Z-0.100
G01F400X19.970 Y42.478
X19.754 Y42.382
X19.563 Y42.243
X19.405 Y42.067
X19.286 Y41.862
X19.213 Y41.637
X19.189 Y41.402
X19.213 Y41.167
X19.286 Y40.942
X19.405 Y40.737
X19.563 Y40.561
X19.754 Y40.422
X19.970 Y40.326
X20.202 Y40.277
X20.438 Y40.277
X20.670 Y40.326
X20.886 Y40.422
X21.077 Y40.561
X21.235 Y40.737
X21.354 Y40.942
X21.427 Y41.167
X21.451 Y41.402
X21.427 Y41.637
X21.354 Y41.862
X21.235 Y42.067
X21.077 Y42.243
X20.886 Y42.382
X20.670 Y42.478
X20.438 Y42.527
X20.202 Y42.527
G0 Z3.000
G0  X27.822 Y42.520
G0  Z3.000
G01 F400 Z0
G01 F400 Z-0.100
G01F400X27.593 Y42.471
X27.378 Y42.376
X27.188 Y42.238
X27.030 Y42.063
X26.913 Y41.859
X26.840 Y41.636
X26.816 Y41.402
X26.840 Y41.168
X26.913 Y40.945
X27.030 Y40.741
X27.188 Y40.566
X27.378 Y40.428
X27.593 Y40.333
X27.822 Y40.284
X28.058 Y40.284
X28.288 Y40.333
X28.502 Y40.428
X28.692 Y40.566
X28.850 Y40.741
X28.967 Y40.945
X29.040 Y41.168
X29.064 Y41.402
X29.040 Y41.636
X28.967 Y41.859
X28.850 Y42.063
X28.692 Y42.238
X28.502 Y42.376
X28.288 Y42.471
X28.058 Y42.520
X27.822 Y42.520
G0 Z3.000
G0  X30.362 Y42.520
G0  Z3.000
G01 F400 Z0
G01 F400 Z-0.100
G01F400X30.133 Y42.471
X29.918 Y42.376
X29.728 Y42.238
X29.570 Y42.063
X29.453 Y41.859
X29.380 Y41.636
X29.356 Y41.402
X29.380 Y41.168
X29.453 Y40.945
X29.570 Y40.741
X29.728 Y40.566
X29.918 Y40.428
X30.133 Y40.333
X30.362 Y40.284
X30.598 Y40.284
X30.828 Y40.333
X31.042 Y40.428
X31.232 Y40.566
X31.390 Y40.741
X31.507 Y40.945
X31.580 Y41.168
X31.604 Y41.402
X31.580 Y41.636
X31.507 Y41.859
X31.390 Y42.063
X31.232 Y42.238
X31.042 Y42.376
X30.828 Y42.471
X30.598 Y42.520
X30.362 Y42.520
G0 Z3.000
G0  X27.822 Y39.980
G0  Z3.000
G01 F400 Z0
G01 F400 Z-0.100
G01F400X27.593 Y39.931
X27.378 Y39.836
X27.188 Y39.698
X27.030 Y39.523
X26.913 Y39.319
X26.840 Y39.096
X26.816 Y38.862
X26.840 Y38.628
X26.913 Y38.405
X27.030 Y38.201
X27.188 Y38.026
X27.378 Y37.888
X27.593 Y37.793
X27.822 Y37.744
X28.058 Y37.744
X28.288 Y37.793
X28.502 Y37.888
X28.692 Y38.026
X28.850 Y38.201
X28.967 Y38.405
X29.040 Y38.628
X29.064 Y38.862
X29.040 Y39.096
X28.967 Y39.319
X28.850 Y39.523
X28.692 Y39.698
X28.502 Y39.836
X28.288 Y39.931
X28.058 Y39.980
X27.822 Y39.980
G0 Z3.000
G0  X30.362 Y39.980
G0  Z3.000
G01 F400 Z0
G01 F400 Z-0.100
G01F400X30.133 Y39.931
X29.918 Y39.836
X29.728 Y39.698
X29.570 Y39.523
X29.453 Y39.319
X29.380 Y39.096
X29.356 Y38.862
X29.380 Y38.628
X29.453 Y38.405
X29.570 Y38.201
X29.728 Y38.026
X29.918 Y37.888
X30.133 Y37.793
X30.362 Y37.744
X30.598 Y37.744
X30.828 Y37.793
X31.042 Y37.888
X31.232 Y38.026
X31.390 Y38.201
X31.507 Y38.405
X31.580 Y38.628
X31.604 Y38.862
X31.580 Y39.096
X31.507 Y39.319
X31.390 Y39.523
X31.232 Y39.698
X31.042 Y39.836
X30.828 Y39.931
X30.598 Y39.980
X30.362 Y39.980
G0 Z3.000
G0  X27.822 Y37.440
G0  Z3.000
G01 F400 Z0
G01 F400 Z-0.100
G01F400X27.593 Y37.391
X27.378 Y37.296
X27.188 Y37.158
X27.030 Y36.983
X26.913 Y36.779
X26.840 Y36.556
X26.816 Y36.322
X26.840 Y36.088
X26.913 Y35.865
X27.030 Y35.661
X27.188 Y35.486
X27.378 Y35.348
X27.593 Y35.253
X27.822 Y35.204
X28.058 Y35.204
X28.288 Y35.253
X28.502 Y35.348
X28.692 Y35.486
X28.850 Y35.661
X28.967 Y35.865
X29.040 Y36.088
X29.064 Y36.322
X29.040 Y36.556
X28.967 Y36.779
X28.850 Y36.983
X28.692 Y37.158
X28.502 Y37.296
X28.288 Y37.391
X28.058 Y37.440
X27.822 Y37.440
G0 Z3.000
G0  X30.362 Y37.440
G0  Z3.000
G01 F400 Z0
G01 F400 Z-0.100
G01F400X30.133 Y37.391
X29.918 Y37.296
X29.728 Y37.158
X29.570 Y36.983
X29.453 Y36.779
X29.380 Y36.556
X29.356 Y36.322
X29.380 Y36.088
X29.453 Y35.865
X29.570 Y35.661
X29.728 Y35.486
X29.918 Y35.348
X30.133 Y35.253
X30.362 Y35.204
X30.598 Y35.204
X30.828 Y35.253
X31.042 Y35.348
X31.232 Y35.486
X31.390 Y35.661
X31.507 Y35.865
X31.580 Y36.088
X31.604 Y36.322
X31.580 Y36.556
X31.507 Y36.779
X31.390 Y36.983
X31.232 Y37.158
X31.042 Y37.296
X30.828 Y37.391
X30.598 Y37.440
X30.362 Y37.440
G0 Z3.000
G0  X27.822 Y34.900
G0  Z3.000
G01 F400 Z0
G01 F400 Z-0.100
G01F400X27.593 Y34.851
X27.378 Y34.756
X27.188 Y34.618
X27.030 Y34.443
X26.913 Y34.239
X26.840 Y34.016
X26.816 Y33.782
X26.840 Y33.548
X26.913 Y33.325
X27.030 Y33.121
X27.188 Y32.946
X27.378 Y32.808
X27.593 Y32.713
X27.822 Y32.664
X28.058 Y32.664
X28.288 Y32.713
X28.502 Y32.808
X28.692 Y32.946
X28.850 Y33.121
X28.967 Y33.325
X29.040 Y33.548
X29.064 Y33.782
X29.040 Y34.016
X28.967 Y34.239
X28.850 Y34.443
X28.692 Y34.618
X28.502 Y34.756
X28.288 Y34.851
X28.058 Y34.900
X27.822 Y34.900
G0 Z3.000
G0  X30.362 Y34.900
G0  Z3.000
G01 F400 Z0
G01 F400 Z-0.100
G01F400X30.133 Y34.851
X29.918 Y34.756
X29.728 Y34.618
X29.570 Y34.443
X29.453 Y34.239
X29.380 Y34.016
X29.356 Y33.782
X29.380 Y33.548
X29.453 Y33.325
X29.570 Y33.121
X29.728 Y32.946
X29.918 Y32.808
X30.133 Y32.713
X30.362 Y32.664
X30.598 Y32.664
X30.828 Y32.713
X31.042 Y32.808
X31.232 Y32.946
X31.390 Y33.121
X31.507 Y33.325
X31.580 Y33.548
X31.604 Y33.782
X31.580 Y34.016
X31.507 Y34.239
X31.390 Y34.443
X31.232 Y34.618
X31.042 Y34.756
X30.828 Y34.851
X30.598 Y34.900
X30.362 Y34.900
G0 Z3.000
G0  X27.822 Y32.360
G0  Z3.000
G01 F400 Z0
G01 F400 Z-0.100
G01F400X27.593 Y32.311
X27.378 Y32.216
X27.188 Y32.078
X27.030 Y31.903
X26.913 Y31.699
X26.840 Y31.476
X26.816 Y31.242
X26.840 Y31.008
X26.913 Y30.785
X27.030 Y30.581
X27.188 Y30.406
X27.378 Y30.268
X27.593 Y30.173
X27.822 Y30.124
X28.058 Y30.124
X28.288 Y30.173
X28.502 Y30.268
X28.692 Y30.406
X28.850 Y30.581
X28.967 Y30.785
X29.040 Y31.008
X29.064 Y31.242
X29.040 Y31.476
X28.967 Y31.699
X28.850 Y31.903
X28.692 Y32.078
X28.502 Y32.216
X28.288 Y32.311
X28.058 Y32.360
X27.822 Y32.360
G0 Z3.000
G0  X30.362 Y32.360
G0  Z3.000
G01 F400 Z0
G01 F400 Z-0.100
G01F400X30.133 Y32.311
X29.918 Y32.216
X29.728 Y32.078
X29.570 Y31.903
X29.453 Y31.699
X29.380 Y31.476
X29.356 Y31.242
X29.380 Y31.008
X29.453 Y30.785
X29.570 Y30.581
X29.728 Y30.406
X29.918 Y30.268
X30.133 Y30.173
X30.362 Y30.124
X30.598 Y30.124
X30.828 Y30.173
X31.042 Y30.268
X31.232 Y30.406
X31.390 Y30.581
X31.507 Y30.785
X31.580 Y31.008
X31.604 Y31.242
X31.580 Y31.476
X31.507 Y31.699
X31.390 Y31.903
X31.232 Y32.078
X31.042 Y32.216
X30.828 Y32.311
X30.598 Y32.360
X30.362 Y32.360
G0 Z3.000
G0  X27.822 Y29.846
G0  Z3.000
G01 F400 Z0
G01 F400 Z-0.100
G01F400X27.593 Y29.797
X27.378 Y29.701
X27.188 Y29.563
X27.030 Y29.388
X26.913 Y29.185
X26.840 Y28.961
X26.816 Y28.727
X26.840 Y28.494
X26.913 Y28.270
X27.030 Y28.067
X27.188 Y27.892
X27.378 Y27.754
X27.593 Y27.658
X27.822 Y27.609
X28.058 Y27.609
X28.288 Y27.658
X28.502 Y27.754
X28.692 Y27.892
X28.850 Y28.067
X28.967 Y28.270
X29.040 Y28.494
X29.064 Y28.727
X29.040 Y28.961
X28.967 Y29.185
X28.850 Y29.388
X28.692 Y29.563
X28.502 Y29.701
X28.288 Y29.797
X28.058 Y29.846
X27.822 Y29.846
G0 Z3.000
G0  X30.362 Y29.846
G0  Z3.000
G01 F400 Z0
G01 F400 Z-0.100
G01F400X30.133 Y29.797
X29.918 Y29.701
X29.728 Y29.563
X29.570 Y29.388
X29.453 Y29.185
X29.380 Y28.961
X29.356 Y28.727
X29.380 Y28.494
X29.453 Y28.270
X29.570 Y28.067
X29.728 Y27.892
X29.918 Y27.754
X30.133 Y27.658
X30.362 Y27.609
X30.598 Y27.609
X30.828 Y27.658
X31.042 Y27.754
X31.232 Y27.892
X31.390 Y28.067
X31.507 Y28.270
X31.580 Y28.494
X31.604 Y28.727
X31.580 Y28.961
X31.507 Y29.185
X31.390 Y29.388
X31.232 Y29.563
X31.042 Y29.701
X30.828 Y29.797
X30.598 Y29.846
X30.362 Y29.846
G0 Z3.000
G0  X27.822 Y27.280
G0  Z3.000
G01 F400 Z0
G01 F400 Z-0.100
G01F400X27.593 Y27.231
X27.378 Y27.136
X27.188 Y26.998
X27.030 Y26.823
X26.913 Y26.619
X26.840 Y26.396
X26.816 Y26.162
X26.840 Y25.928
X26.913 Y25.705
X27.030 Y25.501
X27.188 Y25.326
X27.378 Y25.188
X27.593 Y25.093
X27.822 Y25.044
X28.058 Y25.044
X28.288 Y25.093
X28.502 Y25.188
X28.692 Y25.326
X28.850 Y25.501
X28.967 Y25.705
X29.040 Y25.928
X29.064 Y26.162
X29.040 Y26.396
X28.967 Y26.619
X28.850 Y26.823
X28.692 Y26.998
X28.502 Y27.136
X28.288 Y27.231
X28.058 Y27.280
X27.822 Y27.280
G0 Z3.000
G0  X30.362 Y27.280
G0  Z3.000
G01 F400 Z0
G01 F400 Z-0.100
G01F400X30.133 Y27.231
X29.918 Y27.136
X29.728 Y26.998
X29.570 Y26.823
X29.453 Y26.619
X29.380 Y26.396
X29.356 Y26.162
X29.380 Y25.928
X29.453 Y25.705
X29.570 Y25.501
X29.728 Y25.326
X29.918 Y25.188
X30.133 Y25.093
X30.362 Y25.044
X30.598 Y25.044
X30.828 Y25.093
X31.042 Y25.188
X31.232 Y25.326
X31.390 Y25.501
X31.507 Y25.705
X31.580 Y25.928
X31.604 Y26.162
X31.580 Y26.396
X31.507 Y26.619
X31.390 Y26.823
X31.232 Y26.998
X31.042 Y27.136
X30.828 Y27.231
X30.598 Y27.280
X30.362 Y27.280
G0 Z3.000
G0  X27.822 Y24.740
G0  Z3.000
G01 F400 Z0
G01 F400 Z-0.100
G01F400X27.593 Y24.691
X27.378 Y24.596
X27.188 Y24.458
X27.030 Y24.283
X26.913 Y24.079
X26.840 Y23.856
X26.816 Y23.622
X26.840 Y23.388
X26.913 Y23.165
X27.030 Y22.961
X27.188 Y22.786
X27.378 Y22.648
X27.593 Y22.553
X27.822 Y22.504
X28.058 Y22.504
X28.288 Y22.553
X28.502 Y22.648
X28.692 Y22.786
X28.850 Y22.961
X28.967 Y23.165
X29.040 Y23.388
X29.064 Y23.622
X29.040 Y23.856
X28.967 Y24.079
X28.850 Y24.283
X28.692 Y24.458
X28.502 Y24.596
X28.288 Y24.691
X28.058 Y24.740
X27.822 Y24.740
G0 Z3.000
G0  X30.362 Y24.740
G0  Z3.000
G01 F400 Z0
G01 F400 Z-0.100
G01F400X30.133 Y24.691
X29.918 Y24.596
X29.728 Y24.458
X29.570 Y24.283
X29.453 Y24.079
X29.380 Y23.856
X29.356 Y23.622
X29.380 Y23.388
X29.453 Y23.165
X29.570 Y22.961
X29.728 Y22.786
X29.918 Y22.648
X30.133 Y22.553
X30.362 Y22.504
X30.598 Y22.504
X30.828 Y22.553
X31.042 Y22.648
X31.232 Y22.786
X31.390 Y22.961
X31.507 Y23.165
X31.580 Y23.388
X31.604 Y23.622
X31.580 Y23.856
X31.507 Y24.079
X31.390 Y24.283
X31.232 Y24.458
X31.042 Y24.596
X30.828 Y24.691
X30.598 Y24.740
X30.362 Y24.740
G0 Z3.000
G0  X27.822 Y22.200
G0  Z3.000
G01 F400 Z0
G01 F400 Z-0.100
G01F400X27.593 Y22.151
X27.378 Y22.056
X27.188 Y21.918
X27.030 Y21.743
X26.913 Y21.539
X26.840 Y21.316
X26.816 Y21.082
X26.840 Y20.848
X26.913 Y20.625
X27.030 Y20.421
X27.188 Y20.246
X27.378 Y20.108
X27.593 Y20.013
X27.822 Y19.964
X28.058 Y19.964
X28.288 Y20.013
X28.502 Y20.108
X28.692 Y20.246
X28.850 Y20.421
X28.967 Y20.625
X29.040 Y20.848
X29.064 Y21.082
X29.040 Y21.316
X28.967 Y21.539
X28.850 Y21.743
X28.692 Y21.918
X28.502 Y22.056
X28.288 Y22.151
X28.058 Y22.200
X27.822 Y22.200
G0 Z3.000
G0  X30.362 Y22.200
G0  Z3.000
G01 F400 Z0
G01 F400 Z-0.100
G01F400X30.133 Y22.151
X29.918 Y22.056
X29.728 Y21.918
X29.570 Y21.743
X29.453 Y21.539
X29.380 Y21.316
X29.356 Y21.082
X29.380 Y20.848
X29.453 Y20.625
X29.570 Y20.421
X29.728 Y20.246
X29.918 Y20.108
X30.133 Y20.013
X30.362 Y19.964
X30.598 Y19.964
X30.828 Y20.013
X31.042 Y20.108
X31.232 Y20.246
X31.390 Y20.421
X31.507 Y20.625
X31.580 Y20.848
X31.604 Y21.082
X31.580 Y21.316
X31.507 Y21.539
X31.390 Y21.743
X31.232 Y21.918
X31.042 Y22.056
X30.828 Y22.151
X30.598 Y22.200
X30.362 Y22.200
G0 Z3.000
G0  X15.164 Y98.009
G0  Z3.000
G01 F400 Z0
G01 F400 Z-0.100
G01F400X15.014 Y97.978
X14.874 Y97.915
X14.751 Y97.825
X14.648 Y97.712
X14.572 Y97.579
X14.525 Y97.434
X14.509 Y97.282
X14.525 Y97.130
X14.572 Y96.985
X14.648 Y96.852
X14.705 Y96.789
X14.705 Y13.955
X14.648 Y13.892
X14.572 Y13.759
X14.525 Y13.614
X14.509 Y13.462
X14.525 Y13.310
X14.572 Y13.165
X14.648 Y13.032
X14.751 Y12.919
X14.874 Y12.829
X15.014 Y12.767
X15.164 Y12.735
X15.317 Y12.735
X15.466 Y12.767
X15.606 Y12.829
X15.729 Y12.919
X15.739 Y12.929
X55.381 Y12.929
X55.391 Y12.919
X55.514 Y12.829
X55.654 Y12.767
X55.803 Y12.735
X55.957 Y12.735
X56.106 Y12.767
X56.246 Y12.829
X56.369 Y12.919
X56.472 Y13.032
X56.548 Y13.165
X56.595 Y13.310
X56.611 Y13.462
X56.595 Y13.614
X56.548 Y13.759
X56.472 Y13.892
X56.415 Y13.955
X56.415 Y96.789
X56.472 Y96.852
X56.548 Y96.985
X56.595 Y97.130
X56.611 Y97.282
X56.595 Y97.434
X56.548 Y97.579
X56.472 Y97.712
X56.369 Y97.825
X56.246 Y97.915
X56.106 Y97.978
X55.957 Y98.009
X55.803 Y98.009
X55.654 Y97.978
X55.514 Y97.915
X55.391 Y97.825
X55.381 Y97.815
X15.739 Y97.815
X15.729 Y97.825
X15.606 Y97.915
X15.466 Y97.978
X15.317 Y98.009
X15.164 Y98.009
G0 Z3.000
G0  X15.775 Y96.749
G0  Z3.000
G01 F400 Z0
G01 F400 Z-0.100
G01F400X55.345 Y96.749
X55.345 Y13.995
X15.775 Y13.995
X15.775 Y96.749
G0 Z3.000
G0  X31.799 Y95.963
G0  Z3.000
G01 F400 Z0
G01 F400 Z-0.100
G01F400X31.799 Y93.521
X34.241 Y93.521
X34.241 Y94.205
X40.080 Y94.162
X40.080 Y59.195
X40.090 Y59.096
X40.125 Y58.989
X40.181 Y58.892
X40.256 Y58.809
X40.347 Y58.743
X40.449 Y58.698
X40.558 Y58.674
X49.763 Y58.649
X49.853 Y58.494
X50.017 Y58.312
X50.215 Y58.168
X50.438 Y58.068
X50.678 Y58.017
X50.922 Y58.017
X51.162 Y58.068
X51.385 Y58.168
X51.584 Y58.312
X51.747 Y58.494
X51.870 Y58.706
X51.945 Y58.939
X51.971 Y59.182
X51.945 Y59.425
X51.870 Y59.658
X51.747 Y59.870
X51.584 Y60.052
X51.385 Y60.196
X51.162 Y60.296
X50.922 Y60.347
X50.678 Y60.347
X50.438 Y60.296
X50.215 Y60.196
X50.017 Y60.052
X49.853 Y59.870
X49.764 Y59.716
X41.149 Y59.739
X41.149 Y94.703
X41.139 Y94.803
X41.104 Y94.909
X41.048 Y95.006
X40.973 Y95.090
X40.883 Y95.156
X40.780 Y95.201
X40.672 Y95.224
X34.241 Y95.272
X34.241 Y95.963
X31.799 Y95.963
G0 Z3.000
G0  X32.892 Y93.417
G0  Z3.000
G01 F400 Z0
G01 F400 Z-0.100
G01F400X32.642 Y93.364
X32.409 Y93.260
X32.203 Y93.110
X32.032 Y92.920
X31.925 Y92.736
X22.841 Y92.761
X22.753 Y92.761
X22.643 Y92.737
X22.541 Y92.692
X22.451 Y92.626
X22.376 Y92.543
X22.319 Y92.445
X22.285 Y92.339
X22.274 Y92.239
X22.274 Y64.857
X21.358 Y64.830
X21.282 Y64.961
X21.116 Y65.146
X20.915 Y65.292
X20.688 Y65.393
X20.444 Y65.445
X20.196 Y65.445
X19.952 Y65.393
X19.726 Y65.292
X19.524 Y65.146
X19.358 Y64.961
X19.233 Y64.746
X19.157 Y64.509
X19.131 Y64.262
X19.157 Y64.015
X19.233 Y63.778
X19.358 Y63.563
X19.524 Y63.378
X19.726 Y63.232
X19.952 Y63.131
X20.196 Y63.079
X20.444 Y63.079
X20.688 Y63.131
X20.915 Y63.232
X21.116 Y63.378
X21.282 Y63.563
X21.398 Y63.763
X22.826 Y63.805
X26.836 Y63.758
X26.957 Y63.548
X27.127 Y63.359
X27.333 Y63.210
X27.565 Y63.107
X27.813 Y63.054
X28.067 Y63.054
X28.316 Y63.107
X28.547 Y63.210
X28.753 Y63.359
X28.923 Y63.548
X29.050 Y63.768
X29.128 Y64.010
X29.155 Y64.262
X29.128 Y64.514
X29.050 Y64.756
X28.923 Y64.976
X28.753 Y65.165
X28.547 Y65.314
X28.316 Y65.417
X28.067 Y65.470
X27.813 Y65.470
X27.565 Y65.417
X27.333 Y65.314
X27.127 Y65.165
X26.957 Y64.976
X26.870 Y64.824
X23.344 Y64.865
X23.344 Y91.693
X31.924 Y91.670
X32.032 Y91.484
X32.203 Y91.294
X32.409 Y91.144
X32.642 Y91.040
X32.892 Y90.987
X33.148 Y90.987
X33.398 Y91.040
X33.631 Y91.144
X33.837 Y91.294
X34.009 Y91.484
X34.136 Y91.705
X34.215 Y91.948
X34.242 Y92.202
X34.215 Y92.456
X34.136 Y92.699
X34.009 Y92.920
X33.837 Y93.110
X33.631 Y93.260
X33.398 Y93.364
X33.148 Y93.417
X32.892 Y93.417
G0 Z3.000
G0  X32.892 Y90.877
G0  Z3.000
G01 F400 Z0
G01 F400 Z-0.100
G01F400X32.642 Y90.824
X32.409 Y90.720
X32.203 Y90.570
X32.032 Y90.380
X31.904 Y90.159
X31.825 Y89.916
X31.798 Y89.662
X31.825 Y89.408
X31.904 Y89.165
X32.032 Y88.944
X32.203 Y88.754
X32.409 Y88.604
X32.642 Y88.500
X32.892 Y88.447
X33.148 Y88.447
X33.398 Y88.500
X33.631 Y88.604
X33.837 Y88.754
X34.009 Y88.944
X34.136 Y89.165
X34.215 Y89.408
X34.242 Y89.662
X34.215 Y89.916
X34.136 Y90.159
X34.009 Y90.380
X33.837 Y90.570
X33.631 Y90.720
X33.398 Y90.824
X33.148 Y90.877
X32.892 Y90.877
G0 Z3.000
G0  X32.892 Y88.337
G0  Z3.000
G01 F400 Z0
G01 F400 Z-0.100
G01F400X32.642 Y88.284
X32.409 Y88.180
X32.203 Y88.030
X32.032 Y87.840
X31.904 Y87.619
X31.825 Y87.376
X31.798 Y87.122
X31.825 Y86.868
X31.904 Y86.625
X32.032 Y86.404
X32.203 Y86.214
X32.409 Y86.064
X32.642 Y85.960
X32.892 Y85.907
X33.148 Y85.907
X33.398 Y85.960
X33.631 Y86.064
X33.837 Y86.214
X34.009 Y86.404
X34.136 Y86.625
X34.215 Y86.868
X34.242 Y87.122
X34.215 Y87.376
X34.136 Y87.619
X34.009 Y87.840
X33.837 Y88.030
X33.631 Y88.180
X33.398 Y88.284
X33.148 Y88.337
X32.892 Y88.337
G0 Z3.000
G0  X32.892 Y85.797
G0  Z3.000
G01 F400 Z0
G01 F400 Z-0.100
G01F400X32.642 Y85.744
X32.409 Y85.640
X32.203 Y85.490
X32.032 Y85.300
X31.904 Y85.079
X31.825 Y84.836
X31.798 Y84.582
X31.825 Y84.328
X31.904 Y84.085
X32.032 Y83.864
X32.203 Y83.674
X32.409 Y83.524
X32.642 Y83.420
X32.892 Y83.367
X33.148 Y83.367
X33.398 Y83.420
X33.631 Y83.524
X33.837 Y83.674
X34.009 Y83.864
X34.136 Y84.085
X34.215 Y84.328
X34.242 Y84.582
X34.215 Y84.836
X34.136 Y85.079
X34.009 Y85.300
X33.837 Y85.490
X33.631 Y85.640
X33.398 Y85.744
X33.148 Y85.797
X32.892 Y85.797
G0 Z3.000
G0  X32.892 Y83.257
G0  Z3.000
G01 F400 Z0
G01 F400 Z-0.100
G01F400X32.642 Y83.204
X32.409 Y83.100
X32.203 Y82.950
X32.032 Y82.760
X31.904 Y82.539
X31.825 Y82.296
X31.798 Y82.042
X31.825 Y81.788
X31.904 Y81.545
X32.032 Y81.324
X32.203 Y81.134
X32.409 Y80.984
X32.484 Y80.951
X32.482 Y80.593
X32.409 Y80.560
X32.203 Y80.410
X32.032 Y80.220
X31.904 Y79.999
X31.825 Y79.756
X31.798 Y79.502
X31.825 Y79.248
X31.904 Y79.005
X32.032 Y78.784
X32.202 Y78.594
X32.409 Y78.444
X32.472 Y78.416
X32.411 Y64.839
X31.550 Y64.826
X31.463 Y64.976
X31.293 Y65.165
X31.087 Y65.314
X30.856 Y65.417
X30.607 Y65.470
X30.353 Y65.470
X30.105 Y65.417
X29.873 Y65.314
X29.667 Y65.165
X29.497 Y64.976
X29.370 Y64.756
X29.292 Y64.514
X29.265 Y64.262
X29.292 Y64.010
X29.370 Y63.768
X29.497 Y63.548
X29.667 Y63.359
X29.873 Y63.210
X30.105 Y63.107
X30.353 Y63.054
X30.607 Y63.054
X30.856 Y63.107
X31.087 Y63.210
X31.293 Y63.359
X31.463 Y63.548
X31.585 Y63.759
X33.002 Y63.780
X33.110 Y63.803
X33.212 Y63.849
X33.302 Y63.914
X33.378 Y63.998
X33.434 Y64.095
X33.468 Y64.201
X33.479 Y64.300
X33.555 Y78.410
X33.631 Y78.444
X33.838 Y78.594
X34.009 Y78.784
X34.136 Y79.005
X34.215 Y79.248
X34.242 Y79.502
X34.215 Y79.756
X34.136 Y79.999
X34.009 Y80.220
X33.838 Y80.410
X33.631 Y80.561
X33.552 Y80.595
X33.555 Y80.950
X33.631 Y80.984
X33.838 Y81.134
X34.009 Y81.324
X34.136 Y81.545
X34.215 Y81.788
X34.242 Y82.042
X34.215 Y82.296
X34.136 Y82.539
X34.009 Y82.760
X33.837 Y82.950
X33.631 Y83.100
X33.398 Y83.204
X33.148 Y83.257
X32.892 Y83.257
G0 Z3.000
G0  X50.678 Y75.587
G0  Z3.000
G01 F400 Z0
G01 F400 Z-0.100
G01F400X50.438 Y75.536
X50.215 Y75.436
X50.017 Y75.292
X49.853 Y75.110
X49.730 Y74.898
X49.655 Y74.665
X49.629 Y74.422
X49.655 Y74.179
X49.730 Y73.946
X49.853 Y73.734
X50.017 Y73.552
X50.215 Y73.408
X50.438 Y73.308
X50.678 Y73.257
X50.922 Y73.257
X51.162 Y73.308
X51.385 Y73.408
X51.584 Y73.552
X51.747 Y73.734
X51.870 Y73.946
X51.945 Y74.179
X51.971 Y74.422
X51.945 Y74.665
X51.870 Y74.898
X51.747 Y75.110
X51.584 Y75.292
X51.385 Y75.436
X51.162 Y75.536
X50.922 Y75.587
X50.678 Y75.587
G0 Z3.000
G0  X50.678 Y73.047
G0  Z3.000
G01 F400 Z0
G01 F400 Z-0.100
G01F400X50.438 Y72.996
X50.215 Y72.896
X50.017 Y72.752
X49.853 Y72.570
X49.730 Y72.358
X49.655 Y72.125
X49.629 Y71.882
X49.655 Y71.639
X49.730 Y71.406
X49.853 Y71.194
X50.017 Y71.012
X50.215 Y70.868
X50.438 Y70.768
X50.678 Y70.717
X50.922 Y70.717
X51.162 Y70.768
X51.385 Y70.868
X51.584 Y71.012
X51.747 Y71.194
X51.870 Y71.406
X51.945 Y71.639
X51.971 Y71.882
X51.945 Y72.125
X51.870 Y72.358
X51.747 Y72.570
X51.584 Y72.752
X51.385 Y72.896
X51.162 Y72.996
X50.922 Y73.047
X50.678 Y73.047
G0 Z3.000
G0  X27.813 Y70.550
G0  Z3.000
G01 F400 Z0
G01 F400 Z-0.100
G01F400X27.565 Y70.497
X27.333 Y70.394
X27.127 Y70.245
X26.957 Y70.056
X26.830 Y69.836
X26.752 Y69.594
X26.725 Y69.342
X26.752 Y69.090
X26.830 Y68.848
X26.957 Y68.628
X27.127 Y68.439
X27.333 Y68.290
X27.565 Y68.187
X27.813 Y68.134
X28.067 Y68.134
X28.316 Y68.187
X28.547 Y68.290
X28.753 Y68.439
X28.923 Y68.628
X29.050 Y68.848
X29.128 Y69.090
X29.155 Y69.342
X29.128 Y69.594
X29.050 Y69.836
X28.923 Y70.056
X28.753 Y70.245
X28.547 Y70.394
X28.316 Y70.497
X28.067 Y70.550
X27.813 Y70.550
G0 Z3.000
G0  X30.353 Y70.550
G0  Z3.000
G01 F400 Z0
G01 F400 Z-0.100
G01F400X30.105 Y70.497
X29.873 Y70.394
X29.667 Y70.245
X29.497 Y70.056
X29.370 Y69.836
X29.292 Y69.594
X29.265 Y69.342
X29.292 Y69.090
X29.370 Y68.848
X29.497 Y68.628
X29.667 Y68.439
X29.873 Y68.290
X30.105 Y68.187
X30.353 Y68.134
X30.607 Y68.134
X30.856 Y68.187
X31.087 Y68.290
X31.293 Y68.439
X31.463 Y68.628
X31.590 Y68.848
X31.668 Y69.090
X31.695 Y69.342
X31.668 Y69.594
X31.590 Y69.836
X31.463 Y70.056
X31.293 Y70.245
X31.087 Y70.394
X30.856 Y70.497
X30.607 Y70.550
X30.353 Y70.550
G0 Z3.000
G0  X20.196 Y70.525
G0  Z3.000
G01 F400 Z0
G01 F400 Z-0.100
G01F400X19.952 Y70.473
X19.726 Y70.372
X19.524 Y70.226
X19.358 Y70.041
X19.233 Y69.826
X19.157 Y69.589
X19.131 Y69.342
X19.157 Y69.095
X19.233 Y68.858
X19.358 Y68.643
X19.524 Y68.458
X19.726 Y68.312
X19.952 Y68.211
X20.196 Y68.159
X20.444 Y68.159
X20.688 Y68.211
X20.915 Y68.312
X21.116 Y68.458
X21.282 Y68.643
X21.407 Y68.858
X21.483 Y69.095
X21.509 Y69.342
X21.483 Y69.589
X21.407 Y69.826
X21.282 Y70.041
X21.116 Y70.226
X20.915 Y70.372
X20.688 Y70.473
X20.444 Y70.525
X20.196 Y70.525
G0 Z3.000
G0  X50.678 Y70.507
G0  Z3.000
G01 F400 Z0
G01 F400 Z-0.100
G01F400X50.438 Y70.456
X50.215 Y70.356
X50.017 Y70.212
X49.853 Y70.030
X49.730 Y69.818
X49.655 Y69.585
X49.629 Y69.342
X49.655 Y69.099
X49.730 Y68.866
X49.853 Y68.654
X50.017 Y68.472
X50.215 Y68.328
X50.438 Y68.228
X50.678 Y68.177
X50.922 Y68.177
X51.162 Y68.228
X51.385 Y68.328
X51.584 Y68.472
X51.747 Y68.654
X51.870 Y68.866
X51.945 Y69.099
X51.971 Y69.342
X51.945 Y69.585
X51.870 Y69.818
X51.747 Y70.030
X51.584 Y70.212
X51.385 Y70.356
X51.162 Y70.456
X50.922 Y70.507
X50.678 Y70.507
G0 Z3.000
G0  X27.813 Y68.010
G0  Z3.000
G01 F400 Z0
G01 F400 Z-0.100
G01F400X27.565 Y67.957
X27.333 Y67.854
X27.127 Y67.705
X26.957 Y67.516
X26.830 Y67.296
X26.752 Y67.055
X26.725 Y66.802
X26.752 Y66.550
X26.830 Y66.308
X26.957 Y66.088
X27.127 Y65.899
X27.333 Y65.750
X27.565 Y65.647
X27.813 Y65.594
X28.067 Y65.594
X28.316 Y65.647
X28.547 Y65.750
X28.753 Y65.899
X28.923 Y66.088
X29.050 Y66.308
X29.128 Y66.550
X29.155 Y66.802
X29.128 Y67.055
X29.050 Y67.296
X28.923 Y67.516
X28.753 Y67.705
X28.547 Y67.854
X28.316 Y67.957
X28.067 Y68.010
X27.813 Y68.010
G0 Z3.000
G0  X30.353 Y68.010
G0  Z3.000
G01 F400 Z0
G01 F400 Z-0.100
G01F400X30.105 Y67.957
X29.873 Y67.854
X29.667 Y67.705
X29.497 Y67.516
X29.370 Y67.296
X29.292 Y67.055
X29.265 Y66.802
X29.292 Y66.550
X29.370 Y66.308
X29.497 Y66.088
X29.667 Y65.899
X29.873 Y65.750
X30.105 Y65.647
X30.353 Y65.594
X30.607 Y65.594
X30.856 Y65.647
X31.087 Y65.750
X31.293 Y65.899
X31.463 Y66.088
X31.590 Y66.308
X31.668 Y66.550
X31.695 Y66.802
X31.668 Y67.055
X31.590 Y67.296
X31.463 Y67.516
X31.293 Y67.705
X31.087 Y67.854
X30.856 Y67.957
X30.607 Y68.010
X30.353 Y68.010
G0 Z3.000
G0  X50.678 Y67.967
G0  Z3.000
G01 F400 Z0
G01 F400 Z-0.100
G01F400X50.438 Y67.916
X50.215 Y67.816
X50.017 Y67.672
X49.853 Y67.490
X49.730 Y67.278
X49.655 Y67.045
X49.629 Y66.802
X49.655 Y66.559
X49.730 Y66.326
X49.853 Y66.114
X50.017 Y65.932
X50.215 Y65.788
X50.438 Y65.688
X50.678 Y65.637
X50.922 Y65.637
X51.162 Y65.688
X51.385 Y65.788
X51.584 Y65.932
X51.747 Y66.114
X51.870 Y66.326
X51.945 Y66.559
X51.971 Y66.802
X51.945 Y67.045
X51.870 Y67.278
X51.747 Y67.490
X51.584 Y67.672
X51.385 Y67.816
X51.162 Y67.916
X50.922 Y67.967
X50.678 Y67.967
G0 Z3.000
G0  X50.678 Y65.427
G0  Z3.000
G01 F400 Z0
G01 F400 Z-0.100
G01F400X50.438 Y65.376
X50.215 Y65.276
X50.017 Y65.132
X49.853 Y64.950
X49.730 Y64.738
X49.655 Y64.505
X49.629 Y64.262
X49.655 Y64.019
X49.730 Y63.786
X49.853 Y63.574
X50.017 Y63.392
X50.215 Y63.248
X50.438 Y63.148
X50.678 Y63.097
X50.922 Y63.097
X51.162 Y63.148
X51.385 Y63.248
X51.584 Y63.392
X51.747 Y63.574
X51.870 Y63.786
X51.945 Y64.019
X51.971 Y64.262
X51.945 Y64.505
X51.870 Y64.738
X51.747 Y64.950
X51.584 Y65.132
X51.385 Y65.276
X51.162 Y65.376
X50.922 Y65.427
X50.678 Y65.427
G0 Z3.000
G0  X27.813 Y62.930
G0  Z3.000
G01 F400 Z0
G01 F400 Z-0.100
G01F400X27.565 Y62.877
X27.333 Y62.774
X27.127 Y62.625
X26.957 Y62.436
X26.830 Y62.216
X26.752 Y61.975
X26.725 Y61.722
X26.752 Y61.470
X26.830 Y61.228
X26.957 Y61.008
X27.127 Y60.819
X27.333 Y60.670
X27.565 Y60.567
X27.813 Y60.514
X28.067 Y60.514
X28.316 Y60.567
X28.547 Y60.670
X28.753 Y60.819
X28.923 Y61.008
X29.050 Y61.228
X29.128 Y61.470
X29.155 Y61.722
X29.128 Y61.975
X29.050 Y62.216
X28.923 Y62.436
X28.753 Y62.625
X28.547 Y62.774
X28.316 Y62.877
X28.067 Y62.930
X27.813 Y62.930
G0 Z3.000
G0  X30.353 Y62.930
G0  Z3.000
G01 F400 Z0
G01 F400 Z-0.100
G01F400X30.105 Y62.877
X29.873 Y62.774
X29.667 Y62.625
X29.497 Y62.436
X29.370 Y62.216
X29.292 Y61.975
X29.265 Y61.722
X29.292 Y61.470
X29.370 Y61.228
X29.497 Y61.008
X29.667 Y60.819
X29.873 Y60.670
X30.105 Y60.567
X30.353 Y60.514
X30.607 Y60.514
X30.856 Y60.567
X31.087 Y60.670
X31.293 Y60.819
X31.463 Y61.008
X31.590 Y61.228
X31.668 Y61.470
X31.695 Y61.722
X31.668 Y61.975
X31.590 Y62.216
X31.463 Y62.436
X31.293 Y62.625
X31.087 Y62.774
X30.856 Y62.877
X30.607 Y62.930
X30.353 Y62.930
G0 Z3.000
G0  X50.678 Y62.887
G0  Z3.000
G01 F400 Z0
G01 F400 Z-0.100
G01F400X50.438 Y62.836
X50.215 Y62.736
X50.017 Y62.592
X49.853 Y62.410
X49.730 Y62.198
X49.655 Y61.965
X49.629 Y61.722
X49.655 Y61.479
X49.730 Y61.246
X49.853 Y61.034
X50.017 Y60.852
X50.215 Y60.708
X50.438 Y60.608
X50.678 Y60.557
X50.922 Y60.557
X51.162 Y60.608
X51.385 Y60.708
X51.584 Y60.852
X51.747 Y61.034
X51.870 Y61.246
X51.945 Y61.479
X51.971 Y61.722
X51.945 Y61.965
X51.870 Y62.198
X51.747 Y62.410
X51.584 Y62.592
X51.385 Y62.736
X51.162 Y62.836
X50.922 Y62.887
X50.678 Y62.887
G0 Z3.000
G0  X27.813 Y60.390
G0  Z3.000
G01 F400 Z0
G01 F400 Z-0.100
G01F400X27.565 Y60.337
X27.333 Y60.234
X27.127 Y60.085
X26.957 Y59.896
X26.830 Y59.676
X26.752 Y59.434
X26.725 Y59.182
X26.752 Y58.930
X26.830 Y58.688
X26.957 Y58.468
X27.127 Y58.279
X27.333 Y58.130
X27.565 Y58.027
X27.813 Y57.974
X28.067 Y57.974
X28.316 Y58.027
X28.547 Y58.130
X28.753 Y58.279
X28.923 Y58.468
X29.050 Y58.688
X29.128 Y58.930
X29.155 Y59.182
X29.128 Y59.434
X29.050 Y59.676
X28.923 Y59.896
X28.753 Y60.085
X28.547 Y60.234
X28.316 Y60.337
X28.067 Y60.390
X27.813 Y60.390
G0 Z3.000
G0  X30.353 Y60.390
G0  Z3.000
G01 F400 Z0
G01 F400 Z-0.100
G01F400X30.105 Y60.337
X29.873 Y60.234
X29.667 Y60.085
X29.497 Y59.896
X29.370 Y59.676
X29.292 Y59.434
X29.265 Y59.182
X29.292 Y58.930
X29.370 Y58.688
X29.497 Y58.468
X29.667 Y58.279
X29.873 Y58.130
X30.105 Y58.027
X30.353 Y57.974
X30.607 Y57.974
X30.856 Y58.027
X31.087 Y58.130
X31.293 Y58.279
X31.463 Y58.468
X31.590 Y58.688
X31.668 Y58.930
X31.695 Y59.182
X31.668 Y59.434
X31.590 Y59.676
X31.463 Y59.896
X31.293 Y60.085
X31.087 Y60.234
X30.856 Y60.337
X30.607 Y60.390
X30.353 Y60.390
G0 Z3.000
G0  X27.813 Y57.850
G0  Z3.000
G01 F400 Z0
G01 F400 Z-0.100
G01F400X27.565 Y57.797
X27.333 Y57.694
X27.127 Y57.545
X26.957 Y57.356
X26.830 Y57.136
X26.752 Y56.895
X26.725 Y56.642
X26.752 Y56.390
X26.830 Y56.148
X26.957 Y55.928
X27.127 Y55.739
X27.333 Y55.590
X27.565 Y55.487
X27.813 Y55.434
X28.067 Y55.434
X28.316 Y55.487
X28.547 Y55.590
X28.753 Y55.739
X28.923 Y55.928
X29.050 Y56.148
X29.128 Y56.390
X29.155 Y56.642
X29.128 Y56.895
X29.050 Y57.136
X28.923 Y57.356
X28.753 Y57.545
X28.547 Y57.694
X28.316 Y57.797
X28.067 Y57.850
X27.813 Y57.850
G0 Z3.000
G0  X30.353 Y57.850
G0  Z3.000
G01 F400 Z0
G01 F400 Z-0.100
G01F400X30.105 Y57.797
X29.873 Y57.694
X29.667 Y57.545
X29.497 Y57.356
X29.370 Y57.136
X29.292 Y56.895
X29.265 Y56.642
X29.292 Y56.390
X29.370 Y56.148
X29.497 Y55.928
X29.667 Y55.739
X29.873 Y55.590
X30.105 Y55.487
X30.353 Y55.434
X30.607 Y55.434
X30.856 Y55.487
X31.087 Y55.590
X31.293 Y55.739
X31.463 Y55.928
X31.590 Y56.148
X31.668 Y56.390
X31.695 Y56.642
X31.668 Y56.895
X31.590 Y57.136
X31.463 Y57.356
X31.293 Y57.545
X31.087 Y57.694
X30.856 Y57.797
X30.607 Y57.850
X30.353 Y57.850
G0 Z3.000
G0  X50.678 Y57.807
G0  Z3.000
G01 F400 Z0
G01 F400 Z-0.100
G01F400X50.438 Y57.756
X50.215 Y57.656
X50.017 Y57.512
X49.853 Y57.330
X49.730 Y57.118
X49.655 Y56.885
X49.629 Y56.642
X49.655 Y56.399
X49.730 Y56.166
X49.853 Y55.954
X50.017 Y55.772
X50.215 Y55.628
X50.438 Y55.528
X50.678 Y55.477
X50.922 Y55.477
X51.162 Y55.528
X51.385 Y55.628
X51.584 Y55.772
X51.747 Y55.954
X51.870 Y56.166
X51.945 Y56.399
X51.971 Y56.642
X51.945 Y56.885
X51.870 Y57.118
X51.747 Y57.330
X51.584 Y57.512
X51.385 Y57.656
X51.162 Y57.756
X50.922 Y57.807
X50.678 Y57.807
G0 Z3.000
G0  X27.813 Y55.310
G0  Z3.000
G01 F400 Z0
G01 F400 Z-0.100
G01F400X27.565 Y55.257
X27.333 Y55.154
X27.127 Y55.005
X26.957 Y54.816
X26.830 Y54.596
X26.752 Y54.355
X26.725 Y54.102
X26.752 Y53.849
X26.830 Y53.608
X26.957 Y53.388
X27.127 Y53.199
X27.333 Y53.050
X27.565 Y52.947
X27.813 Y52.894
X28.067 Y52.894
X28.316 Y52.947
X28.547 Y53.050
X28.753 Y53.199
X28.923 Y53.388
X29.050 Y53.608
X29.128 Y53.849
X29.155 Y54.102
X29.128 Y54.355
X29.050 Y54.596
X28.923 Y54.816
X28.753 Y55.005
X28.547 Y55.154
X28.316 Y55.257
X28.067 Y55.310
X27.813 Y55.310
G0 Z3.000
G0  X30.353 Y55.310
G0  Z3.000
G01 F400 Z0
G01 F400 Z-0.100
G01F400X30.105 Y55.257
X29.873 Y55.154
X29.667 Y55.005
X29.497 Y54.816
X29.370 Y54.596
X29.292 Y54.355
X29.265 Y54.102
X29.292 Y53.849
X29.370 Y53.608
X29.497 Y53.388
X29.667 Y53.199
X29.873 Y53.050
X30.105 Y52.947
X30.353 Y52.894
X30.607 Y52.894
X30.856 Y52.947
X31.087 Y53.050
X31.293 Y53.199
X31.463 Y53.388
X31.590 Y53.608
X31.668 Y53.849
X31.695 Y54.102
X31.668 Y54.355
X31.590 Y54.596
X31.463 Y54.816
X31.293 Y55.005
X31.087 Y55.154
X30.856 Y55.257
X30.607 Y55.310
X30.353 Y55.310
G0 Z3.000
G0  X50.678 Y55.267
G0  Z3.000
G01 F400 Z0
G01 F400 Z-0.100
G01F400X50.438 Y55.216
X50.215 Y55.116
X50.017 Y54.972
X49.853 Y54.790
X49.730 Y54.578
X49.655 Y54.345
X49.629 Y54.102
X49.655 Y53.859
X49.730 Y53.626
X49.853 Y53.414
X50.017 Y53.232
X50.215 Y53.088
X50.438 Y52.988
X50.678 Y52.937
X50.922 Y52.937
X51.162 Y52.988
X51.385 Y53.088
X51.584 Y53.232
X51.747 Y53.414
X51.870 Y53.626
X51.945 Y53.859
X51.971 Y54.102
X51.945 Y54.345
X51.870 Y54.578
X51.747 Y54.790
X51.584 Y54.972
X51.385 Y55.116
X51.162 Y55.216
X50.922 Y55.267
X50.678 Y55.267
G0 Z3.000
G0  X27.813 Y52.770
G0  Z3.000
G01 F400 Z0
G01 F400 Z-0.100
G01F400X27.565 Y52.717
X27.333 Y52.614
X27.127 Y52.465
X26.957 Y52.276
X26.830 Y52.056
X26.752 Y51.815
X26.725 Y51.562
X26.752 Y51.309
X26.830 Y51.068
X26.957 Y50.848
X27.127 Y50.659
X27.333 Y50.510
X27.565 Y50.407
X27.813 Y50.354
X28.067 Y50.354
X28.316 Y50.407
X28.547 Y50.510
X28.753 Y50.659
X28.923 Y50.848
X29.050 Y51.068
X29.128 Y51.309
X29.155 Y51.562
X29.128 Y51.815
X29.050 Y52.056
X28.923 Y52.276
X28.753 Y52.465
X28.547 Y52.614
X28.316 Y52.717
X28.067 Y52.770
X27.813 Y52.770
G0 Z3.000
G0  X30.353 Y52.770
G0  Z3.000
G01 F400 Z0
G01 F400 Z-0.100
G01F400X30.105 Y52.717
X29.873 Y52.614
X29.667 Y52.465
X29.497 Y52.276
X29.370 Y52.056
X29.292 Y51.815
X29.265 Y51.562
X29.292 Y51.309
X29.370 Y51.068
X29.497 Y50.848
X29.667 Y50.659
X29.873 Y50.510
X30.105 Y50.407
X30.353 Y50.354
X30.607 Y50.354
X30.856 Y50.407
X31.087 Y50.510
X31.293 Y50.659
X31.463 Y50.848
X31.590 Y51.068
X31.668 Y51.309
X31.695 Y51.562
X31.668 Y51.815
X31.590 Y52.056
X31.463 Y52.276
X31.293 Y52.465
X31.087 Y52.614
X30.856 Y52.717
X30.607 Y52.770
X30.353 Y52.770
G0 Z3.000
G0  X17.656 Y52.745
G0  Z3.000
G01 F400 Z0
G01 F400 Z-0.100
G01F400X17.412 Y52.693
X17.186 Y52.592
X16.984 Y52.446
X16.818 Y52.261
X16.694 Y52.046
X16.617 Y51.809
X16.591 Y51.562
X16.617 Y51.315
X16.694 Y51.078
X16.818 Y50.863
X16.984 Y50.678
X17.186 Y50.532
X17.412 Y50.431
X17.656 Y50.379
X17.904 Y50.379
X18.148 Y50.431
X18.375 Y50.532
X18.576 Y50.678
X18.742 Y50.863
X18.867 Y51.078
X18.943 Y51.315
X18.969 Y51.562
X18.943 Y51.809
X18.867 Y52.046
X18.742 Y52.261
X18.576 Y52.446
X18.375 Y52.592
X18.148 Y52.693
X17.904 Y52.745
X17.656 Y52.745
G0 Z3.000
G0  X22.736 Y52.745
G0  Z3.000
G01 F400 Z0
G01 F400 Z-0.100
G01F400X22.492 Y52.693
X22.265 Y52.592
X22.064 Y52.446
X21.898 Y52.261
X21.774 Y52.046
X21.697 Y51.809
X21.671 Y51.562
X21.697 Y51.315
X21.774 Y51.078
X21.898 Y50.863
X22.064 Y50.678
X22.265 Y50.532
X22.492 Y50.431
X22.736 Y50.379
X22.984 Y50.379
X23.228 Y50.431
X23.454 Y50.532
X23.656 Y50.678
X23.822 Y50.863
X23.947 Y51.078
X24.023 Y51.315
X24.049 Y51.562
X24.023 Y51.809
X23.947 Y52.046
X23.822 Y52.261
X23.656 Y52.446
X23.454 Y52.592
X23.228 Y52.693
X22.984 Y52.745
X22.736 Y52.745
G0 Z3.000
G0  X49.630 Y52.732
G0  Z3.000
G01 F400 Z0
G01 F400 Z-0.100
G01F400X49.630 Y50.392
X51.970 Y50.392
X51.970 Y52.732
X49.630 Y52.732
G0 Z3.000
G0  X30.378 Y50.230
G0  Z3.000
G01 F400 Z0
G01 F400 Z-0.100
G01F400X30.130 Y50.177
X29.898 Y50.074
X29.693 Y49.925
X29.523 Y49.736
X29.396 Y49.516
X29.317 Y49.275
X29.291 Y49.022
X29.317 Y48.770
X29.396 Y48.528
X29.523 Y48.308
X29.693 Y48.119
X29.898 Y47.970
X30.130 Y47.867
X30.378 Y47.814
X30.633 Y47.814
X30.881 Y47.867
X31.113 Y47.970
X31.318 Y48.119
X31.488 Y48.308
X31.615 Y48.528
X31.694 Y48.770
X31.720 Y49.022
X31.694 Y49.275
X31.615 Y49.516
X31.488 Y49.736
X31.318 Y49.925
X31.113 Y50.074
X30.881 Y50.177
X30.633 Y50.230
X30.378 Y50.230
G0 Z3.000
G0  X27.813 Y50.230
G0  Z3.000
G01 F400 Z0
G01 F400 Z-0.100
G01F400X27.565 Y50.177
X27.333 Y50.074
X27.127 Y49.925
X26.957 Y49.736
X26.830 Y49.516
X26.752 Y49.275
X26.725 Y49.022
X26.752 Y48.770
X26.830 Y48.528
X26.957 Y48.308
X27.127 Y48.119
X27.333 Y47.970
X27.565 Y47.867
X27.813 Y47.814
X28.067 Y47.814
X28.316 Y47.867
X28.547 Y47.970
X28.753 Y48.119
X28.923 Y48.308
X29.050 Y48.528
X29.128 Y48.770
X29.155 Y49.022
X29.128 Y49.275
X29.050 Y49.516
X28.923 Y49.736
X28.753 Y49.925
X28.547 Y50.074
X28.316 Y50.177
X28.067 Y50.230
X27.813 Y50.230
G0 Z3.000
G0  X19.099 Y47.703
G0  Z3.000
G01 F400 Z0
G01 F400 Z-0.100
G01F400X19.099 Y45.261
X21.541 Y45.261
X21.541 Y47.703
X19.099 Y47.703
G0 Z3.000
G0  X30.353 Y47.690
G0  Z3.000
G01 F400 Z0
G01 F400 Z-0.100
G01F400X30.105 Y47.637
X29.873 Y47.534
X29.667 Y47.385
X29.497 Y47.196
X29.370 Y46.976
X29.292 Y46.735
X29.265 Y46.482
X29.292 Y46.230
X29.370 Y45.988
X29.497 Y45.768
X29.667 Y45.579
X29.873 Y45.430
X30.105 Y45.327
X30.353 Y45.274
X30.607 Y45.274
X30.856 Y45.327
X31.087 Y45.430
X31.293 Y45.579
X31.463 Y45.768
X31.590 Y45.988
X31.668 Y46.230
X31.695 Y46.482
X31.668 Y46.735
X31.590 Y46.976
X31.463 Y47.196
X31.293 Y47.385
X31.087 Y47.534
X30.856 Y47.637
X30.607 Y47.690
X30.353 Y47.690
G0 Z3.000
G0  X27.813 Y47.690
G0  Z3.000
G01 F400 Z0
G01 F400 Z-0.100
G01F400X27.565 Y47.637
X27.333 Y47.534
X27.127 Y47.385
X26.957 Y47.196
X26.830 Y46.976
X26.752 Y46.735
X26.725 Y46.482
X26.752 Y46.230
X26.830 Y45.988
X26.957 Y45.768
X27.127 Y45.579
X27.333 Y45.430
X27.565 Y45.327
X27.813 Y45.274
X28.067 Y45.274
X28.316 Y45.327
X28.547 Y45.430
X28.753 Y45.579
X28.923 Y45.768
X29.050 Y45.988
X29.128 Y46.230
X29.155 Y46.482
X29.128 Y46.735
X29.050 Y46.976
X28.923 Y47.196
X28.753 Y47.385
X28.547 Y47.534
X28.316 Y47.637
X28.067 Y47.690
X27.813 Y47.690
G0 Z3.000
G0  X20.192 Y45.157
G0  Z3.000
G01 F400 Z0
G01 F400 Z-0.100
G01F400X19.942 Y45.104
X19.709 Y45.000
X19.503 Y44.850
X19.332 Y44.660
X19.204 Y44.439
X19.125 Y44.196
X19.098 Y43.942
X19.125 Y43.688
X19.204 Y43.445
X19.332 Y43.224
X19.503 Y43.034
X19.709 Y42.884
X19.942 Y42.780
X20.192 Y42.727
X20.448 Y42.727
X20.698 Y42.780
X20.931 Y42.884
X21.137 Y43.034
X21.309 Y43.224
X21.436 Y43.445
X21.515 Y43.688
X21.542 Y43.942
X21.515 Y44.196
X21.436 Y44.439
X21.309 Y44.660
X21.137 Y44.850
X20.931 Y45.000
X20.698 Y45.104
X20.448 Y45.157
X20.192 Y45.157
G0 Z3.000
G0  X30.353 Y45.150
G0  Z3.000
G01 F400 Z0
G01 F400 Z-0.100
G01F400X30.105 Y45.097
X29.873 Y44.994
X29.667 Y44.845
X29.497 Y44.656
X29.370 Y44.436
X29.292 Y44.195
X29.265 Y43.942
X29.292 Y43.690
X29.370 Y43.448
X29.497 Y43.228
X29.667 Y43.039
X29.873 Y42.890
X30.105 Y42.787
X30.353 Y42.734
X30.607 Y42.734
X30.856 Y42.787
X31.087 Y42.890
X31.293 Y43.039
X31.463 Y43.228
X31.590 Y43.448
X31.668 Y43.690
X31.695 Y43.942
X31.668 Y44.195
X31.590 Y44.436
X31.463 Y44.656
X31.293 Y44.845
X31.087 Y44.994
X30.856 Y45.097
X30.607 Y45.150
X30.353 Y45.150
G0 Z3.000
G0  X27.813 Y45.150
G0  Z3.000
G01 F400 Z0
G01 F400 Z-0.100
G01F400X27.565 Y45.097
X27.333 Y44.994
X27.127 Y44.845
X26.957 Y44.656
X26.830 Y44.436
X26.752 Y44.195
X26.725 Y43.942
X26.752 Y43.690
X26.830 Y43.448
X26.957 Y43.228
X27.127 Y43.039
X27.333 Y42.890
X27.565 Y42.787
X27.813 Y42.734
X28.067 Y42.734
X28.316 Y42.787
X28.547 Y42.890
X28.753 Y43.039
X28.923 Y43.228
X29.050 Y43.448
X29.128 Y43.690
X29.155 Y43.942
X29.128 Y44.195
X29.050 Y44.436
X28.923 Y44.656
X28.753 Y44.845
X28.547 Y44.994
X28.316 Y45.097
X28.067 Y45.150
X27.813 Y45.150
G0 Z3.000
G0  X20.192 Y42.617
G0  Z3.000
G01 F400 Z0
G01 F400 Z-0.100
G01F400X19.942 Y42.564
X19.709 Y42.460
X19.503 Y42.310
X19.332 Y42.120
X19.204 Y41.899
X19.125 Y41.656
X19.098 Y41.402
X19.125 Y41.148
X19.204 Y40.905
X19.332 Y40.684
X19.503 Y40.494
X19.709 Y40.344
X19.942 Y40.240
X20.192 Y40.187
X20.448 Y40.187
X20.698 Y40.240
X20.931 Y40.344
X21.137 Y40.494
X21.309 Y40.684
X21.436 Y40.905
X21.515 Y41.148
X21.542 Y41.402
X21.515 Y41.656
X21.436 Y41.899
X21.309 Y42.120
X21.137 Y42.310
X20.931 Y42.460
X20.698 Y42.564
X20.448 Y42.617
X20.192 Y42.617
G0 Z3.000
G0  X30.353 Y42.610
G0  Z3.000
G01 F400 Z0
G01 F400 Z-0.100
G01F400X30.105 Y42.557
X29.873 Y42.454
X29.667 Y42.305
X29.497 Y42.116
X29.370 Y41.896
X29.292 Y41.654
X29.265 Y41.402
X29.292 Y41.150
X29.370 Y40.908
X29.497 Y40.688
X29.667 Y40.499
X29.873 Y40.350
X30.105 Y40.247
X30.353 Y40.194
X30.607 Y40.194
X30.856 Y40.247
X31.087 Y40.350
X31.293 Y40.499
X31.463 Y40.688
X31.590 Y40.908
X31.668 Y41.150
X31.695 Y41.402
X31.668 Y41.654
X31.590 Y41.896
X31.463 Y42.116
X31.293 Y42.305
X31.087 Y42.454
X30.856 Y42.557
X30.607 Y42.610
X30.353 Y42.610
G0 Z3.000
G0  X27.813 Y42.610
G0  Z3.000
G01 F400 Z0
G01 F400 Z-0.100
G01F400X27.565 Y42.557
X27.333 Y42.454
X27.127 Y42.305
X26.957 Y42.116
X26.830 Y41.896
X26.752 Y41.654
X26.725 Y41.402
X26.752 Y41.150
X26.830 Y40.908
X26.957 Y40.688
X27.127 Y40.499
X27.333 Y40.350
X27.565 Y40.247
X27.813 Y40.194
X28.067 Y40.194
X28.316 Y40.247
X28.547 Y40.350
X28.753 Y40.499
X28.923 Y40.688
X29.050 Y40.908
X29.128 Y41.150
X29.155 Y41.402
X29.128 Y41.654
X29.050 Y41.896
X28.923 Y42.116
X28.753 Y42.305
X28.547 Y42.454
X28.316 Y42.557
X28.067 Y42.610
X27.813 Y42.610
G0 Z3.000
G0  X30.353 Y40.070
G0  Z3.000
G01 F400 Z0
G01 F400 Z-0.100
G01F400X30.105 Y40.017
X29.873 Y39.914
X29.667 Y39.765
X29.497 Y39.576
X29.370 Y39.356
X29.292 Y39.114
X29.265 Y38.862
X29.292 Y38.610
X29.370 Y38.368
X29.497 Y38.148
X29.667 Y37.959
X29.873 Y37.810
X30.105 Y37.707
X30.353 Y37.654
X30.607 Y37.654
X30.856 Y37.707
X31.087 Y37.810
X31.293 Y37.959
X31.463 Y38.148
X31.590 Y38.368
X31.668 Y38.610
X31.695 Y38.862
X31.668 Y39.114
X31.590 Y39.356
X31.463 Y39.576
X31.293 Y39.765
X31.087 Y39.914
X30.856 Y40.017
X30.607 Y40.070
X30.353 Y40.070
G0 Z3.000
G0  X27.813 Y40.070
G0  Z3.000
G01 F400 Z0
G01 F400 Z-0.100
G01F400X27.565 Y40.017
X27.333 Y39.914
X27.127 Y39.765
X26.957 Y39.576
X26.830 Y39.356
X26.752 Y39.114
X26.725 Y38.862
X26.752 Y38.610
X26.830 Y38.368
X26.957 Y38.148
X27.127 Y37.959
X27.333 Y37.810
X27.565 Y37.707
X27.813 Y37.654
X28.067 Y37.654
X28.316 Y37.707
X28.547 Y37.810
X28.753 Y37.959
